;Generated with Cura_SteamEngine 13.12
M140 S100.000000
M109 T0 S255.000000
T0
M190 S100.000000
;Sliced at: Thu 13-03-2014 02:08:43
;Basic settings: Layer height: 0.2 Walls: 1 Fill: 20
;Print time: #P_TIME#
;Filament used: #F_AMNT#m #F_WGHT#g
;Filament cost: #F_COST#
;M190 S100 ;Uncomment to add your own bed temperature line
;M109 S255 ;Uncomment to add your own temperature line
G21        ;metric values
G90        ;absolute positioning
M107       ;start with the fan off
G28 X0 Y0  ;move X/Y to min endstops
G28 Z0     ;move Z to min endstops
G1 Z15.0 F9000 ;move the platform down 15mm
G92 E0                  ;zero the extruded length
G1 F200 E3              ;extrude 3mm of feed stock
G92 E0                  ;zero the extruded length again
G1 F9000
;Put printing message on LCD screen
M117 Printing...

;Layer count: 105
;LAYER:0
M107
G0 F9000 X112.56 Y71.97 Z0.20
;TYPE:SKIRT
G1 F1200 E0.00000
G1 F3000 X118.87 Y65.65 E0.37147
G1 X193.76 Y65.65 E3.48471
G1 X193.76 Y96.65 E4.77354
G1 X192.56 Y96.65 E4.82343
G1 X192.56 Y155.65 E7.27632
G1 X156.68 Y155.65 E8.76787
G1 X156.72 Y155.70 E8.77062
G1 X157.34 Y156.66 E8.81811
G1 X157.55 Y157.00 E8.83450
G1 X158.20 Y158.39 E8.89861
G1 X158.55 Y159.47 E8.94592
G1 X158.68 Y159.85 E8.96231
G1 X158.89 Y160.98 E9.01005
G1 X158.96 Y161.36 E9.02639
G1 X158.97 Y161.49 E9.03148
G1 X159.12 Y161.54 E9.03792
G1 X159.59 Y161.80 E9.06032
G1 X160.02 Y162.12 E9.08252
G1 X160.41 Y162.48 E9.10461
G1 X160.75 Y162.89 E9.12681
G1 X161.03 Y163.34 E9.14909
G1 X161.26 Y163.83 E9.17139
G1 X161.43 Y164.34 E9.19362
G1 X161.54 Y164.91 E9.21804
G1 X161.56 Y166.45 E9.28178
G1 X161.53 Y166.93 E9.30169
G1 X161.43 Y167.45 E9.32370
G1 X161.26 Y167.95 E9.34584
G1 X161.03 Y168.44 E9.36831
G1 X160.75 Y168.89 E9.39059
G1 X160.74 Y168.90 E9.39083
G1 X160.82 Y168.93 E9.39454
G1 X161.73 Y169.43 E9.43766
G1 X162.57 Y170.04 E9.48067
G1 X163.33 Y170.75 E9.52379
G1 X163.98 Y171.55 E9.56675
G1 X164.54 Y172.42 E9.60995
G1 X164.98 Y173.36 E9.65304
G1 X165.30 Y174.35 E9.69606
G1 X165.50 Y175.36 E9.73914
G1 X165.56 Y176.40 E9.78222
G1 X165.50 Y177.43 E9.82529
G1 X165.30 Y178.45 E9.86837
G1 X164.98 Y179.44 E9.91156
G1 X164.54 Y180.37 E9.95460
G1 X163.98 Y181.25 E9.99771
G1 X163.32 Y182.05 E10.04076
G1 X162.57 Y182.76 E10.08388
G1 X161.73 Y183.37 E10.12699
G1 X160.82 Y183.87 E10.17012
G1 X159.86 Y184.25 E10.21317
G1 X158.85 Y184.51 E10.25628
G1 X157.82 Y184.64 E10.29940
G1 X156.79 Y184.64 E10.34247
G1 X155.76 Y184.51 E10.38559
G1 X154.76 Y184.25 E10.42869
G1 X153.79 Y183.87 E10.47175
G1 X153.03 Y183.45 E10.50775
G1 X151.67 Y184.15 E10.57121
G1 X150.22 Y184.67 E10.63527
G1 X148.72 Y185.00 E10.69926
G1 X147.19 Y185.15 E10.76319
G1 X145.65 Y185.10 E10.82717
G1 X144.13 Y184.86 E10.89115
G1 X142.66 Y184.43 E10.95510
G1 X141.24 Y183.82 E11.01914
G1 X140.42 Y183.33 E11.05867
G1 X140.27 Y183.21 E11.06697
G1 X119.56 Y183.21 E11.92799
G1 X119.56 Y174.71 E12.28138
G1 X143.04 Y174.71 E13.25773
G1 X143.18 Y174.70 E13.26375
G1 X143.71 Y174.71 E13.28579
G1 X144.24 Y174.80 E13.30811
G1 X144.75 Y174.95 E13.33019
G1 X145.24 Y175.16 E13.35229
G1 X145.57 Y175.35 E13.36797
G1 X145.87 Y175.48 E13.38178
G1 X146.21 Y175.58 E13.39647
G1 X146.54 Y175.63 E13.41044
G1 X146.89 Y175.64 E13.42491
G1 X147.24 Y175.61 E13.43941
G1 X147.57 Y175.53 E13.45356
G1 X147.90 Y175.42 E13.46803
G1 X148.21 Y175.26 E13.48237
G1 X148.49 Y175.07 E13.49683
G1 X149.18 Y174.46 E13.53512
G1 X149.48 Y174.19 E13.55159
G1 X149.96 Y173.87 E13.57564
G1 X150.28 Y173.65 E13.59185
G1 X150.63 Y173.47 E13.60815
G1 X151.15 Y173.21 E13.63247
G1 X153.54 Y172.35 E13.73803
G1 X154.55 Y174.66 E13.84306
G1 X154.60 Y174.78 E13.84846
G1 X154.85 Y175.20 E13.86877
G1 X155.04 Y175.45 E13.88173
G1 X155.04 Y175.45 E13.88179
G1 X155.13 Y175.56 E13.88736
G1 X155.44 Y175.88 E13.90606
G1 X155.79 Y176.15 E13.92437
G1 X156.05 Y176.30 E13.93708
G1 X156.15 Y176.36 E13.94185
G1 X156.25 Y176.41 E13.94638
G1 X156.52 Y176.52 E13.95880
G1 X156.63 Y176.55 E13.96342
G1 X156.92 Y176.63 E13.97589
G1 X157.21 Y176.67 E13.98822
G1 X157.29 Y176.68 E13.99158
G1 X157.31 Y175.69 E14.03291
G1 X157.31 Y175.69 E14.03308
G1 X157.07 Y175.68 E14.04269
G1 X156.63 Y175.55 E14.06196
G1 X155.06 Y174.90 E14.13268
G1 X155.06 Y170.31 E14.32355
G1 X154.91 Y170.27 E14.32977
G1 X154.00 Y169.91 E14.37031
G1 X153.15 Y169.44 E14.41080
G1 X152.36 Y168.87 E14.45132
G1 X151.65 Y168.21 E14.49179
G1 X151.03 Y167.46 E14.53219
G1 X150.51 Y166.63 E14.57269
G1 X150.10 Y165.75 E14.61325
G1 X149.79 Y164.83 E14.65370
G1 X149.61 Y163.87 E14.69420
G1 X149.53 Y162.55 E14.74911
G1 X149.47 Y162.21 E14.76346
G1 X149.36 Y161.89 E14.77775
G1 X149.21 Y161.58 E14.79190
G1 X149.03 Y161.28 E14.80657
G1 X148.81 Y161.02 E14.82066
G1 X148.56 Y160.78 E14.83513
G1 X148.28 Y160.58 E14.84927
G1 X147.98 Y160.41 E14.86365
G1 X147.65 Y160.29 E14.87817
G1 X147.32 Y160.20 E14.89229
G1 X146.98 Y160.16 E14.90671
G1 X146.63 Y160.16 E14.92109
G1 X146.29 Y160.20 E14.93551
G1 X145.96 Y160.29 E14.94963
G1 X145.63 Y160.41 E14.96415
G1 X145.33 Y160.58 E14.97854
G1 X145.06 Y160.78 E14.99267
G1 X144.80 Y161.02 E15.00714
G1 X144.59 Y161.28 E15.02126
G1 X144.40 Y161.57 E15.03569
G1 X144.25 Y161.89 E15.05021
G1 X144.15 Y162.22 E15.06443
G1 X144.08 Y162.55 E15.07877
G1 X144.03 Y163.43 E15.11539
G1 X143.93 Y163.95 E15.13740
G1 X143.76 Y164.46 E15.15963
G1 X143.53 Y164.95 E15.18193
G1 X143.25 Y165.40 E15.20420
G1 X142.91 Y165.81 E15.22640
G1 X142.52 Y166.18 E15.24849
G1 X142.09 Y166.49 E15.27070
G1 X141.62 Y166.75 E15.29310
G1 X141.12 Y166.94 E15.31522
G1 X140.60 Y167.08 E15.33742
G1 X140.11 Y167.14 E15.35825
G1 X139.84 Y167.15 E15.36927
G1 X119.93 Y167.15 E16.19732
G1 X118.88 Y167.16 E16.24060
G1 X112.56 Y160.83 E16.61267
G1 X112.56 Y71.97 E20.30716
G0 F9000 X113.06 Y72.17
G1 F3000 X119.08 Y66.15 E20.66141
G1 X193.26 Y66.15 E23.74524
G1 X193.26 Y96.15 E24.99250
G1 X192.06 Y96.15 E25.04239
G1 X192.06 Y155.15 E27.49528
G1 X155.62 Y155.15 E29.01016
G1 X156.32 Y155.99 E29.05576
G1 X156.91 Y156.93 E29.10193
G1 X157.11 Y157.24 E29.11699
G1 X157.74 Y158.58 E29.17849
G1 X158.08 Y159.63 E29.22451
G1 X158.08 Y159.63 E29.22455
G1 X158.19 Y159.97 E29.23963
G1 X158.40 Y161.07 E29.28606
G1 X158.47 Y161.43 E29.30109
G1 X158.49 Y161.83 E29.31809
G1 X158.90 Y162.00 E29.33640
G1 X159.32 Y162.22 E29.35614
G1 X159.70 Y162.50 E29.37575
G1 X160.04 Y162.82 E29.39525
G1 X160.34 Y163.19 E29.41483
G1 X160.60 Y163.59 E29.43447
G1 X160.80 Y164.01 E29.45415
G1 X160.94 Y164.46 E29.47376
G1 X161.04 Y164.97 E29.49505
G1 X161.06 Y166.44 E29.55622
G1 X161.03 Y166.86 E29.57401
G1 X160.94 Y167.32 E29.59343
G1 X160.80 Y167.77 E29.61299
G1 X160.60 Y168.20 E29.63276
G1 X160.34 Y168.60 E29.65243
G1 X160.04 Y168.96 E29.67195
G1 X159.89 Y169.10 E29.68042
G1 X160.61 Y169.38 E29.71256
G1 X161.46 Y169.85 E29.75301
G1 X162.25 Y170.43 E29.79346
G1 X162.96 Y171.09 E29.83396
G1 X163.58 Y171.84 E29.87430
G1 X164.10 Y172.67 E29.91491
G1 X164.52 Y173.55 E29.95535
G1 X164.82 Y174.47 E29.99574
G1 X165.00 Y175.43 E30.03624
G1 X165.06 Y176.40 E30.07669
G1 X165.00 Y177.37 E30.11714
G1 X164.82 Y178.33 E30.15765
G1 X164.51 Y179.25 E30.19817
G1 X164.10 Y180.13 E30.23862
G1 X163.58 Y180.96 E30.27911
G1 X162.96 Y181.71 E30.31956
G1 X162.25 Y182.37 E30.36003
G1 X161.46 Y182.94 E30.40052
G1 X160.61 Y183.41 E30.44104
G1 X159.70 Y183.77 E30.48151
G1 X158.76 Y184.01 E30.52198
G1 X157.79 Y184.14 E30.56246
G1 X156.82 Y184.14 E30.60296
G1 X155.85 Y184.01 E30.64344
G1 X154.91 Y183.77 E30.68391
G1 X154.01 Y183.41 E30.72438
G1 X153.15 Y182.94 E30.76490
G1 X153.03 Y182.85 E30.77133
G1 X152.79 Y183.01 E30.78300
G1 X151.47 Y183.69 E30.84458
G1 X150.09 Y184.19 E30.90600
G1 X148.64 Y184.51 E30.96739
G1 X147.18 Y184.65 E31.02873
G1 X145.70 Y184.60 E31.09009
G1 X144.24 Y184.37 E31.15146
G1 X142.82 Y183.96 E31.21281
G1 X141.47 Y183.37 E31.27420
G1 X140.71 Y182.92 E31.31114
G1 X140.44 Y182.71 E31.32524
G1 X120.06 Y182.71 E32.17259
G1 X120.06 Y175.21 E32.48440
G1 X143.06 Y175.21 E33.44092
G1 X143.20 Y175.20 E33.44660
G1 X143.67 Y175.21 E33.46606
G1 X144.13 Y175.29 E33.48573
G1 X144.58 Y175.42 E33.50521
G1 X145.01 Y175.60 E33.52474
G1 X145.33 Y175.79 E33.53978
G1 X145.34 Y175.79 E33.54041
G1 X145.70 Y175.95 E33.55684
G1 X146.10 Y176.07 E33.57382
G1 X146.51 Y176.13 E33.59108
G1 X146.91 Y176.14 E33.60780
G1 X147.31 Y176.10 E33.62459
G1 X147.72 Y176.01 E33.64206
G1 X148.10 Y175.88 E33.65876
G1 X148.46 Y175.69 E33.67570
G1 X148.80 Y175.46 E33.69279
G1 X149.51 Y174.83 E33.73241
G1 X149.79 Y174.59 E33.74752
G1 X150.24 Y174.28 E33.77029
G1 X150.54 Y174.08 E33.78520
G1 X150.86 Y173.92 E33.80021
G1 X151.35 Y173.66 E33.82321
G1 X153.27 Y172.98 E33.90802
G1 X154.10 Y174.86 E33.99362
G1 X154.16 Y175.01 E34.00042
G1 X154.43 Y175.48 E34.02282
G1 X154.65 Y175.76 E34.03742
G1 X154.75 Y175.88 E34.04420
G1 X155.11 Y176.25 E34.06557
G1 X155.50 Y176.56 E34.08645
G1 X155.79 Y176.73 E34.10056
G1 X155.92 Y176.81 E34.10641
G1 X156.05 Y176.86 E34.11260
G1 X156.37 Y177.00 E34.12679
G1 X156.50 Y177.03 E34.13240
G1 X156.82 Y177.12 E34.14633
G1 X157.15 Y177.17 E34.16001
G1 X157.29 Y177.19 E34.16588
G1 X157.53 Y177.19 E34.17594
G1 X157.54 Y177.18 E34.17661
G1 X157.57 Y177.18 E34.17756
G1 X157.59 Y177.17 E34.17875
G1 X157.62 Y177.15 E34.18000
G1 X157.65 Y177.13 E34.18160
G1 X157.68 Y177.09 E34.18365
G1 X157.72 Y177.05 E34.18582
G1 X157.74 Y177.01 E34.18803
G1 X157.77 Y176.95 E34.19062
G1 X157.79 Y176.88 E34.19353
G1 X157.79 Y176.85 E34.19479
G1 X157.81 Y175.67 E34.24386
G1 X157.80 Y175.57 E34.24814
G1 X157.79 Y175.50 E34.25102
G1 X157.77 Y175.44 E34.25367
G1 X157.74 Y175.38 E34.25643
G1 X157.72 Y175.33 E34.25865
G1 X157.68 Y175.29 E34.26087
G1 X157.65 Y175.26 E34.26287
G1 X157.62 Y175.23 E34.26446
G1 X157.59 Y175.22 E34.26577
G1 X157.57 Y175.21 E34.26690
G1 X157.55 Y175.20 E34.26755
G1 X157.49 Y175.19 E34.27015
G1 X157.15 Y175.18 E34.28421
G1 X156.79 Y175.08 E34.29978
G1 X155.56 Y174.57 E34.35534
G1 X155.56 Y169.92 E34.54841
G1 X155.07 Y169.80 E34.56945
G1 X154.22 Y169.46 E34.60735
G1 X153.42 Y169.02 E34.64527
G1 X152.68 Y168.49 E34.68314
G1 X152.02 Y167.86 E34.72102
G1 X151.44 Y167.16 E34.75882
G1 X150.95 Y166.39 E34.79667
G1 X150.56 Y165.57 E34.83463
G1 X150.28 Y164.70 E34.87247
G1 X150.11 Y163.81 E34.91036
G1 X150.03 Y162.49 E34.96526
G1 X149.95 Y162.09 E34.98203
G1 X149.82 Y161.70 E34.99925
G1 X149.65 Y161.34 E35.01597
G1 X149.43 Y160.99 E35.03298
G1 X149.17 Y160.68 E35.04991
G1 X148.87 Y160.39 E35.06702
G1 X148.55 Y160.16 E35.08378
G1 X148.19 Y159.96 E35.10075
G1 X147.81 Y159.81 E35.11770
G1 X147.41 Y159.71 E35.13470
G1 X147.01 Y159.66 E35.15163
G1 X146.60 Y159.66 E35.16859
G1 X146.20 Y159.71 E35.18552
G1 X145.80 Y159.81 E35.20252
G1 X145.42 Y159.96 E35.21947
G1 X145.07 Y160.16 E35.23643
G1 X144.74 Y160.39 E35.25319
G1 X144.44 Y160.68 E35.27031
G1 X144.18 Y160.99 E35.28726
G1 X143.96 Y161.33 E35.30404
G1 X143.79 Y161.70 E35.32113
G1 X143.66 Y162.09 E35.33822
G1 X143.59 Y162.49 E35.35511
G1 X143.53 Y163.37 E35.39165
G1 X143.44 Y163.83 E35.41107
G1 X143.30 Y164.28 E35.43069
G1 X143.10 Y164.71 E35.45036
G1 X142.84 Y165.10 E35.47000
G1 X142.54 Y165.47 E35.48958
G1 X142.20 Y165.79 E35.50908
G1 X141.82 Y166.07 E35.52869
G1 X141.40 Y166.30 E35.54843
G1 X140.97 Y166.47 E35.56794
G1 X140.51 Y166.59 E35.58754
G1 X140.07 Y166.64 E35.60606
G1 X139.83 Y166.65 E35.61579
G1 X119.92 Y166.65 E36.44372
G1 X119.09 Y166.66 E36.47827
G1 X113.06 Y160.62 E36.83298
G1 X113.06 Y72.17 E40.51027
G0 F9000 X113.56 Y72.38
G1 F3000 X119.29 Y66.65 E40.84729
G1 X192.76 Y66.65 E43.90173
G1 X192.76 Y95.65 E45.10741
G1 X191.56 Y95.65 E45.15730
G1 X191.56 Y154.65 E47.61019
G1 X154.43 Y154.65 E49.15388
G1 X155.01 Y155.19 E49.18712
G1 X155.91 Y156.29 E49.24603
G1 X156.49 Y157.20 E49.29093
G1 X156.67 Y157.48 E49.30465
G1 X157.27 Y158.76 E49.36355
G1 X157.60 Y159.78 E49.40830
G1 X157.71 Y160.10 E49.42208
G1 X157.91 Y161.16 E49.46716
G1 X157.97 Y161.49 E49.48087
G1 X158.02 Y162.22 E49.51153
G1 X158.31 Y162.30 E49.52420
G1 X158.69 Y162.45 E49.54113
G1 X159.05 Y162.65 E49.55821
G1 X159.38 Y162.89 E49.57520
G1 X159.68 Y163.17 E49.59211
G1 X159.94 Y163.48 E49.60909
G1 X160.16 Y163.83 E49.62612
G1 X160.33 Y164.20 E49.64313
G1 X160.46 Y164.59 E49.66012
G1 X160.54 Y165.02 E49.67832
G1 X160.56 Y166.42 E49.73682
G1 X160.53 Y166.80 E49.75253
G1 X160.46 Y167.20 E49.76938
G1 X160.33 Y167.59 E49.78632
G1 X160.16 Y167.96 E49.80345
G1 X159.94 Y168.30 E49.82046
G1 X159.68 Y168.62 E49.83739
G1 X159.38 Y168.90 E49.85430
G1 X159.05 Y169.14 E49.87129
G1 X158.76 Y169.30 E49.88515
G1 X159.55 Y169.50 E49.91915
G1 X160.40 Y169.84 E49.95706
G1 X161.19 Y170.28 E49.99491
G1 X161.93 Y170.81 E50.03274
G1 X162.60 Y171.44 E50.07062
G1 X163.17 Y172.13 E50.10836
G1 X163.66 Y172.91 E50.14635
G1 X164.05 Y173.73 E50.18420
G1 X164.33 Y174.60 E50.22197
G1 X164.50 Y175.49 E50.25982
G1 X164.56 Y176.40 E50.29768
G1 X164.50 Y177.31 E50.33554
G1 X164.33 Y178.20 E50.37338
G1 X164.05 Y179.07 E50.41129
G1 X163.66 Y179.89 E50.44915
G1 X163.17 Y180.66 E50.48702
G1 X162.59 Y181.36 E50.52485
G1 X161.93 Y181.99 E50.56273
G1 X161.19 Y182.52 E50.60059
G1 X160.39 Y182.96 E50.63846
G1 X159.55 Y183.29 E50.67633
G1 X158.66 Y183.52 E50.71419
G1 X157.76 Y183.64 E50.75207
G1 X156.85 Y183.64 E50.78991
G1 X155.95 Y183.52 E50.82779
G1 X155.07 Y183.29 E50.86565
G1 X154.22 Y182.96 E50.90352
G1 X153.42 Y182.52 E50.94142
G1 X153.04 Y182.24 E50.96112
G1 X152.54 Y182.58 E50.98611
G1 X151.28 Y183.22 E51.04507
G1 X149.94 Y183.70 E51.10388
G1 X148.57 Y184.01 E51.16263
G1 X147.16 Y184.15 E51.22138
G1 X145.75 Y184.10 E51.28012
G1 X144.35 Y183.88 E51.33884
G1 X143.00 Y183.49 E51.39759
G1 X141.70 Y182.92 E51.45638
G1 X140.99 Y182.50 E51.49073
G1 X140.66 Y182.25 E51.50772
G1 X140.62 Y182.21 E51.51024
G1 X120.56 Y182.21 E52.34441
G1 X120.56 Y175.71 E52.61465
G1 X143.08 Y175.71 E53.55121
G1 X143.21 Y175.70 E53.55668
G1 X143.62 Y175.71 E53.57357
G1 X144.02 Y175.78 E53.59058
G1 X144.41 Y175.89 E53.60747
G1 X144.79 Y176.05 E53.62440
G1 X145.07 Y176.22 E53.63815
G1 X145.11 Y176.24 E53.63994
G1 X145.53 Y176.42 E53.65914
G1 X145.99 Y176.56 E53.67872
G1 X146.46 Y176.63 E53.69863
G1 X146.92 Y176.64 E53.71797
G1 X147.39 Y176.60 E53.73727
G1 X147.85 Y176.50 E53.75721
G1 X148.30 Y176.34 E53.77674
G1 X148.72 Y176.12 E53.79652
G1 X149.10 Y175.86 E53.81567
G1 X149.85 Y175.21 E53.85691
G1 X150.09 Y174.99 E53.87070
G1 X150.52 Y174.70 E53.89216
G1 X150.79 Y174.51 E53.90581
G1 X151.09 Y174.36 E53.91952
G1 X151.55 Y174.13 E53.94116
G1 X153.00 Y173.60 E54.00520
G1 X153.64 Y175.06 E54.07135
G1 X153.72 Y175.25 E54.07984
G1 X154.01 Y175.75 E54.10383
G1 X154.25 Y176.06 E54.12029
G1 X154.37 Y176.22 E54.12838
G1 X154.78 Y176.63 E54.15231
G1 X155.22 Y176.97 E54.17562
G1 X155.54 Y177.16 E54.19128
G1 X155.69 Y177.25 E54.19853
G1 X155.86 Y177.32 E54.20607
G1 X156.20 Y177.47 E54.22172
G1 X156.36 Y177.52 E54.22866
G1 X156.72 Y177.61 E54.24384
G1 X157.08 Y177.66 E54.25907
G1 X157.25 Y177.69 E54.26624
G1 X157.56 Y177.69 E54.27917
G1 X157.64 Y177.67 E54.28266
G1 X157.74 Y177.65 E54.28657
G1 X157.82 Y177.61 E54.29033
G1 X157.91 Y177.56 E54.29458
G1 X157.98 Y177.51 E54.29840
G1 X158.06 Y177.42 E54.30319
G1 X158.13 Y177.33 E54.30791
G1 X158.19 Y177.23 E54.31283
G1 X158.24 Y177.12 E54.31804
G1 X158.27 Y177.00 E54.32312
G1 X158.29 Y176.90 E54.32734
G1 X158.31 Y175.67 E54.37836
G1 X158.30 Y175.51 E54.38506
G1 X158.27 Y175.39 E54.39030
G1 X158.24 Y175.26 E54.39559
G1 X158.19 Y175.15 E54.40073
G1 X158.13 Y175.05 E54.40565
G1 X158.06 Y174.96 E54.41036
G1 X157.98 Y174.88 E54.41515
G1 X157.91 Y174.82 E54.41897
G1 X157.82 Y174.77 E54.42331
G1 X157.74 Y174.73 E54.42698
G1 X157.65 Y174.71 E54.43085
G1 X157.54 Y174.69 E54.43547
G1 X157.23 Y174.68 E54.44824
G1 X156.95 Y174.61 E54.46010
G1 X156.06 Y174.23 E54.50047
G1 X156.06 Y169.53 E54.69591
G1 X156.04 Y169.53 E54.69650
G1 X155.22 Y169.32 E54.73178
G1 X154.43 Y169.01 E54.76706
G1 X153.69 Y168.60 E54.80232
G1 X153.00 Y168.10 E54.83760
G1 X152.38 Y167.52 E54.87283
G1 X151.84 Y166.87 E54.90803
G1 X151.39 Y166.15 E54.94330
G1 X151.03 Y165.38 E54.97860
G1 X150.77 Y164.58 E55.01386
G1 X150.61 Y163.74 E55.04912
G1 X150.52 Y162.43 E55.10398
G1 X150.44 Y161.97 E55.12355
G1 X150.29 Y161.52 E55.14316
