;Generated with Cura_SteamEngine 13.12
M140 S100.000000
M109 T0 S255.000000
T0
M190 S100.000000
;Sliced at: Wed 12-03-2014 19:50:56
;Basic settings: Layer height: 0.2 Walls: 1 Fill: 20
;Print time: #P_TIME#
;Filament used: #F_AMNT#m #F_WGHT#g
;Filament cost: #F_COST#
;M190 S100 ;Uncomment to add your own bed temperature line
;M109 S255 ;Uncomment to add your own temperature line
G21        ;metric values
G90        ;absolute positioning
M107       ;start with the fan off
G28 X0 Y0  ;move X/Y to min endstops
G28 Z0     ;move Z to min endstops
G1 Z15.0 F9000 ;move the platform down 15mm
G92 E0                  ;zero the extruded length
G1 F200 E3              ;extrude 3mm of feed stock
G92 E0                  ;zero the extruded length again
G1 F9000
;Put printing message on LCD screen
M117 Printing...

;Layer count: 105
;LAYER:0
M107
G0 F9000 X156.40 Y107.65 Z0.20
;TYPE:SKIRT
G1 F1200 E0.00000
G1 F3000 X170.90 Y107.65 E0.60284
G1 X170.90 Y140.02 E1.94863
G1 X168.90 Y140.14 E2.03193
G1 X168.90 Y159.90 E2.85349
G1 X168.90 Y160.17 E2.86476
G1 X168.83 Y160.70 E2.88681
G1 X168.70 Y161.22 E2.90903
G1 X168.50 Y161.72 E2.93137
G1 X168.24 Y162.18 E2.95325
G1 X167.93 Y162.61 E2.97547
G1 X167.56 Y163.01 E2.99795
G1 X167.15 Y163.35 E3.02024
G1 X166.70 Y163.63 E3.04233
G1 X166.22 Y163.86 E3.06439
G1 X165.71 Y164.02 E3.08666
G1 X165.18 Y164.12 E3.10896
G1 X163.99 Y164.20 E3.15879
G1 X163.35 Y164.32 E3.18591
G1 X162.71 Y164.53 E3.21363
G1 X162.12 Y164.81 E3.24065
G1 X161.57 Y165.16 E3.26818
G1 X161.06 Y165.58 E3.29532
G1 X160.60 Y166.06 E3.32311
G1 X160.22 Y166.59 E3.35035
G1 X159.90 Y167.17 E3.37775
G1 X159.66 Y167.78 E3.40502
G1 X159.50 Y168.42 E3.43254
G1 X159.41 Y169.07 E3.45969
G1 X159.41 Y169.74 E3.48730
G1 X159.50 Y170.39 E3.51463
G1 X159.66 Y171.02 E3.54197
G1 X159.91 Y171.64 E3.56957
G1 X160.22 Y172.21 E3.59663
G1 X160.62 Y172.75 E3.62445
G1 X161.06 Y173.23 E3.65154
G1 X161.57 Y173.65 E3.67906
G1 X162.12 Y174.00 E3.70615
G1 X162.72 Y174.28 E3.73378
G1 X163.35 Y174.48 E3.76120
G1 X163.99 Y174.61 E3.78829
G1 X164.79 Y174.66 E3.82170
G1 X165.62 Y174.71 E3.85623
G1 X166.19 Y174.82 E3.88044
G1 X166.58 Y174.89 E3.89682
G1 X166.95 Y175.01 E3.91313
G1 X167.51 Y175.19 E3.93727
G1 X168.03 Y175.44 E3.96142
G1 X168.39 Y175.61 E3.97775
G1 X169.21 Y176.13 E4.01831
G1 X169.65 Y176.50 E4.04226
G1 X169.96 Y176.75 E4.05867
G1 X170.63 Y177.46 E4.09929
G1 X171.20 Y178.25 E4.13981
G1 X171.48 Y178.76 E4.16387
G1 X171.48 Y178.76 E4.16391
G1 X171.66 Y179.10 E4.18010
G1 X171.81 Y179.47 E4.19653
G1 X172.03 Y180.01 E4.22071
G1 X172.06 Y180.15 E4.22702
G1 X176.42 Y180.15 E4.40804
G1 X177.16 Y181.42 E4.46916
G1 X177.30 Y181.75 E4.48398
G1 X177.40 Y182.11 E4.49954
G1 X177.44 Y182.44 E4.51335
G1 X178.44 Y182.45 E4.55460
G1 X178.38 Y182.06 E4.57104
G1 X178.28 Y181.68 E4.58761
G1 X178.11 Y181.29 E4.60489
G1 X177.90 Y180.93 E4.62239
G1 X177.63 Y180.59 E4.64061
G1 X177.31 Y180.27 E4.65936
G1 X176.01 Y179.27 E4.72757
G1 X176.18 Y177.38 E4.80641
G1 X176.40 Y176.43 E4.84692
G1 X176.73 Y175.51 E4.88748
G1 X177.17 Y174.65 E4.92799
G1 X177.72 Y173.84 E4.96845
G1 X178.79 Y172.62 E5.03605
G1 X179.16 Y172.08 E5.06353
G1 X179.46 Y171.49 E5.09085
G1 X179.69 Y170.86 E5.11856
G1 X179.83 Y170.22 E5.14582
G1 X179.89 Y169.57 E5.17322
G1 X179.87 Y168.91 E5.20079
G1 X179.77 Y168.26 E5.22773
G1 X179.59 Y167.63 E5.25544
G1 X179.32 Y167.02 E5.28289
G1 X178.99 Y166.46 E5.30997
G1 X178.59 Y165.93 E5.33759
G1 X178.12 Y165.47 E5.36487
G1 X177.94 Y165.33 E5.37452
G1 X177.56 Y164.95 E5.39672
G1 X177.23 Y164.52 E5.41921
G1 X176.96 Y164.07 E5.44126
G1 X176.75 Y163.58 E5.46338
G1 X176.60 Y163.07 E5.48554
G1 X176.51 Y162.53 E5.50794
G1 X176.50 Y162.10 E5.52587
G1 X176.51 Y141.95 E6.36361
G1 X176.51 Y139.65 E6.45919
G1 X185.01 Y139.65 E6.81258
G1 X185.01 Y158.93 E7.61419
G1 X185.72 Y159.65 E7.65605
G1 X186.86 Y161.12 E7.73334
G1 X187.60 Y162.37 E7.79386
G1 X187.80 Y162.71 E7.81041
G1 X188.38 Y164.04 E7.87076
G1 X188.38 Y164.04 E7.87081
G1 X188.53 Y164.40 E7.88710
G1 X189.05 Y166.18 E7.96420
G1 X189.28 Y167.63 E8.02494
G1 X189.34 Y168.01 E8.04127
G1 X189.40 Y169.87 E8.11822
G1 X189.36 Y170.26 E8.13451
G1 X189.22 Y171.72 E8.19556
G1 X188.90 Y173.14 E8.25607
G1 X188.82 Y173.52 E8.27238
G1 X188.19 Y175.27 E8.34961
G1 X187.53 Y176.57 E8.41015
G1 X187.35 Y176.92 E8.42672
G1 X186.53 Y178.12 E8.48702
G1 X186.31 Y178.44 E8.50339
G1 X186.02 Y178.77 E8.52163
G1 X186.08 Y178.92 E8.52814
G1 X186.23 Y179.43 E8.55041
G1 X186.31 Y179.96 E8.57262
G1 X186.33 Y180.50 E8.59492
G1 X186.28 Y181.03 E8.61701
G1 X186.39 Y181.88 E8.65301
G1 X186.39 Y182.93 E8.69629
G1 X186.26 Y183.95 E8.73925
G1 X186.00 Y184.96 E8.78243
G1 X185.62 Y185.92 E8.82558
G1 X185.12 Y186.83 E8.86873
G1 X184.51 Y187.67 E8.91176
G1 X183.80 Y188.42 E8.95482
G1 X183.00 Y189.08 E8.99788
G1 X182.12 Y189.64 E9.04110
G1 X181.19 Y190.08 E9.08412
G1 X180.20 Y190.40 E9.12706
G1 X179.19 Y190.59 E9.17013
G1 X178.15 Y190.66 E9.21325
G1 X177.12 Y190.59 E9.25637
G1 X176.10 Y190.40 E9.29941
G1 X175.11 Y190.08 E9.34256
G1 X174.18 Y189.64 E9.38562
G1 X173.30 Y189.08 E9.42873
G1 X172.50 Y188.42 E9.47190
G1 X171.79 Y187.66 E9.51493
G1 X171.18 Y186.83 E9.55800
G1 X170.68 Y185.92 E9.60113
G1 X170.65 Y185.84 E9.60462
G1 X170.64 Y185.85 E9.60515
G1 X170.19 Y186.13 E9.62724
G1 X169.71 Y186.36 E9.64930
G1 X169.20 Y186.52 E9.67157
G1 X168.68 Y186.62 E9.69387
G1 X168.20 Y186.65 E9.71387
G1 X166.67 Y186.63 E9.77736
G1 X166.09 Y186.52 E9.80207
G1 X165.58 Y186.36 E9.82421
G1 X165.10 Y186.13 E9.84625
G1 X164.65 Y185.85 E9.86856
G1 X164.23 Y185.50 E9.89094
G1 X163.87 Y185.11 E9.91306
G1 X163.56 Y184.68 E9.93514
G1 X163.30 Y184.21 E9.95749
G1 X163.24 Y184.07 E9.96389
G1 X162.80 Y184.04 E9.98230
G1 X160.98 Y183.69 E10.05912
G1 X159.22 Y183.12 E10.13619
G1 X157.54 Y182.33 E10.21323
G1 X155.98 Y181.34 E10.29026
G1 X154.55 Y180.16 E10.36727
G1 X153.28 Y178.81 E10.44433
G1 X152.19 Y177.31 E10.52134
G1 X151.30 Y175.69 E10.59834
G1 X150.62 Y173.96 E10.67546
G1 X150.16 Y172.17 E10.75246
G1 X149.93 Y170.33 E10.82944
G1 X149.93 Y168.48 E10.90652
G1 X150.16 Y166.64 E10.98354
G1 X150.62 Y164.84 E11.06055
G1 X151.30 Y163.12 E11.13767
G1 X152.19 Y161.50 E11.21467
G1 X153.28 Y160.00 E11.29168
G1 X154.55 Y158.65 E11.36871
G1 X155.98 Y157.47 E11.44584
G1 X156.40 Y157.20 E11.46654
G1 X156.40 Y107.65 E13.52642
G0 F9000 X156.90 Y108.15
G1 F3000 X170.40 Y108.15 E14.08769
G1 X170.40 Y139.55 E15.39311
G1 X168.62 Y139.66 E15.46745
G1 X168.59 Y139.66 E15.46843
G1 X168.56 Y139.67 E15.46995
G1 X168.53 Y139.69 E15.47111
G1 X168.51 Y139.70 E15.47238
G1 X168.49 Y139.72 E15.47358
G1 X168.46 Y139.75 E15.47514
G1 X168.44 Y139.77 E15.47631
G1 X168.43 Y139.80 E15.47753
G1 X168.42 Y139.83 E15.47897
G1 X168.41 Y139.85 E15.48005
G1 X168.40 Y139.90 E15.48185
G1 X168.40 Y140.05 E15.48825
G1 X168.40 Y159.90 E16.31360
G1 X168.40 Y160.14 E16.32350
G1 X168.34 Y160.61 E16.34299
G1 X168.22 Y161.06 E16.36259
G1 X168.04 Y161.50 E16.38230
G1 X167.82 Y161.91 E16.40165
G1 X167.54 Y162.29 E16.42127
G1 X167.22 Y162.64 E16.44104
G1 X166.85 Y162.94 E16.46071
G1 X166.46 Y163.19 E16.48020
G1 X166.03 Y163.39 E16.49969
G1 X165.59 Y163.54 E16.51932
G1 X165.12 Y163.63 E16.53900
G1 X163.93 Y163.70 E16.58874
G1 X163.22 Y163.84 E16.61879
G1 X162.53 Y164.06 E16.64874
G1 X161.88 Y164.37 E16.67850
G1 X161.27 Y164.76 E16.70874
G1 X160.72 Y165.21 E16.73853
G1 X160.22 Y165.75 E16.76894
G1 X159.80 Y166.33 E16.79877
G1 X159.45 Y166.95 E16.82837
G1 X159.19 Y167.63 E16.85859
G1 X159.00 Y168.33 E16.88882
G1 X158.91 Y169.04 E16.91853
G1 X158.91 Y169.77 E16.94875
G1 X159.01 Y170.48 E16.97855
G1 X159.19 Y171.18 E17.00881
G1 X159.45 Y171.85 E17.03878
G1 X159.80 Y172.48 E17.06863
G1 X160.22 Y173.07 E17.09872
G1 X160.72 Y173.60 E17.12883
G1 X161.28 Y174.05 E17.15878
G1 X161.88 Y174.44 E17.18860
G1 X162.54 Y174.75 E17.21879
G1 X163.22 Y174.97 E17.24860
G1 X163.93 Y175.10 E17.27857
G1 X164.76 Y175.16 E17.31323
G1 X165.56 Y175.21 E17.34647
G1 X166.10 Y175.31 E17.36932
G1 X166.46 Y175.38 E17.38439
G1 X166.80 Y175.49 E17.39947
G1 X166.80 Y175.49 E17.39951
G1 X167.32 Y175.66 E17.42225
G1 X167.82 Y175.89 E17.44512
G1 X168.15 Y176.05 E17.46015
G1 X168.92 Y176.54 E17.49809
G1 X169.34 Y176.88 E17.52088
G1 X169.62 Y177.11 E17.53585
G1 X170.24 Y177.78 E17.57383
G1 X170.78 Y178.52 E17.61172
G1 X171.04 Y179.00 E17.63450
G1 X171.04 Y179.00 E17.63454
G1 X171.21 Y179.31 E17.64944
G1 X171.35 Y179.65 E17.66454
G1 X171.55 Y180.16 E17.68741
G1 X171.64 Y180.51 E17.70240
G1 X171.68 Y180.65 E17.70854
G1 X176.13 Y180.65 E17.89372
G1 X176.71 Y181.65 E17.94171
G1 X176.83 Y181.92 E17.95384
G1 X176.91 Y182.21 E17.96651
G1 X176.95 Y182.51 E17.97898
G1 X176.95 Y182.68 E17.98597
G1 X176.95 Y182.69 E17.98647
G1 X176.96 Y182.71 E17.98734
G1 X176.97 Y182.74 E17.98879
G1 X176.99 Y182.76 E17.98994
G1 X177.01 Y182.80 E17.99163
G1 X177.04 Y182.82 E17.99322
G1 X177.08 Y182.86 E17.99559
G1 X177.14 Y182.89 E17.99820
G1 X177.19 Y182.91 E18.00069
G1 X177.26 Y182.93 E18.00355
G1 X177.28 Y182.94 E18.00453
G1 X178.46 Y182.95 E18.05338
G1 X178.57 Y182.95 E18.05800
G1 X178.63 Y182.93 E18.06079
G1 X178.70 Y182.91 E18.06361
G1 X178.75 Y182.89 E18.06610
G1 X178.81 Y182.86 E18.06871
G1 X178.85 Y182.82 E18.07108
G1 X178.88 Y182.80 E18.07273
G1 X178.91 Y182.76 E18.07462
G1 X178.92 Y182.74 E18.07544
G1 X178.93 Y182.71 E18.07680
G1 X178.94 Y182.69 E18.07771
G1 X178.94 Y182.67 E18.07872
G1 X178.94 Y182.43 E18.08870
G1 X178.88 Y181.96 E18.10833
G1 X178.75 Y181.51 E18.12766
G1 X178.56 Y181.07 E18.14774
G1 X178.31 Y180.65 E18.16804
G1 X178.00 Y180.26 E18.18880
G1 X177.64 Y179.90 E18.21002
G1 X176.53 Y179.04 E18.26823
G1 X176.68 Y177.46 E18.33429
G1 X176.88 Y176.57 E18.37216
G1 X177.19 Y175.71 E18.41011
G1 X177.60 Y174.90 E18.44801
G1 X178.11 Y174.15 E18.48586
G1 X179.19 Y172.93 E18.55344
G1 X179.59 Y172.33 E18.58358
G1 X179.92 Y171.69 E18.61351
G1 X180.17 Y171.00 E18.64384
G1 X180.33 Y170.30 E18.67378
G1 X180.39 Y169.58 E18.70368
G1 X180.37 Y168.87 E18.73355
G1 X180.26 Y168.14 E18.76402
G1 X180.06 Y167.46 E18.79355
G1 X179.77 Y166.79 E18.82385
G1 X179.41 Y166.18 E18.85354
G1 X178.96 Y165.60 E18.88385
G1 X178.46 Y165.10 E18.91354
G1 X178.27 Y164.95 E18.92335
G1 X177.94 Y164.62 E18.94293
G1 X177.64 Y164.24 E18.96275
G1 X177.41 Y163.84 E18.98223
G1 X177.22 Y163.41 E19.00172
G1 X177.09 Y162.96 E19.02130
G1 X177.01 Y162.49 E19.04104
G1 X177.00 Y162.10 E19.05731
G1 X177.01 Y141.95 E19.89475
G1 X177.01 Y140.15 E19.96955
G1 X184.51 Y140.15 E20.28136
G1 X184.51 Y159.14 E21.07079
G1 X185.34 Y159.98 E21.11995
G1 X186.44 Y161.40 E21.19462
G1 X187.17 Y162.62 E21.25382
G1 X187.35 Y162.94 E21.26906
G1 X187.92 Y164.24 E21.32802
G1 X188.06 Y164.57 E21.34310
G1 X188.56 Y166.29 E21.41761
G1 X188.79 Y167.71 E21.47701
G1 X188.84 Y168.06 E21.49203
G1 X188.90 Y169.85 E21.56636
G1 X188.86 Y170.21 E21.58135
G1 X188.73 Y171.64 E21.64111
G1 X188.42 Y173.03 E21.70029
G1 X188.34 Y173.38 E21.71529
G1 X187.73 Y175.07 E21.78992
G1 X187.08 Y176.34 E21.84914
G1 X186.92 Y176.66 E21.86441
G1 X186.12 Y177.84 E21.92339
G1 X185.91 Y178.14 E21.93847
G1 X185.44 Y178.68 E21.96861
G1 X185.61 Y179.09 E21.98700
G1 X185.74 Y179.54 E22.00662
G1 X185.82 Y180.01 E22.02623
G1 X185.83 Y180.48 E22.04586
G1 X185.79 Y180.95 E22.06550
G1 X185.77 Y181.00 E22.06784
G1 X185.89 Y181.91 E22.10602
G1 X185.89 Y182.89 E22.14668
G1 X185.77 Y183.86 E22.18704
G1 X185.52 Y184.80 E22.22760
G1 X185.16 Y185.71 E22.26815
G1 X184.69 Y186.56 E22.30864
G1 X184.12 Y187.35 E22.34908
G1 X183.46 Y188.06 E22.38953
G1 X182.71 Y188.68 E22.42998
G1 X181.88 Y189.20 E22.47058
G1 X181.00 Y189.61 E22.51097
G1 X180.08 Y189.91 E22.55132
G1 X179.12 Y190.09 E22.59178
G1 X178.15 Y190.16 E22.63228
G1 X177.18 Y190.09 E22.67278
G1 X176.22 Y189.91 E22.71323
G1 X175.30 Y189.61 E22.75376
G1 X174.42 Y189.20 E22.79419
G1 X173.59 Y188.68 E22.83465
G1 X172.84 Y188.05 E22.87522
G1 X172.18 Y187.35 E22.91564
G1 X171.60 Y186.56 E22.95609
G1 X171.14 Y185.70 E22.99659
G1 X170.85 Y184.99 E23.02850
G1 X170.71 Y185.14 E23.03691
G1 X170.35 Y185.44 E23.05667
G1 X169.95 Y185.69 E23.07617
G1 X169.53 Y185.89 E23.09566
G1 X169.08 Y186.04 E23.11529
G1 X168.61 Y186.13 E23.13497
G1 X168.18 Y186.15 E23.15284
G1 X166.72 Y186.13 E23.21375
G1 X166.21 Y186.04 E23.23530
G1 X165.76 Y185.89 E23.25485
G1 X165.34 Y185.69 E23.27432
G1 X164.94 Y185.44 E23.29396
G1 X164.57 Y185.14 E23.31368
G1 X164.25 Y184.79 E23.33321
G1 X163.98 Y184.41 E23.35273
G1 X163.75 Y184.00 E23.37242
G1 X163.59 Y183.59 E23.39065
G1 X162.86 Y183.54 E23.42099
G1 X161.11 Y183.21 E23.49523
G1 X159.40 Y182.66 E23.56967
G1 X157.78 Y181.89 E23.64408
G1 X156.27 Y180.93 E23.71846
G1 X154.89 Y179.79 E23.79288
G1 X153.67 Y178.49 E23.86735
G1 X152.62 Y177.04 E23.94170
G1 X151.75 Y175.47 E24.01611
G1 X151.09 Y173.81 E24.09058
G1 X150.65 Y172.07 E24.16495
G1 X150.43 Y170.30 E24.23938
G1 X150.43 Y168.51 E24.31380
G1 X150.65 Y166.73 E24.38827
G1 X151.09 Y165.00 E24.46265
G1 X151.75 Y163.33 E24.53711
G1 X152.62 Y161.76 E24.61152
G1 X153.67 Y160.32 E24.68591
G1 X154.89 Y159.01 E24.76032
G1 X156.27 Y157.87 E24.83482
G1 X156.90 Y157.47 E24.86565
G1 X156.90 Y108.15 E26.91618
G0 F9000 X157.40 Y108.65
G1 F3000 X169.90 Y108.65 E27.43587
G1 X169.90 Y139.08 E28.70092
G1 X168.56 Y139.16 E28.75698
G1 X168.46 Y139.18 E28.76096
G1 X168.38 Y139.21 E28.76449
G1 X168.29 Y139.25 E28.76883
G1 X168.22 Y139.29 E28.77232
G1 X168.14 Y139.36 E28.77633
G1 X168.08 Y139.43 E28.78028
G1 X168.02 Y139.50 E28.78429
G1 X167.97 Y139.59 E28.78829
G1 X167.94 Y139.67 E28.79186
G1 X167.91 Y139.77 E28.79612
G1 X167.90 Y139.86 E28.79997
G1 X167.90 Y140.04 E28.80758
G1 X167.90 Y159.90 E29.63330
G1 X167.90 Y160.11 E29.64187
G1 X167.85 Y160.51 E29.65876
G1 X167.74 Y160.91 E29.67575
G1 X167.59 Y161.29 E29.69281
G1 X167.40 Y161.64 E29.70959
G1 X167.16 Y161.97 E29.72660
G1 X166.88 Y162.28 E29.74371
G1 X166.56 Y162.54 E29.76075
G1 X166.22 Y162.75 E29.77766
G1 X165.85 Y162.93 E29.79457
G1 X165.46 Y163.05 E29.81158
G1 X165.06 Y163.13 E29.82860
G1 X163.87 Y163.21 E29.87830
G1 X163.10 Y163.35 E29.91089
G1 X162.34 Y163.60 E29.94372
G1 X161.65 Y163.93 E29.97585
G1 X160.97 Y164.35 E30.00905
G1 X160.37 Y164.85 E30.04132
G1 X159.83 Y165.42 E30.07409
G1 X159.37 Y166.06 E30.10680
G1 X159.00 Y166.74 E30.13885
G1 X158.71 Y167.48 E30.17214
G1 X158.51 Y168.23 E30.20430
G1 X158.41 Y169.01 E30.23698
G1 X158.41 Y169.80 E30.26975
G1 X158.51 Y170.58 E30.30252
G1 X158.71 Y171.33 E30.33480
G1 X159.00 Y172.07 E30.36763
G1 X159.38 Y172.75 E30.40028
G1 X159.84 Y173.38 E30.43272
G1 X160.38 Y173.96 E30.46549
G1 X160.98 Y174.46 E30.49791
G1 X161.65 Y174.88 E30.53096
G1 X162.35 Y175.21 E30.56306
G1 X163.10 Y175.45 E30.59585
G1 X163.87 Y175.60 E30.62840
G1 X164.73 Y175.66 E30.66431
G1 X165.50 Y175.70 E30.69626
G1 X166.01 Y175.80 E30.71784
G1 X166.33 Y175.86 E30.73156
G1 X166.64 Y175.97 E30.74529
G1 X166.64 Y175.96 E30.74534
G1 X167.14 Y176.12 E30.76685
G1 X167.60 Y176.35 E30.78840
G1 X167.90 Y176.49 E30.80214
G1 X168.62 Y176.94 E30.83745
G1 X169.02 Y177.27 E30.85892
G1 X169.27 Y177.48 E30.87259
G1 X169.85 Y178.10 E30.90795
G1 X170.35 Y178.79 E30.94326
G1 X170.60 Y179.24 E30.96471
G1 X170.60 Y179.24 E30.96475
G1 X170.76 Y179.53 E30.97838
G1 X170.88 Y179.83 E30.99213
G1 X171.07 Y180.32 E31.01370
G1 X171.15 Y180.63 E31.02736
G1 X171.28 Y181.14 E31.04899
G1 X171.29 Y181.15 E31.04962
G1 X175.84 Y181.15 E31.23907
G1 X176.26 Y181.88 E31.27395
G1 X176.35 Y182.09 E31.28335
G1 X176.42 Y182.31 E31.29323
G1 X176.45 Y182.54 E31.30288
G1 X176.45 Y182.71 E31.30970
G1 X176.46 Y182.79 E31.31318
G1 X176.48 Y182.88 E31.31684
G1 X176.52 Y182.96 E31.32083
G1 X176.57 Y183.05 E31.32511
G1 X176.63 Y183.13 E31.32899
G1 X176.71 Y183.20 E31.33357
G1 X176.80 Y183.27 E31.33829
G1 X176.91 Y183.34 E31.34339
G1 X177.02 Y183.38 E31.34855
G1 X177.14 Y183.42 E31.35381
G1 X177.24 Y183.44 E31.35783
G1 X178.46 Y183.45 E31.40888
G1 X178.62 Y183.44 E31.41550
G1 X178.75 Y183.42 E31.42078
G1 X178.87 Y183.38 E31.42600
G1 X178.98 Y183.34 E31.43116
G1 X179.09 Y183.27 E31.43627
G1 X179.18 Y183.20 E31.44098
G1 X179.26 Y183.13 E31.44557
G1 X179.32 Y183.05 E31.44965
G1 X179.37 Y182.97 E31.45357
G1 X179.40 Y182.88 E31.45772
G1 X179.43 Y182.79 E31.46138
G1 X179.44 Y182.71 E31.46491
