;Generated with Cura_SteamEngine 13.12
M140 S100.000000
M109 T0 S255.000000
T0
M190 S100.000000
;Sliced at: Thu 13-03-2014 01:59:51
;Basic settings: Layer height: 0.2 Walls: 1 Fill: 20
;Print time: #P_TIME#
;Filament used: #F_AMNT#m #F_WGHT#g
;Filament cost: #F_COST#
;M190 S100 ;Uncomment to add your own bed temperature line
;M109 S255 ;Uncomment to add your own temperature line
G21        ;metric values
G90        ;absolute positioning
M107       ;start with the fan off
G28 X0 Y0  ;move X/Y to min endstops
G28 Z0     ;move Z to min endstops
G1 Z15.0 F9000 ;move the platform down 15mm
G92 E0                  ;zero the extruded length
G1 F200 E3              ;extrude 3mm of feed stock
G92 E0                  ;zero the extruded length again
G1 F9000
;Put printing message on LCD screen
M117 Printing...

;Layer count: 105
;LAYER:0
M107
G0 F9000 X114.59 Y110.08 Z0.20
;TYPE:SKIRT
G1 F1200 E0.00000
G1 F3000 X188.28 Y110.08 E3.06334
G1 X194.59 Y116.40 E3.43482
G1 X194.59 Y166.26 E5.50792
G1 X188.28 Y172.58 E5.87939
G1 X167.08 Y172.58 E6.76070
G1 X166.55 Y172.51 E6.78295
G1 X166.03 Y172.38 E6.80520
G1 X165.53 Y172.18 E6.82733
G1 X165.06 Y171.92 E6.84968
G1 X164.63 Y171.61 E6.87176
G1 X164.25 Y171.25 E6.89388
G1 X163.90 Y170.83 E6.91625
G1 X163.62 Y170.38 E6.93856
G1 X163.39 Y169.90 E6.96066
G1 X163.22 Y169.39 E6.98282
G1 X163.12 Y168.87 E7.00505
G1 X163.07 Y167.99 E7.04171
G1 X163.00 Y167.65 E7.05594
G1 X162.90 Y167.32 E7.07053
G1 X162.75 Y167.01 E7.08459
G1 X162.57 Y166.72 E7.09902
G1 X162.34 Y166.45 E7.11349
G1 X162.09 Y166.22 E7.12778
G1 X161.82 Y166.01 E7.14192
G1 X161.52 Y165.85 E7.15610
G1 X161.19 Y165.72 E7.17094
G1 X160.86 Y165.64 E7.18488
G1 X160.52 Y165.59 E7.19930
G1 X160.17 Y165.59 E7.21369
G1 X159.83 Y165.64 E7.22789
G1 X159.50 Y165.72 E7.24231
G1 X159.17 Y165.85 E7.25694
G1 X158.88 Y166.01 E7.27084
G1 X158.59 Y166.22 E7.28534
G1 X158.34 Y166.46 E7.29975
G1 X158.12 Y166.72 E7.31413
G1 X157.94 Y167.01 E7.32841
G1 X157.79 Y167.32 E7.34254
G1 X157.68 Y167.65 E7.35715
G1 X157.62 Y167.99 E7.37133
G1 X157.59 Y168.47 E7.39149
G1 X157.59 Y168.47 E7.39153
G1 X157.54 Y169.30 E7.42611
G1 X157.43 Y169.87 E7.45028
G1 X157.36 Y170.26 E7.46673
G1 X157.23 Y170.64 E7.48314
G1 X157.05 Y171.19 E7.50723
G1 X156.81 Y171.71 E7.53122
G1 X156.64 Y172.07 E7.54766
G1 X156.12 Y172.89 E7.58826
G1 X155.75 Y173.34 E7.61215
G1 X155.50 Y173.64 E7.62856
G1 X154.79 Y174.31 E7.66912
G1 X154.00 Y174.88 E7.70969
G1 X153.49 Y175.16 E7.73378
G1 X153.49 Y175.16 E7.73383
G1 X153.15 Y175.35 E7.75020
G1 X152.78 Y175.50 E7.76657
G1 X152.24 Y175.71 E7.79072
G1 X152.09 Y175.75 E7.79694
G1 X152.09 Y180.32 E7.98731
G1 X150.53 Y180.99 E8.05786
G1 X150.08 Y181.11 E8.07744
G1 X149.86 Y181.12 E8.08660
G1 X149.85 Y182.12 E8.12813
G1 X150.24 Y182.07 E8.14458
G1 X150.62 Y181.96 E8.16114
G1 X151.00 Y181.80 E8.17842
G1 X151.37 Y181.58 E8.19593
G1 X151.71 Y181.31 E8.21423
G1 X152.03 Y180.99 E8.23287
G1 X152.30 Y180.63 E8.25177
G1 X152.54 Y180.22 E8.27132
G1 X153.61 Y177.78 E8.38208
G1 X156.00 Y178.64 E8.48768
G1 X156.87 Y179.08 E8.52829
G1 X157.67 Y179.63 E8.56875
G1 X158.67 Y180.51 E8.62383
G1 X158.94 Y180.69 E8.63766
G1 X159.26 Y180.85 E8.65231
G1 X159.57 Y180.97 E8.66632
G1 X159.92 Y181.04 E8.68092
G1 X160.26 Y181.08 E8.69529
G1 X160.61 Y181.07 E8.70976
G1 X160.94 Y181.01 E8.72369
G1 X161.28 Y180.92 E8.73825
G1 X161.59 Y180.78 E8.75260
G1 X161.91 Y180.59 E8.76781
G1 X162.40 Y180.38 E8.78993
G1 X162.91 Y180.23 E8.81205
G1 X163.44 Y180.15 E8.83446
G1 X163.87 Y180.13 E8.85242
G1 X185.32 Y180.15 E9.74409
G1 X187.59 Y180.15 E9.83875
G1 X187.59 Y188.65 E10.19214
G1 X166.88 Y188.65 E11.05312
G1 X166.73 Y188.77 E11.06145
G1 X166.24 Y189.05 E11.08486
G1 X165.91 Y189.25 E11.10094
G1 X164.50 Y189.86 E11.16496
G1 X163.02 Y190.29 E11.22898
G1 X161.89 Y190.47 E11.27638
G1 X161.89 Y190.47 E11.27642
G1 X161.50 Y190.53 E11.29292
G1 X159.96 Y190.58 E11.35710
G1 X159.56 Y190.54 E11.37347
G1 X158.42 Y190.44 E11.42112
G1 X157.31 Y190.19 E11.46858
G1 X156.93 Y190.10 E11.48494
G1 X155.47 Y189.58 E11.54914
G1 X154.45 Y189.06 E11.59667
G1 X154.12 Y188.88 E11.61245
G1 X153.36 Y189.30 E11.64852
G1 X152.40 Y189.68 E11.69148
G1 X151.39 Y189.94 E11.73455
G1 X150.36 Y190.07 E11.77770
G1 X149.32 Y190.07 E11.82086
G1 X148.30 Y189.94 E11.86390
G1 X147.29 Y189.68 E11.90717
G1 X146.33 Y189.30 E11.95024
G1 X145.42 Y188.80 E11.99339
G1 X144.58 Y188.19 E12.03642
G1 X143.83 Y187.48 E12.07943
G1 X143.16 Y186.68 E12.12251
G1 X142.61 Y185.81 E12.16573
G1 X142.17 Y184.87 E12.20874
G1 X141.85 Y183.88 E12.25176
G1 X141.66 Y182.87 E12.29480
G1 X141.59 Y181.83 E12.33792
G1 X141.66 Y180.80 E12.38104
G1 X141.85 Y179.78 E12.42408
G1 X142.17 Y178.79 E12.46723
G1 X142.61 Y177.86 E12.51028
G1 X143.17 Y176.98 E12.55343
G1 X143.83 Y176.18 E12.59654
G1 X144.58 Y175.47 E12.63954
G1 X145.42 Y174.86 E12.68267
G1 X146.33 Y174.36 E12.72583
G1 X146.41 Y174.33 E12.72923
G1 X146.40 Y174.33 E12.72961
G1 X146.12 Y173.87 E12.75192
G1 X145.89 Y173.39 E12.77402
G1 X145.72 Y172.88 E12.79618
G1 X145.61 Y172.30 E12.82078
G1 X145.59 Y170.77 E12.88452
G1 X145.62 Y170.29 E12.90443
G1 X145.72 Y169.77 E12.92661
G1 X145.89 Y169.26 E12.94887
G1 X146.12 Y168.78 E12.97093
G1 X146.40 Y168.33 E12.99301
G1 X146.74 Y167.91 E13.01543
G1 X147.13 Y167.55 E13.03767
G1 X147.56 Y167.24 E13.05975
G1 X148.03 Y166.98 E13.08209
G1 X148.18 Y166.92 E13.08853
G1 X148.19 Y166.79 E13.09395
G1 X148.48 Y165.29 E13.15770
G1 X148.95 Y163.82 E13.22161
G1 X149.60 Y162.43 E13.28563
G1 X150.43 Y161.13 E13.34961
G1 X150.47 Y161.08 E13.35215
G1 X114.59 Y161.08 E14.84366
G1 X114.59 Y110.08 E16.96399
G0 F9000 X115.09 Y110.58
G1 F3000 X188.07 Y110.58 E19.99794
G1 X194.09 Y116.61 E20.35219
G1 X194.09 Y166.06 E22.40808
G1 X188.07 Y172.08 E22.76233
G1 X167.11 Y172.08 E23.63374
G1 X166.64 Y172.02 E23.65335
G1 X166.18 Y171.90 E23.67298
G1 X165.75 Y171.73 E23.69250
G1 X165.33 Y171.50 E23.71219
G1 X164.95 Y171.22 E23.73171
G1 X164.61 Y170.90 E23.75124
G1 X164.31 Y170.54 E23.77096
G1 X164.05 Y170.14 E23.79060
G1 X163.85 Y169.72 E23.81011
G1 X163.71 Y169.27 E23.82970
G1 X163.62 Y168.80 E23.84931
G1 X163.57 Y167.93 E23.88592
G1 X163.49 Y167.52 E23.90294
G1 X163.36 Y167.14 E23.91981
G1 X163.19 Y166.77 E23.93677
G1 X162.97 Y166.42 E23.95378
G1 X162.71 Y166.11 E23.97064
G1 X162.41 Y165.83 E23.98779
G1 X162.09 Y165.59 E24.00440
G1 X161.73 Y165.40 E24.02150
G1 X161.34 Y165.25 E24.03857
G1 X160.95 Y165.14 E24.05540
G1 X160.55 Y165.09 E24.07233
G1 X160.14 Y165.09 E24.08934
G1 X159.74 Y165.14 E24.10614
G1 X159.34 Y165.25 E24.12324
G1 X158.96 Y165.40 E24.14013
G1 X158.60 Y165.59 E24.15719
G1 X158.28 Y165.83 E24.17403
G1 X157.98 Y166.11 E24.19103
G1 X157.72 Y166.43 E24.20804
G1 X157.50 Y166.77 E24.22491
G1 X157.33 Y167.14 E24.24172
G1 X157.20 Y167.53 E24.25896
G1 X157.12 Y167.93 E24.27580
G1 X157.09 Y168.44 E24.29721
G1 X157.09 Y168.44 E24.29725
G1 X157.04 Y169.24 E24.33054
G1 X156.94 Y169.78 E24.35339
G1 X156.87 Y170.14 E24.36850
G1 X156.76 Y170.48 E24.38358
G1 X156.76 Y170.48 E24.38362
G1 X156.59 Y171.00 E24.40640
G1 X156.35 Y171.50 E24.42923
G1 X156.20 Y171.83 E24.44421
G1 X155.71 Y172.60 E24.48219
G1 X155.36 Y173.02 E24.50495
G1 X155.13 Y173.30 E24.51993
G1 X154.47 Y173.92 E24.55784
G1 X153.73 Y174.46 E24.59579
G1 X153.25 Y174.72 E24.61860
G1 X153.25 Y174.72 E24.61864
G1 X152.93 Y174.90 E24.63369
G1 X152.60 Y175.03 E24.64872
G1 X152.60 Y175.03 E24.64876
G1 X152.09 Y175.23 E24.67162
G1 X151.73 Y175.32 E24.68668
G1 X151.73 Y175.32 E24.68673
G1 X151.59 Y175.36 E24.69274
G1 X151.59 Y179.99 E24.88552
G1 X150.37 Y180.51 E24.94091
G1 X150.00 Y180.61 E24.95673
G1 X149.65 Y180.63 E24.97126
G1 X149.61 Y180.63 E24.97294
G1 X149.58 Y180.64 E24.97414
G1 X149.56 Y180.65 E24.97537
G1 X149.53 Y180.67 E24.97652
G1 X149.50 Y180.69 E24.97812
G1 X149.47 Y180.72 E24.98012
G1 X149.44 Y180.76 E24.98222
G1 X149.41 Y180.81 E24.98453
G1 X149.38 Y180.87 E24.98716
G1 X149.36 Y180.94 E24.99033
G1 X149.36 Y180.96 E24.99109
G1 X149.35 Y182.14 E25.03995
G1 X149.35 Y182.25 E25.04465
G1 X149.36 Y182.31 E25.04715
G1 X149.38 Y182.38 E25.05032
G1 X149.41 Y182.44 E25.05294
G1 X149.44 Y182.49 E25.05525
G1 X149.47 Y182.53 E25.05730
G1 X149.50 Y182.56 E25.05936
G1 X149.53 Y182.59 E25.06095
G1 X149.56 Y182.60 E25.06211
G1 X149.58 Y182.61 E25.06334
G1 X149.60 Y182.62 E25.06425
G1 X149.63 Y182.62 E25.06529
G1 X149.87 Y182.62 E25.07527
G1 X150.34 Y182.56 E25.09491
G1 X150.79 Y182.43 E25.11423
G1 X151.23 Y182.24 E25.13431
G1 X151.65 Y181.99 E25.15480
G1 X152.04 Y181.69 E25.17527
G1 X152.40 Y181.32 E25.19676
G1 X152.72 Y180.91 E25.21834
G1 X152.99 Y180.46 E25.24018
G1 X153.88 Y178.41 E25.33296
G1 X155.80 Y179.10 E25.41780
G1 X156.61 Y179.51 E25.45575
G1 X157.37 Y180.03 E25.49359
G1 X158.36 Y180.90 E25.54849
G1 X158.69 Y181.13 E25.56517
G1 X159.06 Y181.31 E25.58238
G1 X159.44 Y181.45 E25.59918
G1 X159.84 Y181.54 E25.61631
G1 X160.24 Y181.58 E25.63322
G1 X160.65 Y181.57 E25.64994
G1 X161.06 Y181.50 E25.66716
G1 X161.45 Y181.39 E25.68414
G1 X161.82 Y181.23 E25.70088
G1 X162.13 Y181.04 E25.71618
G1 X162.57 Y180.85 E25.73572
G1 X163.02 Y180.72 E25.75525
G1 X163.49 Y180.65 E25.77500
G1 X163.88 Y180.63 E25.79130
G1 X185.32 Y180.65 E26.68268
G1 X187.09 Y180.65 E26.75656
G1 X187.09 Y188.15 E27.06837
G1 X166.71 Y188.15 E27.91567
G1 X166.45 Y188.35 E27.92978
G1 X165.99 Y188.62 E27.95169
G1 X165.68 Y188.81 E27.96672
G1 X164.33 Y189.39 E28.02811
G1 X162.91 Y189.80 E28.08949
G1 X161.81 Y189.98 E28.13562
G1 X161.81 Y189.98 E28.13566
G1 X161.45 Y190.04 E28.15082
G1 X159.97 Y190.08 E28.21238
G1 X159.61 Y190.05 E28.22742
G1 X158.50 Y189.94 E28.27378
G1 X157.42 Y189.70 E28.31995
G1 X157.07 Y189.62 E28.33499
G1 X155.67 Y189.12 E28.39655
G1 X154.68 Y188.61 E28.44278
G1 X154.36 Y188.45 E28.45789
G1 X154.12 Y188.29 E28.46969
G1 X153.99 Y188.38 E28.47630
G1 X153.14 Y188.85 E28.51673
G1 X152.24 Y189.21 E28.55705
G1 X151.30 Y189.45 E28.59750
G1 X150.33 Y189.57 E28.63802
G1 X149.35 Y189.57 E28.67860
G1 X148.39 Y189.45 E28.71899
G1 X147.44 Y189.21 E28.75965
G1 X146.54 Y188.85 E28.80011
G1 X145.69 Y188.38 E28.84060
G1 X144.90 Y187.80 E28.88104
G1 X144.19 Y187.14 E28.92146
G1 X143.57 Y186.39 E28.96188
G1 X143.05 Y185.56 E29.00251
G1 X142.63 Y184.69 E29.04290
G1 X142.34 Y183.76 E29.08329
G1 X142.15 Y182.81 E29.12375
G1 X142.09 Y181.83 E29.16425
G1 X142.15 Y180.86 E29.20474
G1 X142.34 Y179.91 E29.24520
G1 X142.64 Y178.98 E29.28572
G1 X143.05 Y178.10 E29.32616
G1 X143.57 Y177.28 E29.36667
G1 X144.19 Y176.53 E29.40716
G1 X144.90 Y175.86 E29.44757
G1 X145.69 Y175.29 E29.48804
G1 X146.54 Y174.82 E29.52861
G1 X147.26 Y174.54 E29.56052
G1 X147.11 Y174.40 E29.56894
G1 X146.81 Y174.03 E29.58866
G1 X146.55 Y173.63 E29.60830
G1 X146.35 Y173.21 E29.62781
G1 X146.21 Y172.76 E29.64740
G1 X146.11 Y172.25 E29.66882
G1 X146.09 Y170.78 E29.72998
G1 X146.12 Y170.36 E29.74777
G1 X146.21 Y169.89 E29.76733
G1 X146.35 Y169.44 E29.78696
G1 X146.56 Y169.02 E29.80645
G1 X146.81 Y168.63 E29.82594
G1 X147.11 Y168.26 E29.84570
G1 X147.45 Y167.94 E29.86532
G1 X147.83 Y167.66 E29.88484
G1 X148.25 Y167.43 E29.90452
G1 X148.66 Y167.27 E29.92280
G1 X148.68 Y166.85 E29.94009
G1 X148.96 Y165.41 E30.00126
G1 X149.42 Y164.01 E30.06258
G1 X150.04 Y162.67 E30.12396
G1 X150.84 Y161.42 E30.18537
G1 X151.53 Y160.58 E30.23076
G1 X115.09 Y160.58 E31.74567
G1 X115.09 Y110.58 E33.82443
G0 F9000 X115.59 Y111.08
G1 F3000 X187.86 Y111.08 E36.82899
G1 X193.59 Y116.82 E37.16601
G1 X193.59 Y165.85 E39.20469
G1 X187.86 Y171.58 E39.54171
G1 X167.14 Y171.58 E40.40323
G1 X166.74 Y171.53 E40.42020
G1 X166.34 Y171.43 E40.43720
G1 X165.96 Y171.28 E40.45413
G1 X165.60 Y171.08 E40.47117
G1 X165.27 Y170.84 E40.48811
G1 X164.97 Y170.56 E40.50505
G1 X164.71 Y170.25 E40.52211
G1 X164.49 Y169.90 E40.53912
G1 X164.32 Y169.53 E40.55606
G1 X164.19 Y169.14 E40.57303
G1 X164.12 Y168.74 E40.59001
G1 X164.06 Y167.86 E40.62663
G1 X163.97 Y167.40 E40.64615
G1 X163.83 Y166.95 E40.66589
G1 X163.63 Y166.53 E40.68520
G1 X163.37 Y166.13 E40.70499
G1 X163.07 Y165.77 E40.72448
G1 X162.73 Y165.44 E40.74407
G1 X162.35 Y165.17 E40.76356
G1 X161.94 Y164.94 E40.78304
G1 X161.50 Y164.77 E40.80266
G1 X161.04 Y164.65 E40.82236
G1 X160.58 Y164.59 E40.84177
G1 X160.11 Y164.59 E40.86143
G1 X159.65 Y164.65 E40.88071
G1 X159.18 Y164.77 E40.90084
G1 X158.75 Y164.94 E40.92008
G1 X158.33 Y165.17 E40.93980
G1 X157.96 Y165.44 E40.95912
G1 X157.61 Y165.77 E40.97874
G1 X157.31 Y166.13 E40.99840
G1 X157.06 Y166.53 E41.01799
G1 X156.86 Y166.95 E41.03746
G1 X156.71 Y167.40 E41.05697
G1 X156.63 Y167.87 E41.07669
G1 X156.59 Y168.41 E41.09939
G1 X156.59 Y168.41 E41.09943
G1 X156.54 Y169.18 E41.13138
G1 X156.45 Y169.69 E41.15293
G1 X156.38 Y170.01 E41.16672
G1 X156.28 Y170.33 E41.18046
G1 X156.28 Y170.33 E41.18050
G1 X156.12 Y170.82 E41.20206
G1 X155.90 Y171.29 E41.22356
G1 X155.76 Y171.59 E41.23725
G1 X155.31 Y172.30 E41.27262
G1 X154.98 Y172.70 E41.29405
G1 X154.77 Y172.96 E41.30773
G1 X154.15 Y173.54 E41.34305
G1 X153.46 Y174.04 E41.37838
G1 X153.01 Y174.29 E41.39987
G1 X153.01 Y174.28 E41.39991
G1 X152.72 Y174.44 E41.41365
G1 X152.41 Y174.57 E41.42736
G1 X152.41 Y174.56 E41.42741
G1 X151.93 Y174.76 E41.44896
G1 X151.61 Y174.84 E41.46270
G1 X151.11 Y174.97 E41.48416
G1 X151.09 Y174.97 E41.48483
G1 X151.09 Y179.66 E41.67999
G1 X150.20 Y180.04 E41.72023
G1 X149.92 Y180.12 E41.73229
G1 X149.61 Y180.13 E41.74515
G1 X149.51 Y180.14 E41.74951
G1 X149.41 Y180.17 E41.75370
G1 X149.33 Y180.20 E41.75731
G1 X149.24 Y180.26 E41.76160
G1 X149.17 Y180.31 E41.76541
G1 X149.09 Y180.40 E41.77021
G1 X149.03 Y180.48 E41.77471
G1 X148.96 Y180.59 E41.77982
G1 X148.91 Y180.70 E41.78499
G1 X148.88 Y180.83 E41.79042
G1 X148.86 Y180.92 E41.79431
G1 X148.85 Y182.15 E41.84536
G1 X148.85 Y182.31 E41.85207
G1 X148.88 Y182.43 E41.85713
G1 X148.91 Y182.55 E41.86257
G1 X148.96 Y182.67 E41.86774
G1 X149.03 Y182.77 E41.87285
G1 X149.09 Y182.86 E41.87735
G1 X149.17 Y182.94 E41.88215
G1 X149.24 Y183.00 E41.88596
G1 X149.33 Y183.05 E41.89025
G1 X149.41 Y183.08 E41.89386
G1 X149.51 Y183.11 E41.89805
G1 X149.59 Y183.12 E41.90141
G1 X149.90 Y183.12 E41.91429
G1 X150.43 Y183.05 E41.93666
G1 X150.96 Y182.90 E41.95940
G1 X151.45 Y182.69 E41.98164
G1 X151.94 Y182.41 E42.00507
G1 X152.37 Y182.06 E42.02808
G1 X152.78 Y181.65 E42.05231
G1 X153.13 Y181.19 E42.07636
G1 X153.43 Y180.68 E42.10081
G1 X154.15 Y179.04 E42.17535
G1 X155.60 Y179.56 E42.23944
G1 X156.36 Y179.95 E42.27476
G1 X157.06 Y180.42 E42.30999
G1 X158.05 Y181.29 E42.36487
G1 X158.44 Y181.56 E42.38447
G1 X158.86 Y181.77 E42.40398
G1 X159.29 Y181.93 E42.42332
G1 X159.76 Y182.04 E42.44326
G1 X160.23 Y182.08 E42.46264
G1 X160.69 Y182.07 E42.48198
G1 X161.16 Y181.99 E42.50181
G1 X161.62 Y181.86 E42.52143
G1 X162.05 Y181.67 E42.54090
G1 X162.36 Y181.49 E42.55615
G1 X162.74 Y181.32 E42.57306
G1 X163.13 Y181.21 E42.58999
G1 X163.53 Y181.15 E42.60708
G1 X163.88 Y181.13 E42.62172
G1 X185.32 Y181.15 E43.51280
G1 X186.59 Y181.15 E43.56589
G1 X186.59 Y187.65 E43.83613
G1 X166.53 Y187.65 E44.67030
G1 X166.49 Y187.69 E44.67283
G1 X166.16 Y187.94 E44.68983
G1 X165.73 Y188.19 E44.71057
G1 X165.45 Y188.36 E44.72416
G1 X164.16 Y188.92 E44.78292
G1 X162.80 Y189.31 E44.84166
G1 X161.73 Y189.48 E44.88671
G1 X161.73 Y189.48 E44.88675
G1 X161.40 Y189.54 E44.90044
G1 X159.99 Y189.58 E44.95934
G1 X159.66 Y189.55 E44.97304
G1 X158.58 Y189.45 E45.01814
G1 X157.53 Y189.21 E45.06300
G1 X157.20 Y189.14 E45.07675
G1 X155.87 Y188.66 E45.13567
G1 X154.91 Y188.17 E45.18057
G1 X154.61 Y188.02 E45.19439
G1 X154.11 Y187.68 E45.21947
G1 X153.73 Y187.96 E45.23939
G1 X152.93 Y188.40 E45.27720
G1 X152.09 Y188.73 E45.31493
G1 X151.20 Y188.96 E45.35276
G1 X150.30 Y189.07 E45.39068
G1 X149.39 Y189.07 E45.42864
G1 X148.49 Y188.96 E45.46640
G1 X147.60 Y188.73 E45.50443
G1 X146.75 Y188.39 E45.54226
G1 X145.96 Y187.95 E45.58015
G1 X145.22 Y187.42 E45.61798
G1 X144.56 Y186.80 E45.65580
G1 X143.98 Y186.10 E45.69360
G1 X143.49 Y185.32 E45.73160
G1 X143.10 Y184.50 E45.76941
G1 X142.82 Y183.64 E45.80719
G1 X142.65 Y182.74 E45.84502
G1 X142.59 Y181.83 E45.88289
G1 X142.65 Y180.92 E45.92076
G1 X142.82 Y180.03 E45.95860
G1 X143.10 Y179.16 E45.99650
G1 X143.49 Y178.34 E46.03435
