;Generated with Cura_SteamEngine 13.12
M140 S100.000000
M109 T0 S255.000000
T0
M190 S100.000000
;Sliced at: Thu 13-03-2014 02:15:11
;Basic settings: Layer height: 0.2 Walls: 1 Fill: 20
;Print time: #P_TIME#
;Filament used: #F_AMNT#m #F_WGHT#g
;Filament cost: #F_COST#
;M190 S100 ;Uncomment to add your own bed temperature line
;M109 S255 ;Uncomment to add your own temperature line
G21        ;metric values
G90        ;absolute positioning
M107       ;start with the fan off
G28 X0 Y0  ;move X/Y to min endstops
G28 Z0     ;move Z to min endstops
G1 Z15.0 F9000 ;move the platform down 15mm
G92 E0                  ;zero the extruded length
G1 F200 E3              ;extrude 3mm of feed stock
G92 E0                  ;zero the extruded length again
G1 F9000
;Put printing message on LCD screen
M117 Printing...

;Layer count: 105
;LAYER:0
M107
G0 F9000 X105.43 Y67.19 Z0.20
;TYPE:SKIRT
G1 F1200 E0.00000
G1 F3000 X180.31 Y67.19 E3.11323
G1 X186.63 Y73.51 E3.48471
G1 X186.63 Y162.37 E7.17920
G1 X180.31 Y168.69 E7.55067
G1 X159.11 Y168.69 E8.43198
G1 X158.58 Y168.62 E8.45423
G1 X158.06 Y168.49 E8.47648
G1 X157.57 Y168.29 E8.49861
G1 X157.09 Y168.03 E8.52096
G1 X156.66 Y167.72 E8.54304
G1 X156.28 Y167.35 E8.56516
G1 X155.93 Y166.94 E8.58753
G1 X155.65 Y166.49 E8.60984
G1 X155.42 Y166.01 E8.63194
G1 X155.26 Y165.50 E8.65410
G1 X155.15 Y164.97 E8.67633
G1 X155.10 Y164.09 E8.71299
G1 X155.03 Y163.76 E8.72722
G1 X154.93 Y163.42 E8.74181
G1 X154.78 Y163.12 E8.75587
G1 X154.60 Y162.82 E8.77030
G1 X154.37 Y162.56 E8.78477
G1 X154.12 Y162.32 E8.79906
G1 X153.85 Y162.12 E8.81320
G1 X153.55 Y161.96 E8.82738
G1 X153.22 Y161.83 E8.84222
G1 X152.89 Y161.74 E8.85616
G1 X152.55 Y161.70 E8.87058
G1 X152.20 Y161.70 E8.88497
G1 X151.86 Y161.74 E8.89917
G1 X151.52 Y161.83 E8.91373
G1 X151.20 Y161.96 E8.92812
G1 X150.91 Y162.12 E8.94213
G1 X150.63 Y162.32 E8.95662
G1 X150.37 Y162.56 E8.97103
G1 X150.15 Y162.83 E8.98541
G1 X149.97 Y163.12 E8.99969
G1 X149.82 Y163.43 E9.01383
G1 X149.72 Y163.76 E9.02843
G1 X149.65 Y164.10 E9.04261
G1 X149.62 Y164.58 E9.06278
G1 X149.62 Y164.58 E9.06282
G1 X149.57 Y165.41 E9.09739
G1 X149.46 Y165.98 E9.12156
G1 X149.39 Y166.37 E9.13802
G1 X149.26 Y166.74 E9.15442
G1 X149.09 Y167.29 E9.17851
G1 X148.84 Y167.82 E9.20250
G1 X148.67 Y168.18 E9.21894
G1 X148.15 Y169.00 E9.25948
G1 X147.78 Y169.44 E9.28358
G1 X147.53 Y169.75 E9.29997
G1 X146.82 Y170.41 E9.34041
G1 X146.03 Y170.99 E9.38097
G1 X145.52 Y171.27 E9.40507
G1 X145.52 Y171.27 E9.40511
G1 X145.18 Y171.46 E9.42149
G1 X144.81 Y171.60 E9.43785
G1 X144.27 Y171.82 E9.46200
G1 X144.13 Y171.85 E9.46822
G1 X144.13 Y176.43 E9.65860
G1 X142.56 Y177.09 E9.72915
G1 X142.11 Y177.22 E9.74873
G1 X141.89 Y177.23 E9.75788
G1 X141.88 Y178.22 E9.79942
G1 X142.27 Y178.17 E9.81586
G1 X142.65 Y178.07 E9.83243
G1 X143.03 Y177.90 E9.84971
G1 X143.40 Y177.69 E9.86721
G1 X143.74 Y177.42 E9.88552
G1 X144.06 Y177.10 E9.90416
G1 X144.33 Y176.74 E9.92305
G1 X144.57 Y176.33 E9.94260
G1 X145.64 Y173.89 E10.05336
G1 X148.03 Y174.75 E10.15902
G1 X148.90 Y175.19 E10.19953
G1 X149.70 Y175.74 E10.23997
G1 X150.70 Y176.61 E10.29511
G1 X150.97 Y176.80 E10.30894
G1 X151.29 Y176.96 E10.32363
G1 X151.60 Y177.07 E10.33760
G1 X151.95 Y177.15 E10.35216
G1 X152.29 Y177.18 E10.36657
G1 X152.64 Y177.17 E10.38104
G1 X152.97 Y177.12 E10.39498
G1 X153.31 Y177.02 E10.40953
G1 X153.62 Y176.88 E10.42388
G1 X153.94 Y176.70 E10.43909
G1 X154.43 Y176.49 E10.46121
G1 X154.94 Y176.34 E10.48333
G1 X155.47 Y176.25 E10.50574
G1 X155.90 Y176.24 E10.52366
G1 X177.35 Y176.25 E11.41537
G1 X179.63 Y176.25 E11.51003
G1 X179.63 Y184.75 E11.86342
G1 X158.92 Y184.75 E12.72440
G1 X158.76 Y184.87 E12.73273
G1 X158.27 Y185.16 E12.75614
G1 X157.94 Y185.36 E12.77222
G1 X156.53 Y185.97 E12.83624
G1 X155.05 Y186.40 E12.90026
G1 X153.92 Y186.58 E12.94766
G1 X153.92 Y186.58 E12.94770
G1 X153.53 Y186.64 E12.96420
G1 X151.99 Y186.69 E13.02838
G1 X151.60 Y186.65 E13.04475
G1 X150.45 Y186.54 E13.09240
G1 X149.34 Y186.29 E13.13986
G1 X148.96 Y186.21 E13.15622
G1 X147.50 Y185.68 E13.22038
G1 X146.48 Y185.16 E13.26804
G1 X146.15 Y184.99 E13.28375
G1 X145.39 Y185.41 E13.31983
G1 X144.43 Y185.79 E13.36280
G1 X143.42 Y186.05 E13.40586
G1 X142.39 Y186.18 E13.44902
G1 X141.35 Y186.18 E13.49218
G1 X140.33 Y186.05 E13.53521
G1 X139.32 Y185.79 E13.57848
G1 X138.36 Y185.41 E13.62156
G1 X137.45 Y184.91 E13.66471
G1 X136.61 Y184.30 E13.70774
G1 X135.86 Y183.59 E13.75074
G1 X135.20 Y182.79 E13.79382
G1 X134.64 Y181.91 E13.83704
G1 X134.20 Y180.97 E13.88006
G1 X133.88 Y179.99 E13.92308
G1 X133.69 Y178.97 E13.96612
G1 X133.62 Y177.94 E14.00924
G1 X133.69 Y176.90 E14.05236
G1 X133.88 Y175.89 E14.09539
G1 X134.20 Y174.90 E14.13858
G1 X134.64 Y173.96 E14.18156
G1 X135.20 Y173.09 E14.22471
G1 X135.86 Y172.29 E14.26785
G1 X136.61 Y171.58 E14.31085
G1 X137.45 Y170.97 E14.35398
G1 X138.36 Y170.47 E14.39715
G1 X138.44 Y170.44 E14.40054
G1 X138.43 Y170.43 E14.40093
G1 X138.15 Y169.98 E14.42324
G1 X137.92 Y169.50 E14.44528
G1 X137.76 Y168.99 E14.46742
G1 X137.64 Y168.41 E14.49213
G1 X137.62 Y166.88 E14.55583
G1 X137.66 Y166.40 E14.57574
G1 X137.76 Y165.88 E14.59792
G1 X137.92 Y165.37 E14.62018
G1 X138.15 Y164.89 E14.64224
G1 X138.43 Y164.44 E14.66433
G1 X138.77 Y164.02 E14.68674
G1 X139.16 Y163.66 E14.70898
G1 X139.59 Y163.34 E14.73106
G1 X140.07 Y163.08 E14.75341
G1 X140.21 Y163.03 E14.75984
G1 X140.22 Y162.90 E14.76526
G1 X140.51 Y161.39 E14.82902
G1 X140.98 Y159.93 E14.89297
G1 X141.64 Y158.54 E14.95687
G1 X142.46 Y157.24 E15.02095
G1 X142.50 Y157.19 E15.02343
G1 X106.63 Y157.19 E16.51490
G1 X106.63 Y98.19 E18.96780
G1 X105.43 Y98.19 E19.01769
G1 X105.43 Y67.19 E20.30652
G0 F9000 X105.93 Y67.69
G1 F3000 X180.10 Y67.69 E23.39035
G1 X186.13 Y73.72 E23.74460
G1 X186.13 Y162.16 E27.42188
G1 X180.10 Y168.19 E27.77613
G1 X159.14 Y168.19 E28.64755
G1 X158.67 Y168.13 E28.66715
G1 X158.22 Y168.01 E28.68678
G1 X157.78 Y167.84 E28.70631
G1 X157.36 Y167.61 E28.72600
G1 X156.98 Y167.33 E28.74551
G1 X156.64 Y167.01 E28.76504
G1 X156.34 Y166.65 E28.78477
G1 X156.09 Y166.25 E28.80441
G1 X155.89 Y165.82 E28.82392
G1 X155.74 Y165.37 E28.84351
G1 X155.65 Y164.91 E28.86311
G1 X155.60 Y164.03 E28.89973
G1 X155.52 Y163.63 E28.91674
G1 X155.39 Y163.24 E28.93361
G1 X155.22 Y162.87 E28.95057
G1 X155.00 Y162.53 E28.96758
G1 X154.74 Y162.22 E28.98445
G1 X154.44 Y161.93 E29.00160
G1 X154.12 Y161.70 E29.01820
G1 X153.76 Y161.50 E29.03530
G1 X153.38 Y161.35 E29.05238
G1 X152.98 Y161.25 E29.06921
G1 X152.58 Y161.20 E29.08614
G1 X152.17 Y161.20 E29.10314
G1 X151.77 Y161.25 E29.11995
G1 X151.37 Y161.35 E29.13720
G1 X150.99 Y161.50 E29.15407
G1 X150.64 Y161.70 E29.17085
G1 X150.31 Y161.94 E29.18784
G1 X150.01 Y162.22 E29.20484
G1 X149.75 Y162.53 E29.22185
G1 X149.53 Y162.88 E29.23873
G1 X149.36 Y163.24 E29.25554
G1 X149.23 Y163.64 E29.27277
G1 X149.15 Y164.03 E29.28961
G1 X149.12 Y164.55 E29.31103
G1 X149.12 Y164.55 E29.31107
G1 X149.07 Y165.35 E29.34435
G1 X148.97 Y165.89 E29.36721
G1 X148.90 Y166.24 E29.38232
G1 X148.79 Y166.59 E29.39740
G1 X148.79 Y166.59 E29.39744
G1 X148.62 Y167.11 E29.42021
G1 X148.38 Y167.61 E29.44305
G1 X148.23 Y167.93 E29.45802
G1 X147.74 Y168.70 E29.49594
G1 X147.39 Y169.13 E29.51877
G1 X147.16 Y169.41 E29.53383
G1 X146.50 Y170.03 E29.57165
G1 X145.76 Y170.57 E29.60960
G1 X145.28 Y170.83 E29.63241
G1 X145.28 Y170.83 E29.63245
G1 X144.96 Y171.00 E29.64751
G1 X144.63 Y171.14 E29.66253
G1 X144.63 Y171.13 E29.66257
G1 X144.12 Y171.34 E29.68543
G1 X143.76 Y171.43 E29.70050
G1 X143.76 Y171.43 E29.70054
G1 X143.63 Y171.46 E29.70655
G1 X143.63 Y176.10 E29.89933
G1 X142.40 Y176.62 E29.95472
G1 X142.03 Y176.72 E29.97054
G1 X141.68 Y176.73 E29.98507
G1 X141.64 Y176.74 E29.98675
G1 X141.61 Y176.75 E29.98795
G1 X141.59 Y176.76 E29.98918
G1 X141.57 Y176.77 E29.99018
G1 X141.53 Y176.80 E29.99199
G1 X141.50 Y176.83 E29.99369
G1 X141.47 Y176.87 E29.99600
G1 X141.44 Y176.93 E29.99861
G1 X141.41 Y176.98 E30.00111
G1 X141.39 Y177.04 E30.00392
G1 X141.39 Y177.07 E30.00498
G1 X141.38 Y178.24 E30.05375
G1 X141.38 Y178.36 E30.05846
G1 X141.39 Y178.41 E30.06095
G1 X141.41 Y178.49 E30.06412
G1 X141.44 Y178.55 E30.06675
G1 X141.47 Y178.59 E30.06906
G1 X141.50 Y178.63 E30.07111
G1 X141.53 Y178.67 E30.07316
G1 X141.56 Y178.69 E30.07476
G1 X141.59 Y178.71 E30.07592
G1 X141.62 Y178.72 E30.07737
G1 X141.63 Y178.72 E30.07793
G1 X141.66 Y178.73 E30.07898
G1 X141.90 Y178.73 E30.08908
G1 X142.37 Y178.66 E30.10872
G1 X142.82 Y178.54 E30.12805
G1 X143.26 Y178.35 E30.14813
G1 X143.68 Y178.10 E30.16861
G1 X144.07 Y177.79 E30.18908
G1 X144.44 Y177.43 E30.21057
G1 X144.75 Y177.01 E30.23216
G1 X145.02 Y176.56 E30.25400
G1 X145.91 Y174.52 E30.34677
G1 X147.83 Y175.21 E30.43163
G1 X148.64 Y175.62 E30.46953
G1 X149.40 Y176.13 E30.50736
G1 X150.39 Y177.01 E30.56229
G1 X150.72 Y177.23 E30.57897
G1 X151.09 Y177.42 E30.59634
G1 X151.47 Y177.56 E30.61313
G1 X151.86 Y177.65 E30.62986
G1 X152.28 Y177.68 E30.64703
G1 X152.68 Y177.67 E30.66375
G1 X153.09 Y177.61 E30.68097
G1 X153.48 Y177.49 E30.69795
G1 X153.85 Y177.33 E30.71469
G1 X154.16 Y177.15 E30.73000
G1 X154.60 Y176.96 E30.74953
G1 X155.05 Y176.83 E30.76907
G1 X155.52 Y176.75 E30.78881
G1 X155.91 Y176.74 E30.80507
G1 X177.35 Y176.75 E31.69649
G1 X179.13 Y176.75 E31.77037
G1 X179.13 Y184.25 E32.08218
G1 X158.75 Y184.25 E32.92948
G1 X158.48 Y184.46 E32.94359
G1 X158.02 Y184.73 E32.96550
G1 X157.71 Y184.91 E32.98053
G1 X156.36 Y185.50 E33.04192
G1 X154.94 Y185.91 E33.10330
G1 X153.84 Y186.08 E33.14943
G1 X153.84 Y186.08 E33.14947
G1 X153.48 Y186.14 E33.16463
G1 X152.00 Y186.19 E33.22619
G1 X151.64 Y186.15 E33.24123
G1 X150.53 Y186.05 E33.28759
G1 X149.45 Y185.81 E33.33376
G1 X149.10 Y185.73 E33.34880
G1 X147.70 Y185.22 E33.41036
G1 X146.71 Y184.72 E33.45666
G1 X146.39 Y184.55 E33.47185
G1 X146.15 Y184.39 E33.48350
G1 X146.03 Y184.49 E33.49011
G1 X145.17 Y184.96 E33.53054
G1 X144.27 Y185.31 E33.57086
G1 X143.33 Y185.56 E33.61131
G1 X142.36 Y185.68 E33.65183
G1 X141.39 Y185.68 E33.69241
G1 X140.42 Y185.56 E33.73280
G1 X139.47 Y185.31 E33.77346
G1 X138.57 Y184.95 E33.81392
G1 X137.72 Y184.48 E33.85441
G1 X136.93 Y183.91 E33.89485
G1 X136.22 Y183.25 E33.93527
G1 X135.60 Y182.50 E33.97569
G1 X135.08 Y181.67 E34.01632
G1 X134.67 Y180.79 E34.05671
G1 X134.37 Y179.87 E34.09710
G1 X134.18 Y178.91 E34.13756
G1 X134.12 Y177.94 E34.17806
G1 X134.18 Y176.97 E34.21855
G1 X134.37 Y176.01 E34.25901
G1 X134.67 Y175.08 E34.29953
G1 X135.08 Y174.21 E34.33993
G1 X135.60 Y173.38 E34.38046
G1 X136.22 Y172.63 E34.42097
G1 X136.93 Y171.97 E34.46138
G1 X137.72 Y171.39 E34.50186
G1 X138.57 Y170.92 E34.54242
G1 X139.29 Y170.64 E34.57433
G1 X139.14 Y170.50 E34.58275
G1 X138.84 Y170.14 E34.60247
G1 X138.59 Y169.74 E34.62211
G1 X138.39 Y169.32 E34.64159
G1 X138.24 Y168.87 E34.66114
G1 X138.14 Y168.36 E34.68268
G1 X138.12 Y166.89 E34.74380
G1 X138.15 Y166.46 E34.76159
G1 X138.24 Y166.00 E34.78114
G1 X138.39 Y165.55 E34.80077
G1 X138.59 Y165.13 E34.82026
G1 X138.84 Y164.73 E34.83975
G1 X139.14 Y164.36 E34.85951
G1 X139.48 Y164.04 E34.87913
G1 X139.86 Y163.76 E34.89865
G1 X140.28 Y163.54 E34.91834
G1 X140.69 Y163.38 E34.93663
G1 X140.72 Y162.96 E34.95388
G1 X140.99 Y161.52 E35.01505
G1 X141.45 Y160.11 E35.07638
G1 X142.07 Y158.78 E35.13770
G1 X142.87 Y157.53 E35.19915
G1 X143.56 Y156.69 E35.24457
G1 X107.13 Y156.69 E36.75952
G1 X107.13 Y97.69 E39.21242
G1 X105.93 Y97.69 E39.26231
G1 X105.93 Y67.69 E40.50956
G0 F9000 X106.43 Y68.19
G1 F3000 X179.89 Y68.19 E43.56401
G1 X185.63 Y73.92 E43.90103
G1 X185.63 Y161.96 E47.56110
G1 X179.89 Y167.69 E47.89812
G1 X159.17 Y167.69 E48.75964
G1 X158.77 Y167.63 E48.77661
G1 X158.37 Y167.53 E48.79361
G1 X157.99 Y167.38 E48.81054
G1 X157.63 Y167.19 E48.82758
G1 X157.30 Y166.94 E48.84452
G1 X157.01 Y166.67 E48.86146
G1 X156.74 Y166.35 E48.87853
G1 X156.53 Y166.01 E48.89553
G1 X156.35 Y165.64 E48.91247
G1 X156.22 Y165.25 E48.92944
G1 X156.15 Y164.85 E48.94642
G1 X156.09 Y163.97 E48.98304
G1 X156.00 Y163.51 E49.00256
G1 X155.86 Y163.06 E49.02230
G1 X155.66 Y162.63 E49.04161
G1 X155.41 Y162.23 E49.06140
G1 X155.11 Y161.87 E49.08089
G1 X154.76 Y161.55 E49.10048
G1 X154.38 Y161.27 E49.11997
G1 X153.97 Y161.05 E49.13945
G1 X153.53 Y160.88 E49.15907
G1 X153.07 Y160.76 E49.17877
G1 X152.61 Y160.70 E49.19818
G1 X152.14 Y160.70 E49.21784
G1 X151.68 Y160.76 E49.23712
G1 X151.21 Y160.88 E49.25725
G1 X150.78 Y161.05 E49.27634
G1 X150.36 Y161.28 E49.29631
G1 X149.99 Y161.55 E49.31553
G1 X149.64 Y161.87 E49.33515
G1 X149.34 Y162.24 E49.35482
G1 X149.09 Y162.64 E49.37440
G1 X148.89 Y163.06 E49.39387
G1 X148.75 Y163.51 E49.41338
G1 X148.66 Y163.97 E49.43310
G1 X148.62 Y164.52 E49.45581
G1 X148.62 Y164.52 E49.45585
G1 X148.57 Y165.28 E49.48780
G1 X148.48 Y165.79 E49.50934
G1 X148.42 Y166.12 E49.52314
G1 X148.31 Y166.43 E49.53688
G1 X148.31 Y166.43 E49.53692
G1 X148.15 Y166.93 E49.55848
G1 X147.93 Y167.39 E49.57998
G1 X147.79 Y167.69 E49.59367
G1 X147.34 Y168.41 E49.62899
G1 X147.01 Y168.81 E49.65049
G1 X146.80 Y169.06 E49.66422
G1 X146.18 Y169.64 E49.69946
G1 X145.49 Y170.14 E49.73479
G1 X145.04 Y170.39 E49.75628
G1 X145.04 Y170.39 E49.75632
G1 X144.75 Y170.55 E49.77005
G1 X144.44 Y170.67 E49.78377
G1 X144.44 Y170.67 E49.78381
G1 X143.96 Y170.86 E49.80537
G1 X143.64 Y170.94 E49.81910
G1 X143.14 Y171.07 E49.84057
G1 X143.13 Y171.07 E49.84124
G1 X143.13 Y175.77 E50.03639
G1 X142.23 Y176.15 E50.07663
G1 X141.95 Y176.22 E50.08870
G1 X141.65 Y176.24 E50.10155
G1 X141.54 Y176.25 E50.10592
G1 X141.44 Y176.28 E50.11010
G1 X141.36 Y176.31 E50.11372
G1 X141.28 Y176.36 E50.11782
G1 X141.20 Y176.42 E50.12190
G1 X141.12 Y176.50 E50.12649
G1 X141.06 Y176.59 E50.13120
G1 X140.99 Y176.69 E50.13631
G1 X140.94 Y176.81 E50.14147
G1 X140.91 Y176.93 E50.14669
G1 X140.89 Y177.03 E50.15074
G1 X140.88 Y178.25 E50.20176
G1 X140.88 Y178.41 E50.20846
G1 X140.91 Y178.53 E50.21353
G1 X140.94 Y178.66 E50.21896
G1 X140.99 Y178.77 E50.22413
G1 X141.06 Y178.88 E50.22924
G1 X141.12 Y178.96 E50.23375
G1 X141.20 Y179.05 E50.23854
G1 X141.28 Y179.10 E50.24236
G1 X141.36 Y179.16 E50.24664
G1 X141.45 Y179.19 E50.25063
G1 X141.53 Y179.22 E50.25408
G1 X141.62 Y179.23 E50.25781
G1 X141.93 Y179.23 E50.27070
G1 X142.46 Y179.16 E50.29306
G1 X142.99 Y179.01 E50.31580
G1 X143.48 Y178.80 E50.33804
G1 X143.97 Y178.51 E50.36147
G1 X144.40 Y178.17 E50.38449
G1 X144.81 Y177.76 E50.40871
G1 X145.16 Y177.30 E50.43276
G1 X145.46 Y176.79 E50.45721
G1 X146.18 Y175.15 E50.53176
G1 X147.63 Y175.67 E50.59584
G1 X148.39 Y176.05 E50.63113
G1 X149.09 Y176.53 E50.66636
G1 X150.08 Y177.40 E50.72127
G1 X150.47 Y177.67 E50.74087
G1 X150.89 Y177.88 E50.76032
G1 X151.33 Y178.04 E50.77999
G1 X151.79 Y178.14 E50.79945
G1 X152.26 Y178.19 E50.81904
G1 X152.72 Y178.17 E50.83838
G1 X153.19 Y178.10 E50.85821
G1 X153.65 Y177.96 E50.87782
G1 X154.08 Y177.78 E50.89730
G1 X154.39 Y177.59 E50.91255
G1 X154.77 Y177.43 E50.92945
G1 X155.16 Y177.32 E50.94639
G1 X155.56 Y177.25 E50.96348
G1 X155.91 Y177.24 E50.97808
G1 X177.35 Y177.25 E51.86920
G1 X178.63 Y177.25 E51.92229
G1 X178.63 Y183.75 E52.19253
G1 X158.56 Y183.75 E53.02670
G1 X158.52 Y183.79 E53.02923
G1 X158.19 Y184.04 E53.04623
G1 X157.76 Y184.30 E53.06697
G1 X157.48 Y184.47 E53.08056
G1 X156.19 Y185.03 E53.13932
G1 X154.83 Y185.42 E53.19806
G1 X153.76 Y185.59 E53.24311
G1 X153.76 Y185.59 E53.24315
G1 X153.44 Y185.64 E53.25684
G1 X152.02 Y185.69 E53.31574
G1 X151.69 Y185.65 E53.32944
G1 X150.61 Y185.55 E53.37454
G1 X149.56 Y185.32 E53.41940
G1 X149.24 Y185.25 E53.43315
G1 X147.90 Y184.76 E53.49207
G1 X146.94 Y184.27 E53.53701
G1 X146.64 Y184.12 E53.55088
G1 X146.15 Y183.78 E53.57587
G1 X145.76 Y184.06 E53.59579
G1 X144.96 Y184.50 E53.63360
G1 X144.12 Y184.84 E53.67133
G1 X143.24 Y185.06 E53.70916
G1 X142.33 Y185.18 E53.74708
G1 X141.42 Y185.18 E53.78504
G1 X140.52 Y185.06 E53.82280
G1 X139.63 Y184.84 E53.86083
G1 X138.78 Y184.50 E53.89866
G1 X137.99 Y184.06 E53.93655
G1 X137.25 Y183.53 E53.97438
G1 X136.59 Y182.90 E54.01220
G1 X136.01 Y182.20 E54.05000
G1 X135.52 Y181.43 E54.08800
G1 X135.13 Y180.61 E54.12581
G1 X134.85 Y179.74 E54.16359
G1 X134.68 Y178.85 E54.20142
G1 X134.62 Y177.94 E54.23929
