;Generated with Cura_SteamEngine 13.12
M140 S100.000000
M109 T0 S255.000000
T0
M190 S100.000000
;Sliced at: Thu 27-02-2014 02:32:19
;Basic settings: Layer height: 0.2 Walls: 1 Fill: 20
;Print time: #P_TIME#
;Filament used: #F_AMNT#m #F_WGHT#g
;Filament cost: #F_COST#
;M190 S100 ;Uncomment to add your own bed temperature line
;M109 S255 ;Uncomment to add your own temperature line
G21        ;metric values
G90        ;absolute positioning
M107       ;start with the fan off
G28 X0 Y0  ;move X/Y to min endstops
G28 Z0     ;move Z to min endstops
G1 Z15.0 F9000 ;move the platform down 15mm
G92 E0                  ;zero the extruded length
G1 F200 E3              ;extrude 3mm of feed stock
G92 E0                  ;zero the extruded length again
G1 F9000
;Put printing message on LCD screen
M117 Printing...

;Layer count: 250
;LAYER:0
M107
G0 F5400 X123.14 Y119.96 Z0.20
;TYPE:SKIRT
G1 F1200 E0.00000
G1 F1800 X177.64 Y119.96 E2.26585
G1 X177.64 Y174.46 E4.53169
G1 X123.14 Y174.46 E6.79754
G1 X123.14 Y119.96 E9.06339
G0 F5400 X123.64 Y120.46
G1 F1800 X177.14 Y120.46 E11.28766
G1 X177.14 Y173.96 E13.51193
G1 X123.64 Y173.96 E15.73620
G1 X123.64 Y120.46 E17.96047
G0 F5400 X124.14 Y120.96
G1 F1800 X176.64 Y120.96 E20.14317
G1 X176.64 Y173.46 E22.32587
G1 X124.14 Y173.46 E24.50856
G1 X124.14 Y120.96 E26.69126
G0 F5400 X124.64 Y121.46
G1 F1800 X176.14 Y121.46 E28.83238
G1 X176.14 Y172.96 E30.97350
G1 X124.64 Y172.96 E33.11462
G1 X124.64 Y121.46 E35.25574
G0 F5400 X125.14 Y121.96
G1 F1800 X175.64 Y121.96 E37.35529
G1 X175.64 Y172.46 E39.45484
G1 X125.14 Y172.46 E41.55438
G1 X125.14 Y121.96 E43.65393
G0 F5400 X134.49 Y129.63
G1 F1800 X131.18 Y133.32 E43.85985
G1 X129.14 Y136.87 E44.03015
G1 X130.61 Y138.77 E44.12987
G1 X138.41 Y149.51 E44.68159
G1 X138.16 Y147.26 E44.77556
G1 X138.42 Y144.72 E44.88187
G1 X139.20 Y142.28 E44.98814
G1 X140.46 Y140.07 E45.09381
G1 X142.21 Y137.52 E45.22232
G1 X152.30 Y123.63 E45.93644
G1 X147.86 Y123.64 E46.12116
G1 X143.01 Y124.68 E46.32715
G1 X138.49 Y126.71 E46.53316
G1 X134.49 Y129.63 E46.73920
G0 F5400 X134.83 Y130.00
G1 F1800 X131.59 Y133.62 E46.94082
G1 X129.74 Y136.83 E47.09496
G1 X131.01 Y138.47 E47.18113
G1 X137.71 Y147.69 E47.65486
G1 X137.66 Y147.26 E47.67276
G1 X137.93 Y144.61 E47.78346
G1 X138.74 Y142.08 E47.89410
G1 X140.03 Y139.81 E48.00278
G1 X141.80 Y137.24 E48.13240
G1 X151.32 Y124.13 E48.80589
G1 X147.91 Y124.14 E48.94745
G1 X143.17 Y125.16 E49.14920
G1 X138.75 Y127.14 E49.35069
G1 X134.83 Y130.00 E49.55244
G0 F5400 X135.16 Y130.37
G1 F1800 X132.00 Y133.91 E49.74973
G1 X130.34 Y136.79 E49.88789
G1 X131.41 Y138.17 E49.96043
G1 X137.26 Y146.23 E50.37442
G1 X137.43 Y144.51 E50.44617
G1 X138.28 Y141.88 E50.56118
G1 X139.61 Y139.54 E50.67293
G1 X141.39 Y136.95 E50.80371
G1 X150.33 Y124.63 E51.43651
G1 X147.97 Y124.64 E51.53496
G1 X143.33 Y125.64 E51.73228
G1 X138.99 Y127.58 E51.92969
G1 X135.16 Y130.37 E52.12675
G0 F5400 X135.50 Y130.75
G1 F1800 X132.40 Y134.20 E52.31968
G1 X130.94 Y136.75 E52.44167
G1 X131.81 Y137.87 E52.50060
G1 X136.89 Y144.87 E52.86040
G1 X136.94 Y144.41 E52.87979
G1 X137.82 Y141.67 E52.99920
G1 X139.19 Y139.28 E53.11397
G1 X140.98 Y136.66 E53.24586
G1 X149.35 Y125.14 E53.83803
G1 X148.02 Y125.14 E53.89328
G1 X143.48 Y126.11 E54.08631
G1 X139.25 Y128.01 E54.27925
G1 X135.50 Y130.75 E54.47208
G0 F5400 X135.84 Y131.12
G1 F1800 X132.81 Y134.50 E54.66054
G1 X131.54 Y136.71 E54.76654
G1 X132.21 Y137.57 E54.81189
G1 X136.65 Y143.68 E55.12594
G1 X137.35 Y141.47 E55.22252
G1 X138.76 Y139.01 E55.34031
G1 X140.57 Y136.37 E55.47334
G1 X148.37 Y125.64 E56.02491
G1 X148.08 Y125.64 E56.03705
G1 X143.64 Y126.59 E56.22587
G1 X139.50 Y128.45 E56.41420
G1 X135.84 Y131.12 E56.60283
G0 F5400 X128.56 Y138.11
G1 F1800 X127.19 Y142.33 E56.78743
G1 X126.69 Y147.26 E56.99352
G1 X127.22 Y152.19 E57.19971
G1 X127.25 Y152.30 E57.20420
G1 X127.25 Y152.30 E57.20424
G1 X128.76 Y156.90 E57.40576
G1 X131.25 Y161.19 E57.61159
G1 X133.99 Y164.22 E57.78179
G1 X136.25 Y163.42 E57.88153
G1 X148.87 Y159.32 E58.43327
G1 X146.66 Y158.86 E58.52720
G1 X144.32 Y157.83 E58.63349
G1 X142.25 Y156.33 E58.73977
G1 X140.54 Y154.45 E58.84544
G1 X138.65 Y152.00 E58.97430
G1 X128.56 Y138.11 E59.68800
G0 F5400 X128.73 Y139.20
G1 F1800 X127.69 Y142.44 E59.82952
G1 X127.19 Y147.26 E60.03106
G1 X127.71 Y152.09 E60.23299
G1 X127.73 Y152.14 E60.23530
G1 X129.22 Y156.70 E60.43455
G1 X131.66 Y160.89 E60.63625
G1 X134.14 Y163.64 E60.79025
G1 X136.09 Y162.94 E60.87640
G1 X146.93 Y159.42 E61.35022
G1 X146.51 Y159.34 E61.36815
G1 X144.07 Y158.26 E61.47880
G1 X141.91 Y156.71 E61.58948
G1 X140.15 Y154.77 E61.69818
G1 X138.25 Y152.29 E61.82820
G1 X128.73 Y139.20 E62.50121
G0 F5400 X128.91 Y140.29
G1 F1800 X128.18 Y142.54 E62.59971
G1 X127.69 Y147.26 E62.79681
G1 X128.20 Y151.99 E62.99452
G1 X129.68 Y156.49 E63.19158
G1 X132.06 Y160.60 E63.38884
G1 X134.29 Y163.06 E63.52684
G1 X135.93 Y162.47 E63.59938
G1 X145.40 Y159.39 E64.01338
G1 X143.82 Y158.70 E64.08506
G1 X141.58 Y157.08 E64.20010
G1 X139.77 Y155.09 E64.31182
G1 X137.85 Y152.59 E64.44295
G1 X128.91 Y140.29 E65.07535
G0 F5400 X129.08 Y141.38
G1 F1800 X128.67 Y142.65 E65.13069
G1 X128.20 Y147.26 E65.32366
G1 X128.69 Y151.88 E65.51676
G1 X130.14 Y156.28 E65.70941
G1 X132.47 Y160.30 E65.90253
G1 X134.43 Y162.47 E66.02434
G1 X135.77 Y162.00 E66.08330
G1 X144.00 Y159.32 E66.44307
G1 X143.57 Y159.14 E66.46243
G1 X141.24 Y157.46 E66.58188
G1 X139.39 Y155.41 E66.69661
G1 X137.45 Y152.89 E66.82888
G1 X129.08 Y141.38 E67.42066
G0 F5400 X129.25 Y142.47
G1 F1800 X129.16 Y142.75 E67.43298
G1 X128.70 Y147.26 E67.62143
G1 X129.18 Y151.77 E67.81023
G1 X130.60 Y156.08 E67.99859
G1 X132.87 Y160.00 E68.18711
G1 X134.58 Y161.89 E68.29302
G1 X135.61 Y161.53 E68.33839
G1 X142.79 Y159.19 E68.65245
G1 X140.91 Y157.83 E68.74904
G1 X139.00 Y155.74 E68.86681
G1 X137.04 Y153.19 E69.00021
G1 X129.25 Y142.47 E69.55136
G0 F5400 X139.60 Y144.96
G1 F1800 X139.57 Y145.28 E69.56474
G1 X139.36 Y147.25 E69.64714
G1 X139.41 Y147.57 E69.66056
G1 X139.61 Y149.55 E69.74325
G1 X140.33 Y151.73 E69.83886
G1 X141.50 Y153.73 E69.93484
G1 X143.05 Y155.44 E70.03070
G1 X144.92 Y156.78 E70.12652
G1 X147.03 Y157.71 E70.22243
G1 X149.29 Y158.18 E70.31833
G1 X151.59 Y158.17 E70.41420
G1 X153.84 Y157.68 E70.50992
G1 X155.95 Y156.74 E70.60584
G1 X157.81 Y155.37 E70.70183
G1 X159.34 Y153.65 E70.79761
G1 X160.49 Y151.66 E70.89335
G1 X160.58 Y151.34 E70.90686
G1 X161.19 Y149.46 E70.98934
G1 X161.21 Y149.13 E71.00272
G1 X161.42 Y147.16 E71.08524
G1 X161.38 Y146.84 E71.09858
G1 X161.17 Y144.87 E71.18127
G1 X160.45 Y142.68 E71.27684
G1 X159.29 Y140.69 E71.37286
G1 X157.74 Y138.98 E71.46869
G1 X155.87 Y137.63 E71.56451
G1 X153.76 Y136.71 E71.66042
G1 X151.50 Y136.23 E71.75631
G1 X149.19 Y136.24 E71.85219
G1 X146.94 Y136.73 E71.94790
G1 X144.84 Y137.68 E72.04383
G1 X142.98 Y139.04 E72.13961
G1 X142.77 Y139.29 E72.15306
G1 X141.44 Y140.76 E72.23563
G1 X140.30 Y142.76 E72.33133
G1 X140.21 Y143.07 E72.34484
G1 X139.60 Y144.96 E72.42732
G0 F5400 X140.09 Y145.05
G1 F1800 X140.07 Y145.33 E72.43866
G1 X139.87 Y147.25 E72.51892
G1 X139.90 Y147.51 E72.53013
G1 X140.10 Y149.44 E72.61077
G1 X140.79 Y151.53 E72.70213
G1 X141.90 Y153.43 E72.79376
G1 X143.38 Y155.06 E72.88511
G1 X145.16 Y156.35 E72.97658
G1 X147.18 Y157.23 E73.06828
G1 X149.34 Y157.68 E73.15963
G1 X151.54 Y157.67 E73.25114
G1 X153.69 Y157.21 E73.34264
G1 X155.70 Y156.30 E73.43423
G1 X157.47 Y155.00 E73.52563
G1 X158.94 Y153.36 E73.61718
G1 X160.02 Y151.46 E73.70820
G1 X160.10 Y151.20 E73.71959
G1 X160.69 Y149.36 E73.79977
G1 X160.72 Y149.09 E73.81111
G1 X160.92 Y147.17 E73.89137
G1 X160.88 Y146.90 E73.90262
G1 X160.68 Y144.97 E73.98326
G1 X159.99 Y142.88 E74.07480
G1 X158.88 Y140.98 E74.16613
G1 X157.40 Y139.36 E74.25758
G1 X155.62 Y138.07 E74.34904
G1 X153.60 Y137.18 E74.44074
G1 X151.45 Y136.73 E74.53209
G1 X149.25 Y136.74 E74.62360
G1 X147.10 Y137.21 E74.71510
G1 X145.09 Y138.11 E74.80669
G1 X143.32 Y139.41 E74.89759
G1 X143.15 Y139.62 E74.90900
G1 X141.85 Y141.06 E74.98966
G1 X140.76 Y142.96 E75.08065
G1 X140.69 Y143.22 E75.09204
G1 X140.09 Y145.05 E75.17221
G0 F5400 X140.58 Y145.16
G1 F1800 X140.57 Y145.37 E75.18126
G1 X140.37 Y147.24 E75.25931
G1 X140.40 Y147.45 E75.26832
G1 X140.60 Y149.34 E75.34700
G1 X141.25 Y151.32 E75.43404
G1 X142.31 Y153.13 E75.52104
G1 X143.72 Y154.69 E75.60834
G1 X145.42 Y155.91 E75.69546
G1 X147.33 Y156.75 E75.78237
G1 X149.39 Y157.18 E75.86969
G1 X151.48 Y157.17 E75.95666
G1 X153.53 Y156.73 E76.04396
G1 X155.44 Y155.87 E76.13108
G1 X157.13 Y154.63 E76.21815
G1 X158.53 Y153.07 E76.30536
G1 X159.56 Y151.26 E76.39168
G1 X159.62 Y151.05 E76.40094
G1 X160.20 Y149.26 E76.47909
G1 X160.22 Y149.04 E76.48814
G1 X160.41 Y147.18 E76.56619
G1 X160.39 Y146.96 E76.57525
G1 X160.19 Y145.08 E76.65384
G1 X159.53 Y143.09 E76.74096
G1 X158.48 Y141.28 E76.82813
G1 X157.07 Y139.73 E76.91510
G1 X155.37 Y138.50 E77.00237
G1 X153.45 Y137.66 E77.08928
G1 X151.40 Y137.24 E77.17660
G1 X149.31 Y137.24 E77.26357
G1 X147.25 Y137.69 E77.35087
G1 X145.34 Y138.55 E77.43799
G1 X143.67 Y139.78 E77.52440
G1 X143.52 Y139.94 E77.53357
G1 X142.25 Y141.35 E77.61246
G1 X141.22 Y143.15 E77.69857
G1 X141.16 Y143.37 E77.70784
G1 X140.58 Y145.16 E77.78599
G0 F5400 X141.08 Y145.25
G1 F1800 X141.06 Y145.42 E77.79287
G1 X140.87 Y147.23 E77.86862
G1 X140.90 Y147.40 E77.87558
G1 X141.09 Y149.23 E77.95220
G1 X141.71 Y151.12 E78.03495
G1 X142.71 Y152.84 E78.11765
G1 X144.05 Y154.31 E78.20045
G1 X145.67 Y155.47 E78.28321
G1 X147.49 Y156.28 E78.36594
G1 X149.44 Y156.68 E78.44867
G1 X151.43 Y156.67 E78.53149
G1 X153.37 Y156.25 E78.61415
G1 X155.19 Y155.43 E78.69704
G1 X156.79 Y154.26 E78.77970
G1 X158.12 Y152.77 E78.86250
G1 X159.10 Y151.07 E78.94427
G1 X159.14 Y150.90 E78.95133
G1 X159.71 Y149.16 E79.02729
G1 X159.72 Y149.00 E79.03417
G1 X159.91 Y147.19 E79.10993
G1 X159.89 Y147.02 E79.11693
G1 X159.70 Y145.19 E79.19351
G1 X159.07 Y143.30 E79.27626
G1 X158.07 Y141.58 E79.35900
G1 X156.73 Y140.10 E79.44173
G1 X155.12 Y138.94 E79.52453
G1 X153.30 Y138.14 E79.60726
G1 X151.35 Y137.74 E79.68999
G1 X149.36 Y137.74 E79.77281
G1 X147.41 Y138.16 E79.85547
G1 X145.60 Y138.98 E79.93836
G1 X144.01 Y140.15 E80.02016
G1 X143.90 Y140.27 E80.02714
G1 X142.66 Y141.65 E80.10386
G1 X141.69 Y143.35 E80.18557
G1 X141.64 Y143.51 E80.19263
G1 X141.08 Y145.25 E80.26859
G0 F5400 X141.57 Y145.35
G1 F1800 X141.56 Y145.46 E80.27327
G1 X141.38 Y147.23 E80.34705
G1 X141.39 Y147.34 E80.35162
G1 X141.58 Y149.12 E80.42633
G1 X142.17 Y150.91 E80.50463
G1 X143.12 Y152.54 E80.58303
G1 X144.38 Y153.94 E80.66132
G1 X145.91 Y155.04 E80.73974
G1 X147.64 Y155.80 E80.81804
G1 X149.49 Y156.18 E80.89660
G1 X151.37 Y156.17 E80.97484
G1 X153.22 Y155.77 E81.05333
G1 X154.93 Y155.00 E81.13165
G1 X156.46 Y153.88 E81.21010
G1 X157.71 Y152.48 E81.28851
G1 X158.63 Y150.87 E81.36557
G1 X158.66 Y150.76 E81.37050
G1 X159.21 Y149.07 E81.44432
G1 X159.22 Y148.95 E81.44900
G1 X159.41 Y147.19 E81.52282
G1 X159.39 Y147.08 E81.52739
G1 X159.20 Y145.29 E81.60210
G1 X158.61 Y143.50 E81.68046
G1 X157.67 Y141.88 E81.75869
G1 X156.40 Y140.48 E81.83703
G1 X154.87 Y139.38 E81.91548
G1 X153.15 Y138.62 E81.99378
G1 X151.29 Y138.24 E82.07234
G1 X149.41 Y138.24 E82.15059
G1 X147.57 Y138.64 E82.22908
G1 X145.85 Y139.42 E82.30740
G1 X144.35 Y140.51 E82.38458
G1 X144.28 Y140.60 E82.38951
G1 X143.07 Y141.94 E82.46446
G1 X142.15 Y143.55 E82.54127
G1 X142.12 Y143.66 E82.54621
G1 X141.57 Y145.35 E82.62003
G0 F5400 X158.74 Y138.30
G1 F1800 X160.26 Y139.98 E82.71395
G1 X161.54 Y142.19 E82.82026
G1 X162.35 Y144.62 E82.92660
G1 X162.62 Y147.14 E83.03224
G1 X162.71 Y150.23 E83.16067
G1 X162.71 Y167.41 E83.87477
G1 X166.29 Y164.79 E84.05941
G1 X169.60 Y161.10 E84.26536
G1 X172.07 Y156.80 E84.47141
G1 X173.59 Y152.08 E84.67743
G1 X174.10 Y147.15 E84.88351
G1 X173.66 Y143.08 E85.05369
G1 X171.36 Y142.40 E85.15341
G1 X158.74 Y138.30 E85.70508
G0 F5400 X160.37 Y139.36
G1 F1800 X160.66 Y139.68 E85.72304
G1 X162.00 Y141.98 E85.83371
G1 X162.84 Y144.51 E85.94441
G1 X163.12 Y147.11 E86.05311
G1 X163.21 Y150.22 E86.18267
G1 X163.21 Y166.42 E86.85610
G1 X165.96 Y164.41 E86.99754
G1 X169.20 Y160.80 E87.19946
G1 X171.61 Y156.60 E87.40076
G1 X173.10 Y151.98 E87.60258
G1 X173.59 Y147.15 E87.80416
G1 X173.20 Y143.47 E87.95832
G1 X171.21 Y142.88 E88.04444
G1 X160.37 Y139.36 E88.51827
G0 F5400 X161.59 Y140.28
G1 F1800 X162.46 Y141.77 E88.59002
G1 X163.33 Y144.40 E88.70509
G1 X163.62 Y147.07 E88.81680
G1 X163.71 Y150.22 E88.94748
G1 X163.71 Y165.44 E89.58030
G1 X165.62 Y164.04 E89.67863
G1 X168.79 Y160.51 E89.87598
G1 X171.15 Y156.39 E90.07315
G1 X172.61 Y151.87 E90.27074
G1 X173.09 Y147.16 E90.46775
G1 X172.74 Y143.85 E90.60594
G1 X171.06 Y143.36 E90.67849
G1 X161.59 Y140.28 E91.09246
G0 F5400 X162.69 Y141.16
G1 F1800 X162.92 Y141.57 E91.11186
G1 X163.82 Y144.29 E91.23133
G1 X164.12 Y147.04 E91.34604
G1 X164.21 Y150.21 E91.47789
G1 X164.21 Y164.45 E92.07009
G1 X165.28 Y163.67 E92.12539
G1 X168.38 Y160.21 E92.31827
G1 X170.69 Y156.19 E92.51117
G1 X172.11 Y151.77 E92.70417
G1 X172.59 Y147.15 E92.89709
G1 X172.28 Y144.24 E93.01906
G1 X170.92 Y143.84 E93.07800
G1 X162.69 Y141.16 E93.43781
G0 F5400 X163.58 Y141.98
G1 F1800 X164.31 Y144.19 E93.53441
G1 X164.62 Y147.00 E93.65219
G1 X164.71 Y150.20 E93.78515
G1 X164.71 Y163.47 E94.33669
G1 X164.94 Y163.29 E94.34880
G1 X167.97 Y159.91 E94.53755
G1 X170.23 Y155.98 E94.72595
G1 X171.62 Y151.67 E94.91449
G1 X172.09 Y147.16 E95.10307
G1 X171.81 Y144.62 E95.20898
G1 X170.77 Y144.32 E95.25431
G1 X163.58 Y141.98 E95.56836
G0 F5400 X170.28 Y138.62
G1 F1800 X170.19 Y138.34 E95.58044
G1 X167.91 Y134.41 E95.76912
G1 X164.87 Y131.05 E95.95770
G1 X161.20 Y128.40 E96.14601
G1 X157.05 Y126.56 E96.33470
G1 X154.55 Y126.04 E96.44059
G1 X153.94 Y126.94 E96.48587
G1 X149.50 Y133.04 E96.79953
G1 X151.83 Y133.04 E96.89607
G1 X154.59 Y133.62 E97.01357
G1 X157.66 Y134.52 E97.14660
G1 X170.28 Y138.62 E97.69813
G0 F5400 X170.65 Y138.13
G1 F1800 X168.32 Y134.12 E97.89094
G1 X165.20 Y130.68 E98.08403
G1 X161.45 Y127.96 E98.27665
G1 X157.20 Y126.08 E98.46997
G1 X154.33 Y125.48 E98.59174
G1 X153.53 Y126.65 E98.65067
G1 X148.44 Y133.65 E99.01052
G1 X148.88 Y133.56 E99.02902
G1 X149.44 Y133.54 E99.05236
G1 X151.77 Y133.54 E99.14948
G1 X154.47 Y134.10 E99.26404
G1 X157.51 Y135.00 E99.39592
G1 X171.06 Y139.40 E99.98810
G1 X170.65 Y138.13 E100.04341
G0 F5400 X171.11 Y137.93
G1 F1800 X168.72 Y133.82 E100.24069
G1 X165.54 Y130.30 E100.43814
G1 X161.69 Y127.52 E100.63531
G1 X157.36 Y125.60 E100.83254
G1 X154.11 Y124.92 E100.97059
G1 X153.12 Y126.36 E101.04313
G1 X147.27 Y134.41 E101.45717
G1 X148.94 Y134.05 E101.52825
G1 X149.44 Y134.04 E101.54934
G1 X151.72 Y134.04 E101.64405
G1 X154.35 Y134.59 E101.75560
G1 X157.37 Y135.47 E101.88635
G1 X171.84 Y140.18 E102.51915
G1 X171.11 Y137.93 E102.61750
G0 F5400 X171.57 Y137.72
G1 F1800 X169.13 Y133.52 E102.81931
G1 X165.88 Y129.93 E103.02082
G1 X161.95 Y127.09 E103.22246
G1 X157.51 Y125.13 E103.42410
G1 X153.88 Y124.36 E103.57822
G1 X152.71 Y126.07 E103.66432
G1 X146.01 Y135.29 E104.13820
G1 X146.41 Y135.11 E104.15612
G1 X149.00 Y134.55 E104.26644
G1 X149.45 Y134.54 E104.28528
G1 X151.67 Y134.54 E104.37753
G1 X154.23 Y135.07 E104.48612
G1 X157.22 Y135.95 E104.61577
G1 X172.63 Y140.96 E105.28919
G1 X171.57 Y137.72 E105.43068
G0 F5400 X172.02 Y137.51
G1 F1800 X169.54 Y133.23 E105.63663
G1 X166.21 Y129.56 E105.84261
G1 X162.20 Y126.65 E106.04860
G1 X157.66 Y124.65 E106.25465
G1 X153.66 Y123.80 E106.42487
G1 X152.30 Y125.78 E106.52456
G1 X144.50 Y136.52 E107.07636
G1 X146.56 Y135.59 E107.17033
G1 X149.06 Y135.05 E107.27655
G1 X149.46 Y135.04 E107.29315
G1 X151.62 Y135.04 E107.38299
G1 X154.11 Y135.56 E107.48860
G1 X157.07 Y136.43 E107.61709
G1 X173.41 Y141.73 E108.33111
G1 X172.02 Y137.51 E108.51578
G0 F5400 X159.44 Y158.14
G1 F1800 X157.59 Y159.49 E108.61114
G1 X157.04 Y159.76 E108.63667
G1 X154.98 Y160.68 E108.73033
G1 X151.96 Y161.75 E108.86355
G1 X139.36 Y165.85 E109.41449
G1 X139.61 Y166.03 E109.42735
G1 X143.74 Y167.86 E109.61542
G1 X143.86 Y167.88 E109.62044
G1 X148.18 Y168.79 E109.80388
G1 X148.33 Y168.79 E109.80995
