;Generated with Cura_SteamEngine 13.12
M140 S100.000000
M109 T0 S255.000000
T0
M190 S100.000000
;Sliced at: Wed 26-02-2014 22:11:00
;Basic settings: Layer height: 0.2 Walls: 1 Fill: 20
;Print time: #P_TIME#
;Filament used: #F_AMNT#m #F_WGHT#g
;Filament cost: #F_COST#
;M190 S100 ;Uncomment to add your own bed temperature line
;M109 S255 ;Uncomment to add your own temperature line
G21        ;metric values
G90        ;absolute positioning
M107       ;start with the fan off
G28 X0 Y0  ;move X/Y to min endstops
G28 Z0     ;move Z to min endstops
G1 Z15.0 F9000 ;move the platform down 15mm
G92 E0                  ;zero the extruded length
G1 F200 E3              ;extrude 3mm of feed stock
G92 E0                  ;zero the extruded length again
G1 F9000
;Put printing message on LCD screen
M117 Printing...

;Layer count: 62
;LAYER:0
M107
G0 F5400 X151.37 Y112.55 Z0.20
;TYPE:SKIRT
G1 F1200 E0.00000
G1 F1800 X171.37 Y112.55 E0.83150
G1 X171.37 Y119.32 E1.11293
G1 X169.78 Y119.96 E1.18406
G1 X167.37 Y121.28 E1.29847
G1 X165.11 Y122.93 E1.41470
G1 X163.13 Y124.78 E1.52718
G1 X161.30 Y127.03 E1.64793
G1 X159.88 Y129.26 E1.75783
G1 X158.68 Y131.86 E1.87684
G1 X157.87 Y134.38 E1.98689
G1 X157.36 Y137.05 E2.09990
G1 X157.18 Y139.81 E2.21466
G1 X157.36 Y142.58 E2.33036
G1 X157.87 Y145.24 E2.44276
G1 X158.74 Y147.90 E2.55926
G1 X159.91 Y150.40 E2.67390
G1 X161.37 Y152.69 E2.78678
G1 X163.12 Y154.81 E2.90097
G1 X165.13 Y156.70 E3.01583
G1 X167.39 Y158.33 E3.13184
G1 X169.78 Y159.65 E3.24512
G1 X171.37 Y160.27 E3.31600
G1 X171.37 Y167.05 E3.59776
G1 X151.37 Y167.05 E4.42926
G1 X151.37 Y112.55 E6.69511
G0 F5400 X151.87 Y113.05
G1 F1800 X170.87 Y113.05 E7.48504
G1 X170.87 Y118.98 E7.73162
G1 X169.57 Y119.50 E7.78948
G1 X167.09 Y120.86 E7.90722
G1 X164.79 Y122.54 E8.02553
G1 X162.77 Y124.44 E8.14097
G1 X160.89 Y126.74 E8.26450
G1 X159.45 Y129.02 E8.37655
G1 X158.21 Y131.68 E8.49868
G1 X157.38 Y134.26 E8.61104
G1 X156.86 Y136.99 E8.72664
G1 X156.68 Y139.81 E8.84407
G1 X156.87 Y142.64 E8.96226
G1 X157.38 Y145.36 E9.07741
G1 X158.27 Y148.09 E9.19663
G1 X159.48 Y150.63 E9.31367
G1 X160.96 Y152.98 E9.42900
G1 X162.76 Y155.15 E9.54620
G1 X164.82 Y157.09 E9.66379
G1 X167.12 Y158.76 E9.78196
G1 X169.57 Y160.10 E9.89808
G1 X170.87 Y160.61 E9.95609
G1 X170.87 Y166.55 E10.20292
G1 X151.87 Y166.55 E10.99285
G1 X151.87 Y113.05 E13.21712
G0 F5400 X152.37 Y113.55
G1 F1800 X170.37 Y113.55 E13.96547
G1 X170.37 Y118.64 E14.17721
G1 X169.36 Y119.05 E14.22231
G1 X166.82 Y120.44 E14.34251
G1 X164.47 Y122.16 E14.46370
G1 X162.40 Y124.10 E14.58165
G1 X160.49 Y126.44 E14.70748
G1 X159.00 Y128.79 E14.82272
G1 X157.75 Y131.50 E14.94692
G1 X156.90 Y134.14 E15.06229
G1 X156.36 Y136.93 E15.18034
G1 X156.18 Y139.81 E15.30035
G1 X156.37 Y142.71 E15.42113
G1 X156.90 Y145.49 E15.53891
G1 X157.81 Y148.27 E15.66065
G1 X159.04 Y150.88 E15.78035
G1 X160.56 Y153.28 E15.89863
G1 X162.39 Y155.49 E16.01790
G1 X164.50 Y157.47 E16.13834
G1 X166.86 Y159.18 E16.25948
G1 X169.35 Y160.55 E16.37768
G1 X170.37 Y160.95 E16.42310
G1 X170.37 Y166.05 E16.63501
G1 X152.37 Y166.05 E17.38336
G1 X152.37 Y113.55 E19.56606
G0 F5400 X152.87 Y114.05
G1 F1800 X169.87 Y114.05 E20.27284
G1 X169.87 Y118.31 E20.44970
G1 X169.14 Y118.60 E20.48227
G1 X166.56 Y120.01 E20.60459
G1 X164.15 Y121.77 E20.72856
G1 X162.04 Y123.75 E20.84906
G1 X160.07 Y126.15 E20.97791
G1 X158.56 Y128.55 E21.09568
G1 X157.28 Y131.31 E21.22221
G1 X156.41 Y134.01 E21.34008
G1 X155.87 Y136.86 E21.46101
G1 X155.68 Y139.81 E21.58364
G1 X155.87 Y142.76 E21.70684
G1 X156.41 Y145.61 E21.82740
G1 X157.34 Y148.46 E21.95173
G1 X158.60 Y151.12 E22.07423
G1 X160.15 Y153.57 E22.19458
G1 X162.02 Y155.83 E22.31693
G1 X164.18 Y157.86 E22.43978
G1 X166.59 Y159.61 E22.56366
G1 X169.14 Y161.01 E22.68444
G1 X169.87 Y161.29 E22.71702
G1 X169.87 Y165.55 E22.89405
G1 X152.87 Y165.55 E23.60083
G1 X152.87 Y114.05 E25.74195
G0 F5400 X153.37 Y114.55
G1 F1800 X169.37 Y114.55 E26.40715
G1 X169.37 Y117.97 E26.54917
G1 X168.92 Y118.14 E26.56897
G1 X166.29 Y119.59 E26.69397
G1 X163.83 Y121.38 E26.82044
G1 X161.67 Y123.41 E26.94359
G1 X159.67 Y125.86 E27.07506
G1 X158.13 Y128.30 E27.19516
G1 X156.81 Y131.13 E27.32486
G1 X155.93 Y133.88 E27.44504
G1 X155.37 Y136.80 E27.56859
G1 X155.18 Y139.81 E27.69385
G1 X155.38 Y142.83 E27.81955
G1 X155.93 Y145.75 E27.94320
G1 X155.94 Y145.76 E27.94387
G1 X156.88 Y148.65 E28.06990
G1 X158.16 Y151.36 E28.19480
G1 X159.75 Y153.87 E28.31821
G1 X159.76 Y153.88 E28.31891
G1 X161.66 Y156.18 E28.44306
G1 X161.68 Y156.19 E28.44376
G1 X163.86 Y158.24 E28.56818
G1 X166.32 Y160.03 E28.69480
G1 X168.92 Y161.46 E28.81820
G1 X169.37 Y161.63 E28.83791
G1 X169.37 Y165.05 E28.98002
G1 X153.37 Y165.05 E29.64522
G1 X153.37 Y114.55 E31.74477
G0 F5400 X154.37 Y115.55
;TYPE:WALL-INNER
G1 F1800 X168.37 Y115.55 E32.32682
G1 X168.37 Y117.31 E32.39999
G1 X165.75 Y118.75 E32.52402
G1 X163.19 Y120.61 E32.65567
G1 X160.94 Y122.73 E32.78432
G1 X158.86 Y125.27 E32.92085
G1 X157.25 Y127.82 E33.04627
G1 X155.88 Y130.77 E33.18119
G1 X154.95 Y133.64 E33.30656
G1 X154.37 Y136.68 E33.43524
G1 X154.37 Y136.81 E33.44057
G1 X154.37 Y115.55 E34.32421
G0 F5400 X157.29 Y118.48
G1 F1800 X157.03 Y118.96 E34.34676
G1 X156.93 Y119.25 E34.35949
G1 X156.88 Y119.52 E34.37079
G1 X156.86 Y119.80 E34.38258
G1 X156.88 Y120.08 E34.39433
G1 X156.93 Y120.36 E34.40606
G1 X157.02 Y120.63 E34.41790
G1 X157.14 Y120.89 E34.42969
G1 X157.29 Y121.12 E34.44135
G1 X157.47 Y121.34 E34.45307
G1 X157.68 Y121.53 E34.46478
G1 X157.91 Y121.70 E34.47653
G1 X158.16 Y121.84 E34.48838
G1 X158.42 Y121.94 E34.50018
G1 X158.69 Y122.01 E34.51182
G1 X158.97 Y122.05 E34.52359
G1 X159.26 Y122.05 E34.53540
G1 X159.56 Y122.01 E34.54814
G1 X160.05 Y121.85 E34.56965
G1 X160.32 Y121.70 E34.58245
G1 X160.55 Y121.54 E34.59415
G1 X160.76 Y121.34 E34.60588
G1 X160.94 Y121.12 E34.61766
G1 X161.09 Y120.89 E34.62942
G1 X161.21 Y120.63 E34.64119
G1 X161.30 Y120.36 E34.65294
G1 X161.35 Y120.08 E34.66471
G1 X161.37 Y119.79 E34.67683
G1 X161.35 Y119.51 E34.68862
G1 X161.29 Y119.23 E34.70036
G1 X161.20 Y118.96 E34.71214
G1 X161.08 Y118.71 E34.72387
G1 X160.92 Y118.45 E34.73660
G1 X160.54 Y118.06 E34.75910
G1 X160.10 Y117.77 E34.78121
G1 X159.81 Y117.66 E34.79396
G1 X159.54 Y117.59 E34.80575
G1 X159.26 Y117.55 E34.81753
G1 X158.97 Y117.55 E34.82954
G1 X158.68 Y117.59 E34.84140
G1 X158.41 Y117.66 E34.85319
G1 X158.15 Y117.77 E34.86493
G1 X157.90 Y117.91 E34.87673
G1 X157.66 Y118.08 E34.88910
G1 X157.29 Y118.48 E34.91190
G0 F5400 X156.91 Y119.80
G0 X154.42 Y136.68
G0 X154.23 Y139.80
G0 X154.37 Y142.70
G1 F1800 X154.38 Y142.96 E34.92281
G1 X154.96 Y146.02 E35.05244
G1 X154.99 Y146.09 E35.05556
G1 X155.94 Y149.01 E35.18326
G1 X157.28 Y151.84 E35.31340
G1 X158.95 Y154.47 E35.44265
G1 X160.95 Y156.89 E35.57319
G1 X163.22 Y159.01 E35.70252
G1 X165.79 Y160.88 E35.83435
G1 X168.37 Y162.29 E35.95669
G1 X168.37 Y164.05 E36.02982
G1 X154.37 Y164.05 E36.61187
G1 X154.37 Y142.70 E37.49963
G0 F5400 X155.04 Y146.08
G0 X158.41 Y157.66
G1 F1800 X158.15 Y157.77 E37.51136
G1 X157.90 Y157.91 E37.52316
G1 X157.66 Y158.08 E37.53554
G1 X157.29 Y158.48 E37.55833
G1 X157.03 Y158.96 E37.58088
G1 X156.93 Y159.25 E37.59361
G1 X156.88 Y159.52 E37.60491
G1 X156.86 Y159.80 E37.61671
G1 X156.88 Y160.08 E37.62845
G1 X156.93 Y160.36 E37.64018
G1 X157.02 Y160.63 E37.65202
G1 X157.14 Y160.89 E37.66381
G1 X157.29 Y161.12 E37.67548
G1 X157.47 Y161.34 E37.68720
G1 X157.68 Y161.53 E37.69890
G1 X157.91 Y161.70 E37.71065
G1 X158.16 Y161.84 E37.72251
G1 X158.42 Y161.94 E37.73430
G1 X158.69 Y162.01 E37.74594
G1 X158.97 Y162.05 E37.75772
G1 X159.26 Y162.05 E37.76952
G1 X159.56 Y162.01 E37.78227
G1 X160.05 Y161.85 E37.80378
G1 X160.32 Y161.70 E37.81658
G1 X160.55 Y161.54 E37.82827
G1 X160.76 Y161.34 E37.84000
G1 X160.94 Y161.12 E37.85179
G1 X161.09 Y160.88 E37.86354
G1 X161.21 Y160.63 E37.87531
G1 X161.30 Y160.36 E37.88706
G1 X161.35 Y160.08 E37.89883
G1 X161.37 Y159.79 E37.91095
G1 X161.35 Y159.51 E37.92275
G1 X161.29 Y159.23 E37.93448
G1 X161.20 Y158.96 E37.94626
G1 X161.08 Y158.71 E37.95800
G1 X160.92 Y158.45 E37.97073
G1 X160.54 Y158.06 E37.99322
G1 X160.10 Y157.77 E38.01533
G1 X159.81 Y157.66 E38.02808
G1 X159.54 Y157.59 E38.03988
G1 X159.26 Y157.55 E38.05165
G1 X158.97 Y157.55 E38.06367
G1 X158.68 Y157.59 E38.07553
G1 X158.41 Y157.66 E38.08732
G0 F5400 X158.57 Y158.14
;TYPE:WALL-OUTER
G1 F1800 X158.36 Y158.22 E38.09646
G1 X158.17 Y158.33 E38.10560
G1 X157.99 Y158.46 E38.11476
G1 X157.69 Y158.78 E38.13297
G1 X157.49 Y159.16 E38.15089
G1 X157.42 Y159.37 E38.16039
G1 X157.38 Y159.58 E38.16915
G1 X157.36 Y159.80 E38.17832
G1 X157.38 Y160.02 E38.18744
G1 X157.42 Y160.24 E38.19658
G1 X157.49 Y160.45 E38.20576
G1 X157.70 Y160.83 E38.22396
G1 X157.84 Y161.00 E38.23308
G1 X158.00 Y161.15 E38.24223
G1 X158.18 Y161.28 E38.25134
G1 X158.37 Y161.38 E38.26055
G1 X158.57 Y161.47 E38.26970
G1 X158.79 Y161.52 E38.27880
G1 X159.01 Y161.55 E38.28794
G1 X159.22 Y161.55 E38.29709
G1 X159.45 Y161.52 E38.30656
G1 X159.85 Y161.39 E38.32418
G1 X160.05 Y161.28 E38.33367
G1 X160.23 Y161.15 E38.34277
G1 X160.39 Y161.00 E38.35189
G1 X160.53 Y160.83 E38.36107
G1 X160.65 Y160.64 E38.37017
G1 X160.74 Y160.44 E38.37932
G1 X160.81 Y160.24 E38.38846
G1 X160.85 Y160.02 E38.39760
G1 X160.87 Y159.79 E38.40706
G1 X160.85 Y159.57 E38.41623
G1 X160.81 Y159.36 E38.42534
G1 X160.74 Y159.15 E38.43449
G1 X160.65 Y158.95 E38.44364
G1 X160.52 Y158.76 E38.45306
G1 X160.22 Y158.45 E38.47103
G1 X159.87 Y158.22 E38.48861
G1 X159.44 Y158.08 E38.50719
G1 X159.22 Y158.05 E38.51637
G1 X159.00 Y158.05 E38.52576
G1 X158.78 Y158.08 E38.53494
G1 X158.57 Y158.14 E38.54410
G0 F5400 X158.48 Y157.80
G0 X161.08 Y156.80
G0 X161.31 Y156.53
G1 F1800 X163.54 Y158.63 E38.67134
G1 X166.05 Y160.45 E38.80055
G1 X168.71 Y161.91 E38.92655
G1 X168.87 Y161.97 E38.93348
G1 X168.87 Y164.55 E39.04066
G1 X153.87 Y164.55 E39.66429
G1 X153.87 Y115.05 E41.72226
G1 X168.87 Y115.05 E42.34588
G1 X168.87 Y117.63 E42.45307
G1 X168.71 Y117.69 E42.45997
G1 X166.02 Y119.17 E42.58767
G1 X163.51 Y121.00 E42.71669
G1 X161.30 Y123.07 E42.84270
G1 X159.26 Y125.57 E42.97657
G1 X157.69 Y128.06 E43.09940
G1 X156.35 Y130.95 E43.23169
G1 X155.44 Y133.76 E43.35450
G1 X154.87 Y136.74 E43.48060
G1 X154.68 Y139.80 E43.60811
G1 X154.88 Y142.90 E43.73709
G1 X155.46 Y145.93 E43.86530
G1 X156.41 Y148.83 E43.99225
G1 X157.72 Y151.60 E44.11983
G1 X159.35 Y154.17 E44.24612
G1 X161.31 Y156.53 E44.37383
G0 F5400 X161.08 Y156.80
G0 X158.99 Y154.44
G0 X155.99 Y148.99
G0 X155.01 Y146.01
G0 X154.23 Y139.80
G0 X155.00 Y133.65
G0 X157.29 Y127.85
G0 X159.22 Y121.90
G0 X159.22 Y121.55
G1 F1800 X159.45 Y121.52 E44.38331
G1 X159.85 Y121.39 E44.40092
G1 X160.05 Y121.28 E44.41041
G1 X160.23 Y121.15 E44.41952
G1 X160.39 Y121.00 E44.42864
G1 X160.53 Y120.83 E44.43782
G1 X160.65 Y120.64 E44.44692
G1 X160.74 Y120.44 E44.45607
G1 X160.81 Y120.24 E44.46521
G1 X160.85 Y120.02 E44.47435
G1 X160.87 Y119.79 E44.48380
G1 X160.85 Y119.57 E44.49297
G1 X160.81 Y119.36 E44.50208
G1 X160.74 Y119.15 E44.51123
G1 X160.65 Y118.95 E44.52038
G1 X160.52 Y118.76 E44.52980
G1 X160.22 Y118.45 E44.54777
G1 X159.87 Y118.22 E44.56536
G1 X159.44 Y118.08 E44.58394
G1 X159.22 Y118.05 E44.59311
G1 X159.00 Y118.05 E44.60251
G1 X158.78 Y118.08 E44.61169
G1 X158.57 Y118.14 E44.62084
G1 X158.36 Y118.22 E44.62998
G1 X158.17 Y118.33 E44.63912
G1 X157.99 Y118.46 E44.64829
G1 X157.69 Y118.78 E44.66650
G1 X157.49 Y119.16 E44.68441
G1 X157.42 Y119.37 E44.69392
G1 X157.38 Y119.58 E44.70268
G1 X157.36 Y119.80 E44.71185
G1 X157.38 Y120.02 E44.72097
G1 X157.42 Y120.24 E44.73011
G1 X157.49 Y120.45 E44.73929
G1 X157.70 Y120.83 E44.75749
G1 X157.84 Y121.00 E44.76661
G1 X158.00 Y121.15 E44.77576
G1 X158.18 Y121.28 E44.78486
G1 X158.37 Y121.39 E44.79408
G1 X158.57 Y121.47 E44.80322
G1 X158.79 Y121.52 E44.81233
G1 X159.01 Y121.55 E44.82147
G1 X159.22 Y121.55 E44.83061
G0 F5400 X159.33 Y122.21
;TYPE:FILL
G1 F2520 X160.33 Y123.21 E44.88965
G0 F5400 X160.01 Y123.60
G1 F2520 X158.57 Y122.15 E44.97472
G0 F5400 X159.90 Y122.07
G1 F2520 X160.65 Y122.82 E45.01876
G0 F5400 X160.99 Y122.45
G1 F2520 X160.59 Y121.70 E45.05400
G1 X161.54 Y121.94 E45.08736
G1 X161.11 Y121.16 E45.12435
G0 F5400 X161.36 Y120.70
G1 F2520 X162.08 Y121.42 E45.16703
G0 F5400 X162.45 Y121.08
G1 F2520 X161.51 Y120.14 E45.22239
G0 F5400 X161.50 Y119.42
G1 F2520 X162.81 Y120.74 E45.29971
G0 F5400 X163.19 Y120.41
G1 F2520 X158.50 Y115.72 E45.57564
G0 F5400 X157.79 Y115.72
G1 F2520 X159.49 Y117.42 E45.67559
G0 F5400 X158.78 Y117.41
G1 F2520 X157.08 Y115.72 E45.77525
G0 F5400 X156.37 Y115.72
G1 F2520 X158.22 Y117.56 E45.88373
G0 F5400 X157.76 Y117.81
G1 F2520 X155.67 Y115.72 E46.00658
G0 F5400 X154.96 Y115.72
G1 F2520 X157.38 Y118.14 E46.14896
G0 F5400 X157.07 Y118.53
G1 F2520 X154.53 Y115.99 E46.29842
G0 F5400 X154.53 Y116.70
G1 F2520 X156.84 Y119.01 E46.43412
G0 F5400 X156.71 Y119.59
G1 F2520 X154.53 Y117.41 E46.56247
G0 F5400 X154.53 Y118.11
G1 F2520 X156.76 Y120.35 E46.69394
G0 F5400 X154.53 Y120.23
G1 F2520 X159.06 Y124.77 E46.96037
G0 F5400 X159.38 Y124.38
G1 F2520 X154.53 Y119.53 E47.24551
G0 F5400 X154.53 Y118.82
G1 F2520 X159.69 Y123.99 E47.54928
G0 F5400 X158.74 Y125.15
G1 F2520 X154.53 Y120.94 E47.79698
G0 F5400 X154.53 Y121.65
G1 F2520 X158.46 Y125.58 E48.02841
G0 F5400 X158.19 Y126.02
G1 F2520 X154.53 Y122.36 E48.24375
G0 F5400 X154.53 Y123.06
G1 F2520 X157.92 Y126.45 E48.44295
G0 F5400 X157.64 Y126.88
G1 F2520 X154.53 Y123.77 E48.62607
G0 F5400 X154.53 Y124.48
G1 F2520 X157.37 Y127.32 E48.79311
G0 F5400 X157.10 Y127.75
G1 F2520 X154.53 Y125.18 E48.94401
G0 F5400 X154.53 Y125.89
G1 F2520 X156.87 Y128.23 E49.08180
G0 F5400 X156.65 Y128.72
G1 F2520 X154.53 Y126.60 E49.20642
G0 F5400 X154.53 Y127.31
G1 F2520 X156.42 Y129.20 E49.31789
G0 F5400 X156.20 Y129.68
G1 F2520 X154.53 Y128.01 E49.41620
G0 F5400 X154.53 Y128.72
G1 F2520 X155.98 Y130.17 E49.50134
G0 F5400 X155.75 Y130.65
G1 F2520 X154.53 Y129.43 E49.57330
G0 F5400 X154.53 Y130.13
G1 F2520 X155.57 Y131.18 E49.63478
G0 F5400 X155.40 Y131.71
G1 F2520 X154.53 Y130.84 E49.68611
G0 F5400 X154.53 Y131.55
G1 F2520 X155.14 Y132.51 E49.72725
G1 X154.53 Y132.61 E49.75818
G1 X154.71 Y133.49 E49.77902
G1 X154.74 Y133.88 E49.79517
G0 F5400 X154.34 Y137.02
G1 F2520 X154.35 Y137.38 E49.80938
G1 X154.33 Y138.07 E49.83464
G1 X154.31 Y138.75 E49.85747
G1 X154.29 Y139.44 E49.87785
G1 X154.27 Y140.13 E49.89669
G1 X154.30 Y140.86 E49.91840
G1 X154.32 Y141.60 E49.94306
G1 X154.58 Y142.21 E49.97069
G0 F5400 X154.53 Y145.69
G1 F2520 X154.65 Y146.17 E49.98552
G1 X155.10 Y146.97 E50.02373
G0 F5400 X154.53 Y147.10
G1 F2520 X155.45 Y148.02 E50.07768
G0 F5400 X154.53 Y147.81
G1 F2520 X155.79 Y149.07 E50.15179
G0 F5400 X154.53 Y149.22
G1 F2520 X157.06 Y151.75 E50.30040
G0 F5400 X156.42 Y150.41
G1 F2520 X154.53 Y148.52 E50.41170
G0 F5400 X154.53 Y149.93
G1 F2520 X158.20 Y153.61 E50.62783
G0 F5400 X154.53 Y153.47
G1 F2520 X158.52 Y157.46 E50.86264
G0 F5400 X158.01 Y157.65
G1 F2520 X154.53 Y154.18 E51.06719
G0 F5400 X154.53 Y154.88
G1 F2520 X157.58 Y157.93 E51.24657
G0 F5400 X157.23 Y158.29
G1 F2520 X154.53 Y155.59 E51.40562
G0 F5400 X154.53 Y156.30
G1 F2520 X156.96 Y158.73 E51.54864
G0 F5400 X156.77 Y159.24
G1 F2520 X154.53 Y157.00 E51.68023
G0 F5400 X154.53 Y157.71
G1 F2520 X156.70 Y159.88 E51.80799
G0 F5400 X156.93 Y160.82
G1 F2520 X154.53 Y158.42 E51.94910
G0 F5400 X154.53 Y159.13
G1 F2520 X159.29 Y163.88 E52.22897
G0 F5400 X158.58 Y163.88
G1 F2520 X154.53 Y159.83 E52.46724
G0 F5400 X154.53 Y160.54
G1 F2520 X157.88 Y163.88 E52.66394
G0 F5400 X157.17 Y163.88
G1 F2520 X154.53 Y161.25 E52.81905
G0 F5400 X154.53 Y161.95
G1 F2520 X156.46 Y163.88 E52.93258
G0 F5400 X155.75 Y163.88
G1 F2520 X154.53 Y162.66 E53.00455
G0 F5400 X154.53 Y163.37
G1 F2520 X155.05 Y163.88 E53.03495
G0 F5400 X158.11 Y162.00
G1 F2520 X160.00 Y163.88 E53.14607
G0 F5400 X160.70 Y163.88
G1 F2520 X159.03 Y162.21 E53.24444
G0 F5400 X159.67 Y162.15
G1 F2520 X161.41 Y163.88 E53.34671
G0 F5400 X162.12 Y163.88
G1 F2520 X160.19 Y161.96 E53.45993
G0 F5400 X160.62 Y161.68
G1 F2520 X162.82 Y163.88 E53.58931
G0 F5400 X163.53 Y163.88
G1 F2520 X160.98 Y161.33 E53.73941
