;Generated with Cura_SteamEngine 13.12
M140 S100.000000
M109 T0 S255.000000
T0
M190 S100.000000
;Sliced at: Thu 27-02-2014 04:18:48
;Basic settings: Layer height: 0.2 Walls: 1 Fill: 20
;Print time: #P_TIME#
;Filament used: #F_AMNT#m #F_WGHT#g
;Filament cost: #F_COST#
;M190 S100 ;Uncomment to add your own bed temperature line
;M109 S255 ;Uncomment to add your own temperature line
G21        ;metric values
G90        ;absolute positioning
M107       ;start with the fan off
G28 X0 Y0  ;move X/Y to min endstops
G28 Z0     ;move Z to min endstops
G1 Z15.0 F9000 ;move the platform down 15mm
G92 E0                  ;zero the extruded length
G1 F200 E3              ;extrude 3mm of feed stock
G92 E0                  ;zero the extruded length again
G1 F9000
;Put printing message on LCD screen
M117 Printing...

;Layer count: 100
;LAYER:0
M107
G0 F5400 X103.15 Y107.35 Z0.20
;TYPE:SKIRT
G1 F1200 E0.00000
G1 F1800 X157.65 Y107.35 E2.26585
G1 X157.65 Y161.85 E4.53169
G1 X103.15 Y161.85 E6.79754
G1 X103.15 Y107.35 E9.06339
G0 F5400 X103.65 Y107.85
G1 F1800 X157.15 Y107.85 E11.28766
G1 X157.15 Y161.35 E13.51193
G1 X103.65 Y161.35 E15.73620
G1 X103.65 Y107.85 E17.96047
G0 F5400 X104.15 Y108.35
G1 F1800 X156.65 Y108.35 E20.14317
G1 X156.65 Y160.85 E22.32587
G1 X104.15 Y160.85 E24.50856
G1 X104.15 Y108.35 E26.69126
G0 F5400 X104.65 Y108.85
G1 F1800 X156.15 Y108.85 E28.83238
G1 X156.15 Y160.35 E30.97350
G1 X104.65 Y160.35 E33.11462
G1 X104.65 Y108.85 E35.25574
G0 F5400 X105.15 Y109.35
G1 F1800 X155.65 Y109.35 E37.35529
G1 X155.65 Y159.85 E39.45484
G1 X105.15 Y159.85 E41.55438
G1 X105.15 Y109.35 E43.65393
G0 F5400 X115.16 Y117.71
G1 F1800 X111.98 Y121.25 E43.85156
G1 X109.61 Y125.37 E44.04938
G1 X108.47 Y128.88 E44.20289
G1 X126.62 Y122.94 E44.99707
G1 X129.09 Y122.41 E45.10191
G1 X131.65 Y122.41 E45.20839
G1 X134.16 Y122.94 E45.31486
G1 X136.24 Y123.86 E45.40973
G1 X127.63 Y112.06 E46.01735
G1 X123.35 Y112.97 E46.19934
G1 X119.00 Y114.91 E46.39714
G1 X118.99 Y114.92 E46.39776
G1 X115.16 Y117.71 E46.59485
G0 F5400 X115.49 Y118.08
G1 F1800 X112.39 Y121.54 E46.78816
G1 X110.07 Y125.57 E46.98138
G1 X109.25 Y128.10 E47.09202
G1 X126.49 Y122.46 E47.84640
G1 X129.04 Y121.91 E47.95456
G1 X131.70 Y121.91 E48.06536
G1 X134.31 Y122.46 E48.17625
G1 X134.74 Y122.65 E48.19558
G1 X127.41 Y112.61 E48.71200
G1 X123.50 Y113.45 E48.87822
G1 X119.25 Y115.35 E49.07183
G1 X115.49 Y118.08 E49.26512
G0 F5400 X115.83 Y118.46
G1 F1800 X112.79 Y121.84 E49.45406
G1 X110.53 Y125.78 E49.64305
G1 X110.03 Y127.32 E49.71057
G1 X126.36 Y121.97 E50.42527
G1 X128.98 Y121.41 E50.53666
G1 X131.75 Y121.41 E50.65187
G1 X133.48 Y121.77 E50.72515
G1 X127.20 Y113.17 E51.16790
G1 X123.66 Y113.93 E51.31853
G1 X119.50 Y115.78 E51.50767
G1 X115.83 Y118.46 E51.69658
G0 F5400 X116.17 Y118.83
G1 F1800 X113.20 Y122.13 E51.88126
G1 X110.99 Y125.98 E52.06581
G1 X110.80 Y126.54 E52.09024
G1 X126.23 Y121.49 E52.76518
G1 X128.93 Y120.91 E52.87984
G1 X131.81 Y120.91 E52.99937
G1 X132.31 Y121.01 E53.02070
G1 X126.99 Y113.72 E53.39582
G1 X123.82 Y114.40 E53.53071
G1 X119.76 Y116.22 E53.71554
G1 X116.17 Y118.83 E53.90004
G0 F5400 X116.51 Y119.20
G1 F1800 X113.61 Y122.43 E54.08027
G1 X111.71 Y125.72 E54.23803
G1 X126.10 Y121.01 E54.86744
G1 X128.88 Y120.41 E54.98541
G1 X131.25 Y120.41 E55.08394
G1 X126.78 Y114.28 E55.39925
G1 X123.97 Y114.88 E55.51858
G1 X120.01 Y116.65 E55.69881
G1 X116.51 Y119.20 E55.87914
G0 F5400 X121.02 Y126.07
G1 F1800 X108.10 Y130.26 E56.44360
G1 X107.65 Y134.62 E56.62571
G1 X108.15 Y139.35 E56.82338
G1 X108.20 Y139.50 E56.82985
G1 X109.63 Y143.87 E57.02118
G1 X112.01 Y147.99 E57.21876
G1 X115.20 Y151.52 E57.41655
G1 X118.19 Y153.68 E57.57010
G1 X118.15 Y134.58 E58.36427
G1 X118.41 Y132.05 E58.47020
G1 X119.20 Y129.61 E58.57669
G1 X120.47 Y127.42 E58.68209
G1 X121.97 Y125.74 E58.77556
G1 X121.02 Y126.07 E58.81754
G0 F5400 X120.34 Y126.82
G1 F1800 X108.57 Y130.64 E59.33196
G1 X108.15 Y134.62 E59.49837
G1 X108.65 Y139.25 E59.69182
G1 X108.68 Y139.34 E59.69601
G1 X110.09 Y143.66 E59.88497
G1 X112.42 Y147.69 E60.07848
G1 X115.53 Y151.14 E60.27179
G1 X117.69 Y152.70 E60.38233
G1 X117.65 Y134.56 E61.13675
G1 X117.92 Y131.94 E61.24602
G1 X118.75 Y129.41 E61.35684
G1 X120.06 Y127.12 E61.46660
G1 X120.34 Y126.82 E61.48365
G0 F5400 X119.13 Y127.73
G1 F1800 X109.03 Y131.01 E61.92526
G1 X108.66 Y134.62 E62.07590
G1 X109.14 Y139.14 E62.26488
G1 X109.15 Y139.19 E62.26702
G1 X109.15 Y139.19 E62.26706
G1 X110.54 Y143.46 E62.45379
G1 X112.83 Y147.40 E62.64299
G1 X115.87 Y150.77 E62.83180
G1 X117.18 Y151.72 E62.89941
G1 X117.15 Y134.53 E63.61409
G1 X117.43 Y131.84 E63.72663
G1 X118.29 Y129.20 E63.84185
G1 X119.13 Y127.73 E63.91246
G0 F5400 X118.05 Y128.61
G1 F1800 X109.50 Y131.39 E64.28643
G1 X109.16 Y134.62 E64.42157
G1 X109.63 Y139.03 E64.60598
G1 X111.01 Y143.26 E64.79069
G1 X113.23 Y147.10 E64.97531
G1 X116.20 Y150.39 E65.15979
G1 X116.68 Y150.74 E65.18438
G1 X116.65 Y134.51 E65.85936
G1 X116.94 Y131.73 E65.97520
G1 X117.83 Y129.00 E66.09475
G1 X118.05 Y128.61 E66.11347
G0 F5400 X117.16 Y129.42
G1 F1800 X109.96 Y131.76 E66.42839
G1 X109.66 Y134.62 E66.54777
G1 X110.12 Y138.93 E66.72793
G1 X111.46 Y143.05 E66.90814
G1 X113.64 Y146.80 E67.08844
G1 X116.18 Y149.62 E67.24619
G1 X116.15 Y134.48 E67.87564
G1 X116.45 Y131.63 E67.99478
G1 X117.16 Y129.42 E68.09125
G0 F5400 X119.36 Y139.84
G1 F1800 X119.39 Y154.46 E68.69896
G1 X123.39 Y156.24 E68.88110
G1 X123.54 Y156.27 E68.88751
G1 X128.05 Y157.22 E69.07886
G1 X132.80 Y157.21 E69.27647
G1 X132.95 Y157.18 E69.28297
G1 X132.95 Y157.18 E69.28301
G1 X137.45 Y156.22 E69.47416
G1 X141.79 Y154.28 E69.67192
G1 X144.78 Y152.10 E69.82554
G1 X126.64 Y146.25 E70.61789
G1 X126.62 Y146.25 E70.61895
G1 X124.27 Y145.21 E70.72567
G1 X122.22 Y143.72 E70.83124
G1 X122.18 Y143.68 E70.83324
G1 X120.52 Y141.84 E70.93645
G1 X120.49 Y141.80 E70.93842
G1 X119.36 Y139.84 E71.03250
G0 F5400 X119.86 Y141.72
G1 F1800 X119.89 Y154.13 E71.54874
G1 X123.55 Y155.76 E71.71528
G1 X123.65 Y155.78 E71.71944
G1 X128.10 Y156.72 E71.90858
G1 X132.75 Y156.71 E72.10199
G1 X132.85 Y156.69 E72.10628
G1 X137.29 Y155.74 E72.29505
G1 X141.54 Y153.84 E72.48866
G1 X143.69 Y152.28 E72.59909
G1 X126.52 Y146.74 E73.34903
G1 X126.47 Y146.73 E73.35123
G1 X124.02 Y145.64 E73.46278
G1 X121.87 Y144.08 E73.57306
G1 X121.80 Y144.00 E73.57757
G1 X120.15 Y142.17 E73.68010
G1 X120.09 Y142.11 E73.68374
G1 X119.86 Y141.72 E73.70261
G0 F5400 X120.36 Y143.15
G1 F1800 X120.39 Y153.81 E74.14551
G1 X123.71 Y155.28 E74.29644
G1 X123.75 Y155.29 E74.29835
G1 X128.15 Y156.22 E74.48528
G1 X132.69 Y156.21 E74.67428
G1 X132.75 Y156.20 E74.67653
G1 X132.75 Y156.20 E74.67658
G1 X137.14 Y155.26 E74.86323
G1 X141.29 Y153.41 E75.05205
G1 X142.60 Y152.45 E75.11969
G1 X126.40 Y147.23 E75.82726
G1 X126.33 Y147.22 E75.83050
G1 X123.77 Y146.08 E75.94688
G1 X121.53 Y144.45 E76.06185
G1 X121.44 Y144.34 E76.06784
G1 X120.36 Y143.15 E76.13443
G0 F5400 X120.87 Y144.46
G1 F1800 X120.89 Y153.48 E76.50964
G1 X123.86 Y154.80 E76.64492
G1 X128.20 Y155.72 E76.82930
G1 X132.65 Y155.71 E77.01410
G1 X132.65 Y155.71 E77.01414
G1 X136.98 Y154.79 E77.19840
G1 X141.04 Y152.97 E77.38313
G1 X141.51 Y152.63 E77.40762
G1 X126.29 Y147.72 E78.07273
G1 X126.18 Y147.70 E78.07724
G1 X123.52 Y146.51 E78.19844
G1 X121.19 Y144.82 E78.31810
G1 X121.05 Y144.66 E78.32686
G1 X120.87 Y144.46 E78.33831
G0 F5400 X121.37 Y145.57
G1 F1800 X121.39 Y153.16 E78.65362
G1 X124.01 Y154.32 E78.77311
G1 X128.25 Y155.22 E78.95321
G1 X132.59 Y155.21 E79.13369
G1 X136.83 Y154.31 E79.31370
G1 X140.29 Y152.76 E79.47156
G1 X126.17 Y148.20 E80.08861
G1 X126.04 Y148.18 E80.09418
G1 X123.27 Y146.95 E80.22020
G1 X121.37 Y145.57 E80.31764
G0 F5400 X138.04 Y146.57
G1 F1800 X145.27 Y148.90 E80.63311
G1 X147.19 Y146.76 E80.75258
G1 X149.35 Y143.01 E80.93268
G1 X150.68 Y138.88 E81.11315
G1 X151.13 Y134.57 E81.29322
G1 X150.74 Y130.84 E81.44896
G1 X141.84 Y143.09 E82.07843
G1 X141.75 Y143.18 E82.08378
G1 X139.92 Y145.22 E82.19760
G1 X139.70 Y145.36 E82.20823
G1 X138.04 Y146.57 E82.29360
G0 F5400 X137.29 Y146.50
G1 F1800 X136.84 Y146.71 E82.31423
G1 X145.42 Y149.47 E82.68929
G1 X147.59 Y147.06 E82.82431
G1 X149.81 Y143.21 E83.00896
G1 X151.18 Y138.99 E83.19350
G1 X151.63 Y134.57 E83.37817
G1 X151.16 Y130.16 E83.56259
G1 X151.00 Y129.63 E83.58541
G1 X141.46 Y142.77 E84.26024
G1 X141.39 Y142.83 E84.26397
G1 X139.59 Y144.84 E84.37612
G1 X139.43 Y144.95 E84.38437
G1 X137.29 Y146.50 E84.49424
G0 F5400 X137.04 Y146.07
G1 F1800 X135.44 Y146.78 E84.56695
G1 X145.58 Y150.05 E85.00976
G1 X148.00 Y147.35 E85.16049
G1 X150.27 Y143.41 E85.34942
G1 X151.67 Y139.09 E85.53842
G1 X152.14 Y134.57 E85.72723
G1 X151.66 Y130.05 E85.91617
G1 X151.16 Y128.54 E85.98227
G1 X150.90 Y128.91 E86.00106
G1 X141.07 Y142.44 E86.69640
G1 X141.02 Y142.50 E86.69954
G1 X139.26 Y144.46 E86.80898
G1 X139.14 Y144.54 E86.81515
G1 X137.04 Y146.07 E86.92329
G0 F5400 X136.79 Y145.63
G1 F1800 X134.34 Y146.72 E87.03466
G1 X133.92 Y146.82 E87.05264
G1 X145.73 Y150.63 E87.56880
G1 X148.41 Y147.65 E87.73522
G1 X150.73 Y143.62 E87.92842
G1 X152.16 Y139.19 E88.12196
G1 X152.64 Y134.57 E88.31515
G1 X152.15 Y129.94 E88.50853
G1 X151.33 Y127.44 E88.61814
G1 X150.50 Y128.62 E88.67828
G1 X140.69 Y142.12 E89.37186
G1 X140.66 Y142.15 E89.37377
G1 X138.94 Y144.07 E89.48112
G1 X138.85 Y144.13 E89.48527
G1 X136.79 Y145.63 E89.59166
G0 F5400 X136.53 Y145.20
G1 F1800 X134.18 Y146.25 E89.69865
G1 X131.98 Y146.72 E89.79226
G1 X145.89 Y151.20 E90.39975
G1 X148.81 Y147.94 E90.58175
G1 X151.19 Y143.82 E90.77951
G1 X152.65 Y139.30 E90.97716
G1 X153.14 Y134.57 E91.17483
G1 X152.64 Y129.84 E91.37254
G1 X151.50 Y126.33 E91.52584
G1 X150.09 Y128.33 E91.62731
G1 X140.31 Y141.79 E92.31907
G1 X140.29 Y141.81 E92.32037
G1 X138.61 Y143.69 E92.42504
G1 X138.57 Y143.71 E92.42679
G1 X136.53 Y145.20 E92.53180
G0 F5400 X144.14 Y131.00
G1 F1800 X148.59 Y124.87 E92.84663
G1 X147.16 Y122.39 E92.96585
G1 X144.26 Y119.17 E93.14597
G1 X140.75 Y116.63 E93.32622
G1 X136.78 Y114.87 E93.50675
G1 X133.07 Y114.08 E93.66440
G1 X141.98 Y126.30 E94.29327
G1 X143.43 Y128.79 E94.41290
G1 X144.14 Y131.00 E94.50940
G0 F5400 X143.85 Y131.71
G1 F1800 X143.90 Y132.18 E94.52930
G1 X149.19 Y124.90 E94.90339
G1 X147.56 Y122.09 E95.03864
G1 X144.59 Y118.80 E95.22280
G1 X141.00 Y116.19 E95.40740
G1 X136.93 Y114.39 E95.59230
G1 X132.60 Y113.47 E95.77664
G1 X132.00 Y113.47 E95.80125
G1 X141.56 Y126.57 E96.47556
G1 X142.97 Y129.00 E96.59193
G1 X143.85 Y131.71 E96.71048
G0 F5400 X143.36 Y131.81
G1 F1800 X143.54 Y133.53 E96.78227
G1 X149.79 Y124.93 E97.22396
G1 X147.97 Y121.79 E97.37479
G1 X144.93 Y118.42 E97.56342
G1 X141.25 Y115.76 E97.75240
G1 X137.09 Y113.91 E97.94156
G1 X132.65 Y112.97 E98.13045
G1 X131.02 Y112.97 E98.19801
G1 X141.14 Y126.85 E98.91210
G1 X142.51 Y129.20 E99.02515
G1 X143.36 Y131.81 E99.13932
G0 F5400 X142.87 Y131.92
G1 F1800 X143.14 Y134.51 E99.24795
G1 X143.15 Y134.62 E99.25232
G1 X143.11 Y134.97 E99.26696
G1 X150.38 Y124.96 E99.78115
G1 X148.38 Y121.50 E99.94759
G1 X145.26 Y118.05 E100.14076
G1 X141.50 Y115.32 E100.33393
G1 X137.25 Y113.43 E100.52750
G1 X132.70 Y112.47 E100.72077
G1 X130.04 Y112.47 E100.83136
G1 X140.72 Y127.12 E101.58518
G1 X142.05 Y129.41 E101.69497
G1 X142.87 Y131.92 E101.80477
G0 F5400 X142.38 Y132.02
G1 F1800 X142.65 Y134.55 E101.91051
G1 X142.65 Y134.60 E101.91267
G1 X142.42 Y136.80 E102.00469
G1 X143.00 Y135.98 E102.04681
G1 X150.98 Y124.99 E102.61113
G1 X148.78 Y121.20 E102.79319
G1 X145.60 Y117.67 E102.99084
G1 X141.75 Y114.89 E103.18842
G1 X137.40 Y112.96 E103.38627
G1 X132.75 Y111.97 E103.58400
G1 X129.05 Y111.97 E103.73762
G1 X140.31 Y127.39 E104.53121
G1 X141.59 Y129.61 E104.63772
G1 X142.38 Y132.02 E104.74315
G0 F5400 X141.39 Y132.23
;TYPE:WALL-INNER
G1 F1800 X141.64 Y134.59 E104.84166
G1 X141.40 Y136.93 E104.93965
G1 X140.89 Y138.49 E105.00760
G1 X141.32 Y138.70 E105.02749
G1 X139.54 Y141.15 E105.15343
G1 X137.94 Y142.93 E105.25289
G1 X136.03 Y144.33 E105.35130
G1 X133.87 Y145.29 E105.44954
G1 X131.59 Y145.78 E105.54638
G1 X129.94 Y145.78 E105.61506
G1 X129.87 Y146.24 E105.63455
G1 X126.94 Y145.30 E105.76263
G1 X124.77 Y144.33 E105.86116
G1 X122.90 Y142.97 E105.95759
G1 X121.30 Y141.20 E106.05676
G1 X120.13 Y139.18 E106.15404
G1 X119.62 Y137.62 E106.22209
G1 X119.15 Y137.69 E106.24159
G1 X119.15 Y134.63 E106.36881
G1 X119.40 Y132.26 E106.46826
G1 X120.12 Y130.02 E106.56592
G1 X121.28 Y128.01 E106.66260
G1 X122.87 Y126.24 E106.76105
G1 X124.19 Y125.28 E106.82929
G1 X123.98 Y124.86 E106.84891
G1 X126.89 Y123.91 E106.97634
G1 X129.19 Y123.41 E107.07438
G1 X131.55 Y123.41 E107.17216
G1 X133.85 Y123.89 E107.26989
G1 X136.02 Y124.86 E107.36872
G1 X137.34 Y125.81 E107.43638
G1 X137.67 Y125.48 E107.45593
G1 X139.46 Y127.94 E107.58244
G1 X140.67 Y130.02 E107.68257
G1 X141.39 Y132.23 E107.77926
G1 F1200 E105.27926
G0 F5400 X153.62 Y129.63
G1 F1200 E107.77926
G1 F1800 X152.15 Y125.11 E107.97693
G1 X152.13 Y125.11 E107.97773
G1 X152.17 Y125.06 E107.98029
G1 X149.60 Y120.61 E108.19380
G1 X146.27 Y116.93 E108.40009
G1 X142.25 Y114.01 E108.60654
G1 X137.71 Y112.00 E108.81307
G1 X132.85 Y110.97 E109.01942
G1 X128.10 Y110.98 E109.21703
G1 X128.09 Y111.00 E109.21792
G1 X128.05 Y110.94 E109.22069
G1 X123.03 Y112.01 E109.43407
G1 X118.50 Y114.04 E109.64046
G1 X114.48 Y116.96 E109.84702
G1 X111.17 Y120.66 E110.05345
G1 X108.69 Y124.96 E110.25987
G1 X107.22 Y129.48 E110.45739
G1 X107.24 Y129.49 E110.45821
G1 X107.18 Y129.51 E110.46096
G1 X106.65 Y134.62 E110.67451
G1 X107.17 Y139.56 E110.88092
G1 X108.71 Y144.28 E111.08735
G1 X111.20 Y148.58 E111.29384
G1 X114.53 Y152.26 E111.50028
G1 X118.37 Y155.05 E111.69777
G1 X118.39 Y155.04 E111.69866
G1 X118.39 Y155.11 E111.70145
G1 X123.08 Y157.19 E111.91497
G1 X127.94 Y158.22 E112.12136
G1 X132.91 Y158.21 E112.32774
G1 X137.76 Y157.18 E112.53423
G1 X142.30 Y155.15 E112.74068
G1 X146.14 Y152.35 E112.93816
G1 X146.13 Y152.33 E112.93917
G1 X146.20 Y152.35 E112.94205
G1 X149.63 Y148.53 E113.15549
G1 X152.10 Y144.23 E113.36186
G1 X153.63 Y139.51 E113.56834
G1 X154.15 Y134.57 E113.77470
G1 X153.62 Y129.63 E113.98116
G0 F5400 X150.70 Y117.03
G1 F1800 X151.19 Y116.91 E114.00221
G1 X151.62 Y116.72 E114.02177
G1 X152.04 Y116.42 E114.04311
G1 X152.38 Y116.04 E114.06439
G1 X152.64 Y115.59 E114.08579
G1 X152.80 Y115.11 E114.10707
G1 X152.85 Y114.60 E114.12839
G1 X152.80 Y114.08 E114.14976
G1 X152.64 Y113.60 E114.17103
G1 X152.38 Y113.15 E114.19244
G1 X152.04 Y112.77 E114.21372
G1 X151.62 Y112.47 E114.23506
G1 X151.15 Y112.26 E114.25643
G1 X150.65 Y112.15 E114.27772
G1 X150.14 Y112.15 E114.29905
G1 X149.64 Y112.26 E114.32039
G1 X149.17 Y112.47 E114.34168
G1 X148.76 Y112.77 E114.36300
G1 X148.41 Y113.15 E114.38437
G1 X148.16 Y113.60 E114.40571
G1 X148.00 Y114.08 E114.42701
G1 X147.94 Y114.60 E114.44867
G1 X148.01 Y115.15 E114.47142
G1 X148.16 Y115.60 E114.49122
G1 X148.44 Y116.07 E114.51398
G1 X148.76 Y116.42 E114.53394
G1 X149.21 Y116.74 E114.55670
G1 X149.64 Y116.93 E114.57622
G1 X150.15 Y117.04 E114.59785
G1 X150.70 Y117.03 E114.62089
G0 F5400 X152.34 Y116.01
G0 X152.80 Y114.60
G0 X154.65 Y110.35
G1 F1800 X154.65 Y158.85 E116.63729
G1 X106.15 Y158.85 E118.65368
G1 X106.15 Y110.35 E120.67008
G1 X154.65 Y110.35 E122.68647
G0 F5400 X154.10 Y134.57
G0 X153.58 Y139.49
G0 X152.06 Y144.21
G0 X150.65 Y152.15
G1 F1800 X150.14 Y152.15 E122.70780
G1 X149.64 Y152.26 E122.72914
G1 X149.17 Y152.47 E122.75043
G1 X148.76 Y152.77 E122.77175
G1 X148.41 Y153.15 E122.79312
G1 X148.16 Y153.60 E122.81446
G1 X148.00 Y154.08 E122.83576
G1 X147.94 Y154.60 E122.85741
G1 X148.01 Y155.15 E122.88017
G1 X148.16 Y155.60 E122.89997
G1 X148.44 Y156.07 E122.92273
G1 X148.76 Y156.42 E122.94269
G1 X149.21 Y156.74 E122.96544
G1 X149.64 Y156.93 E122.98497
G1 X150.15 Y157.04 E123.00660
G1 X150.70 Y157.03 E123.02964
G1 X151.19 Y156.91 E123.05068
G1 X151.62 Y156.72 E123.07025
G1 X152.04 Y156.42 E123.09158
G1 X152.38 Y156.04 E123.11287
G1 X152.64 Y155.59 E123.13427
G1 X152.80 Y155.10 E123.15554
G1 X152.85 Y154.60 E123.17687
G1 X152.80 Y154.08 E123.19823
G1 X152.64 Y153.60 E123.21951
G1 X152.38 Y153.15 E123.24091
G1 X152.04 Y152.77 E123.26219
