;Generated with Cura_SteamEngine 13.12
M140 S100.000000
M109 T0 S255.000000
T0
M190 S100.000000
;Sliced at: Wed 26-02-2014 20:46:02
;Basic settings: Layer height: 0.2 Walls: 1 Fill: 20
;Print time: #P_TIME#
;Filament used: #F_AMNT#m #F_WGHT#g
;Filament cost: #F_COST#
;M190 S100 ;Uncomment to add your own bed temperature line
;M109 S255 ;Uncomment to add your own temperature line
G21        ;metric values
G90        ;absolute positioning
M107       ;start with the fan off
G28 X0 Y0  ;move X/Y to min endstops
G28 Z0     ;move Z to min endstops
G1 Z15.0 F9000 ;move the platform down 15mm
G92 E0                  ;zero the extruded length
G1 F200 E3              ;extrude 3mm of feed stock
G92 E0                  ;zero the extruded length again
G1 F9000
;Put printing message on LCD screen
M117 Printing...

;Layer count: 250
;LAYER:0
M107
G0 F5400 X119.39 Y115.17 Z0.20
;TYPE:SKIRT
G1 F1200 E0.00000
G1 F1800 X173.89 Y115.17 E2.26585
G1 X173.89 Y169.67 E4.53169
G1 X119.39 Y169.67 E6.79754
G1 X119.39 Y115.17 E9.06339
G0 F5400 X119.89 Y115.67
G1 F1800 X173.39 Y115.67 E11.28766
G1 X173.39 Y169.17 E13.51193
G1 X119.89 Y169.17 E15.73620
G1 X119.89 Y115.67 E17.96047
G0 F5400 X120.39 Y116.17
G1 F1800 X172.89 Y116.17 E20.14317
G1 X172.89 Y168.67 E22.32587
G1 X120.39 Y168.67 E24.50856
G1 X120.39 Y116.17 E26.69126
G0 F5400 X120.89 Y116.67
G1 F1800 X172.39 Y116.67 E28.83238
G1 X172.39 Y168.17 E30.97350
G1 X120.89 Y168.17 E33.11462
G1 X120.89 Y116.67 E35.25574
G0 F5400 X121.39 Y117.17
G1 F1800 X171.89 Y117.17 E37.35529
G1 X171.89 Y167.67 E39.45484
G1 X121.39 Y167.67 E41.55438
G1 X121.39 Y117.17 E43.65393
G0 F5400 X129.36 Y126.19
G1 F1800 X127.46 Y128.49 E43.77783
G1 X125.86 Y131.00 E43.90170
G1 X124.60 Y133.69 E44.02518
G1 X123.67 Y136.53 E44.14912
G1 X123.11 Y139.45 E44.27301
G1 X122.93 Y142.42 E44.39677
G1 X123.11 Y145.40 E44.52058
G1 X123.67 Y148.32 E44.64447
G1 X124.60 Y151.16 E44.76836
G1 X125.86 Y153.84 E44.89183
G1 X127.46 Y156.36 E45.01570
G1 X129.36 Y158.66 E45.13964
G1 X131.53 Y160.69 E45.26335
G1 X133.94 Y162.44 E45.38717
G1 X136.54 Y163.88 E45.51100
G1 X139.31 Y164.97 E45.63464
G1 X142.20 Y165.71 E45.75852
G1 X145.15 Y166.09 E45.88232
G1 X148.13 Y166.09 E46.00617
G1 X151.08 Y165.71 E46.12993
G1 X153.97 Y164.97 E46.25384
G1 X156.73 Y163.88 E46.37745
G1 X159.34 Y162.44 E46.50128
G1 X161.75 Y160.69 E46.62510
G1 X163.92 Y158.66 E46.74881
G1 X165.82 Y156.36 E46.87277
G1 X167.42 Y153.84 E46.99665
G1 X168.68 Y151.16 E47.12012
G1 X169.60 Y148.32 E47.24400
G1 X170.16 Y145.39 E47.36794
G1 X170.35 Y142.42 E47.49170
G1 X170.16 Y139.45 E47.61550
G1 X169.60 Y136.53 E47.73935
G1 X168.68 Y133.69 E47.86327
G1 X167.42 Y131.00 E47.98674
G1 X165.82 Y128.49 E48.11062
G1 X163.92 Y126.19 E48.23454
G1 X161.75 Y124.15 E48.35825
G1 X159.34 Y122.40 E48.48210
G1 X156.73 Y120.97 E48.60593
G1 X153.97 Y119.87 E48.72952
G1 X151.08 Y119.13 E48.85345
G1 X148.13 Y118.76 E48.97724
G1 X145.15 Y118.76 E49.10113
G1 X142.20 Y119.13 E49.22484
G1 X139.31 Y119.87 E49.34873
G1 X136.54 Y120.97 E49.47235
G1 X133.94 Y122.40 E49.59618
G1 X131.53 Y124.15 E49.72003
G1 X129.36 Y126.19 E49.84374
G0 F5400 X129.72 Y126.54
G1 F1800 X127.86 Y128.78 E49.96499
G1 X126.30 Y131.24 E50.08600
G1 X125.06 Y133.88 E50.20741
G1 X124.16 Y136.65 E50.32833
G1 X123.61 Y139.51 E50.44964
G1 X123.43 Y142.42 E50.57082
G1 X123.61 Y145.33 E50.69204
G1 X124.16 Y148.20 E50.81335
G1 X125.06 Y150.96 E50.93423
G1 X126.30 Y153.61 E51.05564
G1 X127.86 Y156.06 E51.17665
G1 X129.72 Y158.31 E51.29769
G1 X131.85 Y160.31 E51.41919
G1 X134.21 Y162.02 E51.54046
G1 X136.76 Y163.42 E51.66144
G1 X139.47 Y164.50 E51.78271
G1 X142.29 Y165.22 E51.90366
G1 X145.18 Y165.59 E52.02499
G1 X148.10 Y165.59 E52.14618
G1 X150.99 Y165.22 E52.26747
G1 X153.81 Y164.50 E52.38846
G1 X156.52 Y163.42 E52.50969
G1 X159.07 Y162.02 E52.63068
G1 X161.43 Y160.31 E52.75194
G1 X163.56 Y158.31 E52.87344
G1 X165.42 Y156.06 E52.99451
G1 X166.98 Y153.61 E53.11552
G1 X168.22 Y150.96 E53.23691
G1 X169.12 Y148.20 E53.35779
G1 X169.67 Y145.33 E53.47915
G1 X169.85 Y142.42 E53.60032
G1 X169.67 Y139.51 E53.72155
G1 X169.12 Y136.65 E53.84281
G1 X168.22 Y133.88 E53.96373
G1 X166.98 Y131.24 E54.08512
G1 X165.42 Y128.78 E54.20613
G1 X163.56 Y126.54 E54.32741
G1 X161.44 Y124.54 E54.44847
G1 X159.07 Y122.82 E54.56997
G1 X156.52 Y121.42 E54.69095
G1 X153.81 Y120.35 E54.81209
G1 X150.99 Y119.62 E54.93327
G1 X148.10 Y119.26 E55.05445
G1 X145.18 Y119.26 E55.17573
G1 X142.29 Y119.62 E55.29688
G1 X139.47 Y120.35 E55.41801
G1 X136.76 Y121.42 E55.53919
G1 X134.21 Y122.82 E55.66018
G1 X131.84 Y124.54 E55.78167
G1 X129.72 Y126.54 E55.90273
G0 F5400 X130.09 Y126.88
G1 F1800 X128.27 Y129.07 E56.02108
G1 X126.74 Y131.49 E56.14008
G1 X125.53 Y134.06 E56.25818
G1 X124.64 Y136.78 E56.37705
G1 X124.11 Y139.58 E56.49552
G1 X123.93 Y142.42 E56.61403
G1 X124.11 Y145.27 E56.73276
G1 X124.64 Y148.07 E56.85110
G1 X125.53 Y150.79 E56.96997
G1 X126.74 Y153.36 E57.08807
G1 X128.27 Y155.77 E57.20706
G1 X130.09 Y157.97 E57.32541
G1 X132.16 Y159.92 E57.44409
G1 X134.47 Y161.60 E57.56268
G1 X136.97 Y162.97 E57.68111
G1 X139.62 Y164.02 E57.79955
G1 X142.39 Y164.73 E57.91845
G1 X145.21 Y165.09 E58.03684
G1 X148.07 Y165.09 E58.15545
G1 X150.89 Y164.73 E58.27380
G1 X153.66 Y164.02 E58.39274
G1 X156.31 Y162.97 E58.51114
G1 X158.81 Y161.60 E58.62958
G1 X161.11 Y159.92 E58.74816
G1 X163.19 Y157.97 E58.86684
G1 X165.01 Y155.77 E58.98522
G1 X166.54 Y153.36 E59.10421
G1 X167.75 Y150.78 E59.22244
G1 X168.63 Y148.07 E59.34099
G1 X169.17 Y145.27 E59.45964
G1 X169.35 Y142.42 E59.57819
G1 X169.17 Y139.57 E59.69687
G1 X168.63 Y136.78 E59.81530
G1 X167.75 Y134.06 E59.93399
G1 X166.54 Y131.49 E60.05218
G1 X165.01 Y129.07 E60.17117
G1 X163.19 Y126.88 E60.28955
G1 X161.11 Y124.93 E60.40820
G1 X158.80 Y123.25 E60.52684
G1 X156.31 Y121.88 E60.64522
G1 X153.66 Y120.83 E60.76362
G1 X150.89 Y120.12 E60.88257
G1 X148.07 Y119.76 E61.00095
G1 X145.21 Y119.76 E61.11961
G1 X142.39 Y120.12 E61.23791
G1 X139.62 Y120.83 E61.35682
G1 X136.97 Y121.88 E61.47525
G1 X134.47 Y123.25 E61.59363
G1 X132.16 Y124.93 E61.71228
G1 X130.09 Y126.88 E61.83093
G0 F5400 X130.45 Y127.22
G1 F1800 X128.67 Y129.37 E61.94680
G1 X127.18 Y131.73 E62.06287
G1 X125.99 Y134.25 E62.17859
G1 X125.13 Y136.90 E62.29453
G1 X124.61 Y139.64 E62.41055
G1 X124.43 Y142.42 E62.52648
G1 X124.61 Y145.21 E62.64262
G1 X125.13 Y147.95 E62.75851
G1 X125.99 Y150.60 E62.87444
G1 X127.18 Y153.12 E62.99016
G1 X128.67 Y155.48 E63.10624
G1 X130.45 Y157.63 E63.22238
G1 X132.48 Y159.53 E63.33811
G1 X134.74 Y161.18 E63.45420
G1 X137.18 Y162.52 E63.56997
G1 X139.78 Y163.54 E63.68600
G1 X142.48 Y164.24 E63.80202
G1 X145.25 Y164.59 E63.91794
G1 X148.04 Y164.59 E64.03393
G1 X150.80 Y164.24 E64.14977
G1 X153.50 Y163.54 E64.26570
G1 X156.10 Y162.51 E64.38193
G1 X158.54 Y161.18 E64.49759
G1 X160.80 Y159.53 E64.61367
G1 X162.82 Y157.63 E64.72941
G1 X164.61 Y155.48 E64.84557
G1 X166.10 Y153.12 E64.96165
G1 X167.29 Y150.60 E65.07735
G1 X168.15 Y147.95 E65.19329
G1 X168.67 Y145.21 E65.30927
G1 X168.85 Y142.42 E65.42528
G1 X168.67 Y139.64 E65.54138
G1 X168.15 Y136.90 E65.65723
G1 X167.29 Y134.25 E65.77320
G1 X166.10 Y131.73 E65.88890
G1 X164.61 Y129.37 E66.00498
G1 X162.83 Y127.22 E66.12088
G1 X160.79 Y125.31 E66.23688
G1 X158.53 Y123.67 E66.35320
G1 X156.10 Y122.33 E66.46873
G1 X153.50 Y121.30 E66.58470
G1 X150.80 Y120.61 E66.70082
G1 X148.04 Y120.26 E66.81660
G1 X145.24 Y120.26 E66.93276
G1 X142.48 Y120.61 E67.04838
G1 X139.77 Y121.30 E67.16463
G1 X137.18 Y122.33 E67.28055
G1 X134.75 Y123.67 E67.39608
G1 X132.48 Y125.31 E67.51240
G1 X130.45 Y127.22 E67.62840
G0 F5400 X130.82 Y127.56
G1 F1800 X129.08 Y129.67 E67.74194
G1 X127.62 Y131.96 E67.85508
G1 X126.46 Y134.43 E67.96844
G1 X125.61 Y137.03 E68.08202
G1 X125.10 Y139.70 E68.19508
G1 X124.93 Y142.42 E68.30851
G1 X125.10 Y145.15 E68.42199
G1 X125.61 Y147.82 E68.53504
G1 X126.46 Y150.41 E68.64858
G1 X127.62 Y152.88 E68.76194
G1 X129.08 Y155.18 E68.87509
G1 X130.81 Y157.28 E68.98839
G1 X132.81 Y159.15 E69.10219
G1 X135.00 Y160.75 E69.21488
G1 X137.40 Y162.07 E69.32864
G1 X139.93 Y163.07 E69.44196
G1 X142.57 Y163.75 E69.55510
G1 X145.28 Y164.09 E69.66850
G1 X148.00 Y164.09 E69.78188
G1 X150.71 Y163.75 E69.89524
G1 X153.34 Y163.07 E70.00829
G1 X155.88 Y162.06 E70.12180
G1 X158.28 Y160.75 E70.23547
G1 X160.47 Y159.15 E70.34816
G1 X162.47 Y157.28 E70.46201
G1 X164.20 Y155.18 E70.57525
G1 X165.66 Y152.88 E70.68843
G1 X166.82 Y150.41 E70.80188
G1 X167.66 Y147.82 E70.91524
G1 X168.18 Y145.15 E71.02843
G1 X168.35 Y142.42 E71.14185
G1 X168.18 Y139.70 E71.25533
G1 X167.66 Y137.03 E71.36846
G1 X166.82 Y134.43 E71.48182
G1 X165.66 Y131.96 E71.59527
G1 X164.20 Y129.66 E71.70845
G1 X162.46 Y127.56 E71.82193
G1 X160.48 Y125.70 E71.93508
G1 X158.27 Y124.10 E72.04845
G1 X155.88 Y122.78 E72.16199
G1 X153.35 Y121.78 E72.27516
G1 X150.71 Y121.10 E72.38858
G1 X148.00 Y120.76 E72.50176
G1 X145.27 Y120.76 E72.61530
G1 X142.57 Y121.10 E72.72845
G1 X139.93 Y121.78 E72.84182
G1 X137.40 Y122.78 E72.95503
G1 X135.01 Y124.10 E73.06857
G1 X132.80 Y125.70 E73.18194
G1 X130.82 Y127.56 E73.29503
G1 F1200 E70.79503
G0 F5400 X128.62 Y125.51
;TYPE:WALL-INNER
G1 F1200 E73.29503
G1 F1800 X126.65 Y127.90 E73.42402
G1 X124.98 Y130.52 E73.55307
G1 X123.66 Y133.32 E73.68205
G1 X122.70 Y136.28 E73.81114
G1 X122.39 Y137.91 E73.88043
G1 X122.39 Y118.17 E74.70121
G1 X141.91 Y118.17 E75.51288
G1 X139.00 Y118.92 E75.63775
G1 X136.12 Y120.06 E75.76679
G1 X133.40 Y121.56 E75.89585
G1 X130.89 Y123.38 E76.02484
G1 X128.62 Y125.51 E76.15391
G0 F5400 X127.85 Y124.33
G1 F1800 X128.07 Y124.16 E76.16569
G1 X128.28 Y123.97 E76.17743
G1 X128.46 Y123.75 E76.18921
G1 X128.61 Y123.51 E76.20102
G1 X128.73 Y123.25 E76.21277
G1 X128.82 Y122.98 E76.22453
G1 X128.87 Y122.70 E76.23629
G1 X128.89 Y122.41 E76.24841
G1 X128.87 Y122.13 E76.26021
G1 X128.82 Y121.85 E76.27194
G1 X128.73 Y121.58 E76.28368
G1 X128.61 Y121.33 E76.29542
G1 X128.46 Y121.09 E76.30707
G1 X128.26 Y120.86 E76.31991
G1 X127.84 Y120.51 E76.34243
G1 X127.36 Y120.29 E76.36452
G1 X127.06 Y120.21 E76.37723
G1 X126.78 Y120.18 E76.38901
G1 X126.47 Y120.18 E76.40214
G1 X125.96 Y120.28 E76.42376
G1 X125.65 Y120.40 E76.43742
G1 X125.22 Y120.67 E76.45865
G1 X124.99 Y120.89 E76.47174
G1 X124.80 Y121.13 E76.48450
G1 X124.55 Y121.58 E76.50601
G1 X124.46 Y121.87 E76.51866
G1 X124.41 Y122.14 E76.53000
G1 X124.39 Y122.42 E76.54175
G1 X124.40 Y122.69 E76.55312
G1 X124.46 Y122.98 E76.56522
G1 X124.55 Y123.25 E76.57705
G1 X124.67 Y123.51 E76.58888
G1 X124.82 Y123.75 E76.60060
G1 X125.00 Y123.96 E76.61232
G1 X125.20 Y124.16 E76.62403
G1 X125.45 Y124.34 E76.63679
G1 X125.92 Y124.56 E76.65838
G1 X126.22 Y124.64 E76.67113
G1 X126.50 Y124.67 E76.68290
G1 X126.78 Y124.67 E76.69454
G1 X127.08 Y124.63 E76.70732
G1 X127.58 Y124.47 E76.72889
G1 X127.85 Y124.33 E76.74158
G0 F5400 X123.71 Y133.35
G0 X122.17 Y139.33
G0 X122.17 Y145.51
G0 X122.39 Y146.93
G1 F1800 X122.70 Y148.57 E76.81099
G1 X123.66 Y151.52 E76.94005
G1 X124.98 Y154.33 E77.06903
G1 X126.65 Y156.95 E77.19808
G1 X128.62 Y159.34 E77.32706
G1 X130.89 Y161.47 E77.45615
G1 X133.40 Y163.29 E77.58513
G1 X136.12 Y164.78 E77.71419
G1 X139.00 Y165.93 E77.84324
G1 X141.91 Y166.67 E77.96809
G1 X122.39 Y166.67 E78.77977
G1 X122.39 Y146.93 E79.60063
G0 F5400 X125.96 Y160.28
G1 F1800 X125.65 Y160.40 E79.61428
G1 X125.22 Y160.67 E79.63552
G1 X124.99 Y160.89 E79.64860
G1 X124.80 Y161.13 E79.66137
G1 X124.55 Y161.58 E79.68288
G1 X124.46 Y161.87 E79.69553
G1 X124.41 Y162.14 E79.70687
G1 X124.39 Y162.42 E79.71862
G1 X124.40 Y162.69 E79.72999
G1 X124.46 Y162.98 E79.74209
G1 X124.55 Y163.25 E79.75392
G1 X124.67 Y163.51 E79.76575
G1 X124.82 Y163.75 E79.77747
G1 X125.00 Y163.96 E79.78919
G1 X125.20 Y164.16 E79.80089
G1 X125.45 Y164.34 E79.81366
G1 X125.92 Y164.56 E79.83525
G1 X126.22 Y164.63 E79.84800
G1 X126.50 Y164.67 E79.85977
G1 X126.78 Y164.67 E79.87141
G1 X127.08 Y164.63 E79.88418
G1 X127.58 Y164.47 E79.90576
G1 X127.85 Y164.32 E79.91845
G1 X128.07 Y164.16 E79.93023
G1 X128.28 Y163.97 E79.94197
G1 X128.46 Y163.75 E79.95375
G1 X128.61 Y163.51 E79.96556
G1 X128.73 Y163.25 E79.97731
G1 X128.82 Y162.98 E79.98907
G1 X128.87 Y162.70 E80.00083
G1 X128.89 Y162.41 E80.01295
G1 X128.87 Y162.13 E80.02475
G1 X128.82 Y161.85 E80.03648
G1 X128.73 Y161.59 E80.04822
G1 X128.61 Y161.33 E80.05996
G1 X128.46 Y161.09 E80.07160
G1 X128.26 Y160.86 E80.08445
G1 X127.84 Y160.51 E80.10697
G1 X127.36 Y160.29 E80.12906
G1 X127.06 Y160.21 E80.14177
G1 X126.78 Y160.18 E80.15355
G1 X126.47 Y160.18 E80.16668
G1 X125.96 Y160.28 E80.18830
G1 F1200 E77.68830
G0 F5400 X151.37 Y166.67
G1 F1200 E80.18830
G1 F1800 X154.28 Y165.93 E80.31315
G1 X157.16 Y164.78 E80.44217
G1 X159.88 Y163.29 E80.57123
G1 X162.39 Y161.47 E80.70020
G1 X164.65 Y159.34 E80.82929
G1 X166.63 Y156.95 E80.95830
G1 X168.30 Y154.33 E81.08735
G1 X169.62 Y151.52 E81.21633
G1 X170.58 Y148.57 E81.34538
G1 X170.89 Y146.93 E81.41467
G1 X170.89 Y166.67 E82.23540
G1 X151.37 Y166.67 E83.04703
G0 F5400 X164.46 Y162.98
G1 F1800 X164.54 Y163.25 E83.05883
G1 X164.67 Y163.51 E83.07065
G1 X164.82 Y163.75 E83.08237
G1 X165.00 Y163.96 E83.09409
G1 X165.20 Y164.16 E83.10580
G1 X165.45 Y164.34 E83.11856
G1 X165.92 Y164.56 E83.14016
G1 X166.22 Y164.63 E83.15290
G1 X166.50 Y164.67 E83.16468
G1 X166.78 Y164.67 E83.17632
G1 X167.08 Y164.63 E83.18909
G1 X167.58 Y164.47 E83.21067
G1 X167.85 Y164.32 E83.22335
G1 X168.07 Y164.16 E83.23514
G1 X168.28 Y163.97 E83.24687
G1 X168.46 Y163.75 E83.25865
G1 X168.61 Y163.51 E83.27046
G1 X168.73 Y163.25 E83.28222
G1 X168.82 Y162.98 E83.29397
G1 X168.87 Y162.70 E83.30574
G1 X168.89 Y162.41 E83.31786
G1 X168.87 Y162.13 E83.32966
G1 X168.82 Y161.85 E83.34139
G1 X168.73 Y161.59 E83.35313
G1 X168.61 Y161.33 E83.36486
G1 X168.46 Y161.09 E83.37651
G1 X168.26 Y160.86 E83.38936
G1 X167.84 Y160.51 E83.41188
G1 X167.36 Y160.29 E83.43397
G1 X167.06 Y160.21 E83.44668
G1 X166.78 Y160.18 E83.45845
G1 X166.47 Y160.18 E83.47159
G1 X165.96 Y160.28 E83.49321
G1 X165.65 Y160.40 E83.50686
G1 X165.22 Y160.67 E83.52810
G1 X164.99 Y160.89 E83.54118
G1 X164.80 Y161.13 E83.55395
G1 X164.55 Y161.58 E83.57546
G1 X164.46 Y161.87 E83.58811
G1 X164.41 Y162.14 E83.59945
G1 X164.39 Y162.42 E83.61124
G1 X164.41 Y162.71 E83.62299
G1 X164.46 Y162.98 E83.63471
G0 F5400 X164.66 Y159.12
G0 X166.59 Y156.92
G0 X169.57 Y151.50
G0 X171.11 Y145.51
G0 X171.11 Y139.33
G0 X169.57 Y133.35
G0 X166.59 Y127.93
G0 X166.50 Y124.67
G1 F1800 X166.78 Y124.67 E83.64635
G1 X167.08 Y124.63 E83.65913
G1 X167.58 Y124.47 E83.68070
G1 X167.85 Y124.33 E83.69339
G1 X168.07 Y124.16 E83.70517
G1 X168.28 Y123.97 E83.71691
G1 X168.46 Y123.75 E83.72869
G1 X168.61 Y123.51 E83.74050
G1 X168.73 Y123.25 E83.75226
G1 X168.82 Y122.98 E83.76401
G1 X168.87 Y122.70 E83.77578
G1 X168.89 Y122.41 E83.78790
G1 X168.87 Y122.13 E83.79969
G1 X168.82 Y121.85 E83.81143
G1 X168.73 Y121.58 E83.82317
G1 X168.61 Y121.33 E83.83490
G1 X168.46 Y121.09 E83.84655
G1 X168.26 Y120.86 E83.85939
G1 X167.84 Y120.51 E83.88191
G1 X167.36 Y120.29 E83.90401
G1 X167.06 Y120.21 E83.91671
G1 X166.78 Y120.18 E83.92849
G1 X166.47 Y120.18 E83.94163
G1 X165.96 Y120.28 E83.96324
G1 X165.65 Y120.40 E83.97690
G1 X165.22 Y120.67 E83.99813
G1 X164.99 Y120.89 E84.01122
G1 X164.80 Y121.13 E84.02399
G1 X164.55 Y121.58 E84.04549
G1 X164.46 Y121.87 E84.05814
G1 X164.41 Y122.14 E84.06948
G1 X164.39 Y122.42 E84.08123
G1 X164.40 Y122.69 E84.09260
G1 X164.46 Y122.98 E84.10470
G1 X164.54 Y123.25 E84.11654
G1 X164.67 Y123.51 E84.12836
G1 X164.82 Y123.75 E84.14008
G1 X165.00 Y123.96 E84.15180
G1 X165.20 Y124.16 E84.16351
G1 X165.45 Y124.34 E84.17627
G1 X165.92 Y124.56 E84.19787
G1 X166.22 Y124.64 E84.21061
G1 X166.50 Y124.67 E84.22239
G0 F5400 X164.65 Y125.51
G1 F1800 X162.39 Y123.38 E84.35142
G1 X159.88 Y121.56 E84.48042
G1 X157.16 Y120.06 E84.60948
G1 X154.28 Y118.92 E84.73848
G1 X151.37 Y118.17 E84.86338
G1 X170.89 Y118.17 E85.67506
G1 X170.89 Y137.92 E86.49592
G1 X170.58 Y136.28 E86.56529
G1 X169.62 Y133.32 E86.69437
G1 X168.30 Y130.52 E86.82335
G1 X166.63 Y127.90 E86.95240
G1 X164.65 Y125.51 E87.08144
G0 F5400 X164.29 Y125.85
;TYPE:WALL-OUTER
