;Generated with Cura_SteamEngine 13.12
M140 S100.000000
M109 T0 S255.000000
T0
M190 S100.000000
;Sliced at: Wed 26-02-2014 22:55:09
;Basic settings: Layer height: 0.2 Walls: 1 Fill: 20
;Print time: #P_TIME#
;Filament used: #F_AMNT#m #F_WGHT#g
;Filament cost: #F_COST#
;M190 S100 ;Uncomment to add your own bed temperature line
;M109 S255 ;Uncomment to add your own temperature line
G21        ;metric values
G90        ;absolute positioning
M107       ;start with the fan off
G28 X0 Y0  ;move X/Y to min endstops
G28 Z0     ;move Z to min endstops
G1 Z15.0 F9000 ;move the platform down 15mm
G92 E0                  ;zero the extruded length
G1 F200 E3              ;extrude 3mm of feed stock
G92 E0                  ;zero the extruded length again
G1 F9000
;Put printing message on LCD screen
M117 Printing...

;Layer count: 11
;LAYER:0
M107
G0 F5400 X130.79 Y130.76 Z0.20
;TYPE:SKIRT
G1 F1200 E0.00000
G1 F1800 X185.29 Y130.76 E2.26585
G1 X185.29 Y185.26 E4.53169
G1 X130.79 Y185.26 E6.79754
G1 X130.79 Y130.76 E9.06339
G0 F5400 X131.29 Y131.26
G1 F1800 X184.79 Y131.26 E11.28766
G1 X184.79 Y184.76 E13.51193
G1 X131.29 Y184.76 E15.73620
G1 X131.29 Y131.26 E17.96047
G0 F5400 X131.79 Y131.76
G1 F1800 X184.29 Y131.76 E20.14317
G1 X184.29 Y184.26 E22.32587
G1 X131.79 Y184.26 E24.50856
G1 X131.79 Y131.76 E26.69126
G0 F5400 X132.29 Y132.26
G1 F1800 X183.79 Y132.26 E28.83238
G1 X183.79 Y183.76 E30.97350
G1 X132.29 Y183.76 E33.11462
G1 X132.29 Y132.26 E35.25574
G0 F5400 X132.79 Y132.76
G1 F1800 X183.29 Y132.76 E37.35529
G1 X183.29 Y183.26 E39.45484
G1 X132.79 Y183.26 E41.55438
G1 X132.79 Y132.76 E43.65393
G0 F5400 X140.75 Y141.94
G1 F1800 X138.94 Y144.13 E43.77232
G1 X137.29 Y146.75 E43.90083
G1 X136.09 Y149.32 E44.01876
G1 X135.17 Y152.14 E44.14210
G1 X134.62 Y155.06 E44.26548
G1 X134.43 Y158.02 E44.38904
G1 X134.63 Y161.08 E44.51663
G1 X135.17 Y163.89 E44.63557
G1 X136.13 Y166.81 E44.76327
G1 X137.35 Y169.39 E44.88183
G1 X138.94 Y171.89 E45.00503
G1 X140.83 Y174.18 E45.12849
G1 X142.99 Y176.21 E45.25164
G1 X145.38 Y177.95 E45.37470
G1 X148.10 Y179.43 E45.50349
G1 X150.74 Y180.47 E45.62139
G1 X153.62 Y181.21 E45.74476
G1 X156.56 Y181.58 E45.86804
G1 X159.53 Y181.58 E45.99139
G1 X162.46 Y181.21 E46.11451
G1 X165.45 Y180.43 E46.24296
G1 X168.09 Y179.38 E46.36108
G1 X170.69 Y177.96 E46.48419
G1 X173.18 Y176.13 E46.61283
G1 X175.25 Y174.18 E46.73086
G1 X177.14 Y171.90 E46.85418
G1 X178.79 Y169.28 E46.98269
G1 X179.99 Y166.71 E47.10062
G1 X180.91 Y163.89 E47.22393
G1 X181.47 Y160.97 E47.34736
G1 X181.65 Y158.01 E47.47091
G1 X181.45 Y154.95 E47.59850
G1 X180.91 Y152.14 E47.71740
G1 X179.95 Y149.22 E47.84516
G1 X178.73 Y146.64 E47.96372
G1 X177.14 Y144.14 E48.08692
G1 X175.25 Y141.85 E48.21036
G1 X173.09 Y139.82 E48.33348
G1 X170.70 Y138.08 E48.45655
G1 X167.98 Y136.60 E48.58502
G1 X165.33 Y135.56 E48.70361
G1 X162.47 Y134.82 E48.82660
G1 X159.52 Y134.45 E48.94992
G1 X159.42 Y134.45 E48.95424
G1 X156.44 Y134.46 E49.07810
G1 X153.62 Y134.82 E49.19631
G1 X150.63 Y135.60 E49.32480
G1 X147.99 Y136.65 E49.44288
G1 X145.39 Y138.07 E49.56598
G1 X142.90 Y139.91 E49.69465
G1 X140.75 Y141.94 E49.81757
G0 F5400 X141.12 Y142.28
G1 F1800 X139.34 Y144.43 E49.93340
G1 X137.74 Y146.99 E50.05892
G1 X136.55 Y149.51 E50.17486
G1 X135.66 Y152.26 E50.29520
G1 X135.11 Y155.12 E50.41604
G1 X134.93 Y158.02 E50.53693
G1 X135.13 Y161.02 E50.66198
G1 X135.66 Y163.77 E50.77817
G1 X136.60 Y166.62 E50.90324
G1 X137.79 Y169.15 E51.01956
G1 X139.34 Y171.60 E51.13990
G1 X141.19 Y173.83 E51.26047
G1 X143.31 Y175.82 E51.38141
G1 X145.66 Y177.53 E51.50187
G1 X148.32 Y178.97 E51.62776
G1 X150.90 Y180.00 E51.74338
G1 X153.71 Y180.72 E51.86382
G1 X156.59 Y181.08 E51.98463
G1 X159.49 Y181.08 E52.10537
G1 X162.37 Y180.72 E52.22568
G1 X165.29 Y179.95 E52.35159
G1 X167.88 Y178.93 E52.46739
G1 X170.42 Y177.53 E52.58761
G1 X172.86 Y175.74 E52.71363
G1 X174.89 Y173.84 E52.82916
G1 X176.74 Y171.60 E52.94985
G1 X178.34 Y169.04 E53.07537
G1 X179.53 Y166.52 E53.19135
G1 X180.43 Y163.77 E53.31167
G1 X180.97 Y160.91 E53.43251
G1 X181.15 Y158.01 E53.55339
G1 X180.95 Y155.01 E53.67844
G1 X180.43 Y152.26 E53.79459
G1 X179.48 Y149.41 E53.91972
G1 X178.29 Y146.88 E54.03603
G1 X176.74 Y144.43 E54.15637
G1 X174.89 Y142.19 E54.27715
G1 X172.78 Y140.21 E54.39762
G1 X170.43 Y138.50 E54.51834
G1 X167.77 Y137.06 E54.64386
G1 X165.18 Y136.03 E54.76005
G1 X162.37 Y135.31 E54.88034
G1 X159.49 Y134.95 E55.00114
G1 X159.42 Y134.95 E55.00413
G1 X156.47 Y134.96 E55.12662
G1 X153.72 Y135.31 E55.24206
G1 X150.78 Y136.08 E55.36815
G1 X148.20 Y137.10 E55.48363
G1 X145.66 Y138.50 E55.60398
G1 X143.22 Y140.29 E55.72997
G1 X141.12 Y142.28 E55.85040
G0 F5400 X141.49 Y142.62
G1 F1800 X139.75 Y144.73 E55.96377
G1 X138.18 Y147.23 E56.08652
G1 X137.02 Y149.69 E56.19973
G1 X136.14 Y152.39 E56.31784
G1 X135.61 Y155.18 E56.43580
G1 X135.43 Y158.01 E56.55394
G1 X135.63 Y160.96 E56.67661
G1 X136.14 Y163.64 E56.79010
G1 X137.07 Y166.44 E56.91267
G1 X138.23 Y168.91 E57.02621
G1 X139.75 Y171.30 E57.14402
G1 X141.56 Y173.49 E57.26216
G1 X143.63 Y175.44 E57.38049
G1 X145.92 Y177.10 E57.49788
G1 X148.53 Y178.52 E57.62134
G1 X151.05 Y179.52 E57.73418
G1 X153.81 Y180.23 E57.85260
G1 X156.62 Y180.58 E57.97040
G1 X159.46 Y180.58 E58.08856
G1 X162.28 Y180.23 E58.20652
G1 X165.13 Y179.48 E58.32922
G1 X167.67 Y178.47 E58.44278
G1 X170.15 Y177.11 E58.56048
G1 X172.54 Y175.36 E58.68345
G1 X174.52 Y173.49 E58.79674
G1 X176.33 Y171.31 E58.91480
G1 X177.90 Y168.80 E59.03759
G1 X179.06 Y166.34 E59.15080
G1 X179.94 Y163.64 E59.26892
G1 X180.47 Y160.85 E59.38688
G1 X180.65 Y158.01 E59.50510
G1 X180.45 Y155.07 E59.62769
G1 X179.94 Y152.39 E59.74101
G1 X179.01 Y149.59 E59.86385
G1 X177.85 Y147.12 E59.97730
G1 X176.33 Y144.73 E60.09511
G1 X174.52 Y142.54 E60.21323
G1 X172.45 Y140.59 E60.33132
G1 X170.16 Y138.93 E60.44913
G1 X167.56 Y137.51 E60.57216
G1 X165.03 Y136.51 E60.68545
G1 X162.27 Y135.80 E60.80366
G1 X159.46 Y135.45 E60.92162
G1 X159.41 Y135.45 E60.92341
G1 X156.50 Y135.46 E61.04443
G1 X153.81 Y135.80 E61.15749
G1 X150.95 Y136.55 E61.28028
G1 X148.41 Y137.56 E61.39378
G1 X145.93 Y138.92 E61.51145
G1 X143.55 Y140.67 E61.63441
G1 X141.49 Y142.62 E61.75246
G0 F5400 X141.85 Y142.97
G1 F1800 X140.16 Y145.02 E61.86299
G1 X138.62 Y147.47 E61.98343
G1 X137.49 Y149.87 E62.09364
G1 X136.63 Y152.52 E62.20957
G1 X136.11 Y155.24 E62.32453
G1 X135.93 Y158.01 E62.44029
G1 X136.13 Y160.90 E62.56038
G1 X136.63 Y163.51 E62.67103
G1 X137.53 Y166.26 E62.79128
G1 X138.67 Y168.67 E62.90203
G1 X140.15 Y171.01 E63.01727
G1 X141.93 Y173.15 E63.13303
G1 X143.95 Y175.05 E63.24821
G1 X146.19 Y176.68 E63.36346
G1 X148.74 Y178.07 E63.48401
G1 X151.21 Y179.04 E63.59454
G1 X153.90 Y179.73 E63.71009
G1 X156.65 Y180.08 E63.82537
G1 X159.43 Y180.08 E63.94094
G1 X162.18 Y179.73 E64.05611
G1 X164.98 Y179.00 E64.17643
G1 X167.46 Y178.02 E64.28734
G1 X169.88 Y176.69 E64.40231
G1 X172.22 Y174.97 E64.52266
G1 X174.16 Y173.15 E64.63369
G1 X175.92 Y171.02 E64.74847
G1 X177.47 Y168.56 E64.86911
G1 X178.60 Y166.15 E64.97979
G1 X179.46 Y163.52 E65.09501
G1 X179.98 Y160.79 E65.21044
G1 X180.15 Y158.01 E65.32600
G1 X179.96 Y155.13 E65.44609
G1 X179.46 Y152.52 E65.55669
G1 X178.55 Y149.77 E65.67705
G1 X177.41 Y147.36 E65.78774
G1 X175.93 Y145.02 E65.90319
G1 X174.16 Y142.88 E66.01824
G1 X172.13 Y140.98 E66.13395
G1 X169.89 Y139.35 E66.24932
G1 X167.35 Y137.97 E66.36950
G1 X164.87 Y136.99 E66.48033
G1 X162.18 Y136.30 E66.59588
G1 X159.43 Y135.95 E66.71128
G1 X156.54 Y135.96 E66.83139
G1 X153.90 Y136.29 E66.94169
G1 X151.10 Y137.03 E67.06211
G1 X148.62 Y138.01 E67.17293
G1 X146.20 Y139.34 E67.28790
G1 X143.87 Y141.06 E67.40822
G1 X141.85 Y142.97 E67.52377
G0 F5400 X142.21 Y143.31
G1 F1800 X140.56 Y145.31 E67.63132
G1 X139.05 Y147.71 E67.74928
G1 X137.95 Y150.06 E67.85718
G1 X137.11 Y152.64 E67.97014
G1 X136.60 Y155.30 E68.08281
G1 X136.43 Y158.01 E68.19565
G1 X136.62 Y160.84 E68.31324
G1 X137.11 Y163.38 E68.42119
G1 X138.00 Y166.07 E68.53867
G1 X139.10 Y168.43 E68.64695
G1 X140.56 Y170.72 E68.75987
G1 X142.29 Y172.80 E68.87244
G1 X144.27 Y174.66 E68.98544
G1 X146.46 Y176.26 E69.09813
G1 X148.95 Y177.61 E69.21580
G1 X151.37 Y178.57 E69.32396
G1 X153.99 Y179.24 E69.43662
G1 X156.68 Y179.58 E69.54943
G1 X159.40 Y179.58 E69.66243
G1 X162.08 Y179.24 E69.77478
G1 X164.83 Y178.53 E69.89275
G1 X167.24 Y177.57 E70.00050
G1 X169.62 Y176.26 E70.11346
G1 X171.90 Y174.59 E70.23116
G1 X173.79 Y172.81 E70.33899
G1 X175.52 Y170.72 E70.45185
G1 X177.03 Y168.32 E70.56956
G1 X178.13 Y165.97 E70.67747
G1 X178.97 Y163.39 E70.79044
G1 X179.48 Y160.73 E70.90311
G1 X179.65 Y158.01 E71.01604
G1 X179.46 Y155.19 E71.13355
G1 X178.97 Y152.65 E71.24132
G1 X178.09 Y149.96 E71.35908
G1 X176.98 Y147.60 E71.46726
G1 X175.52 Y145.31 E71.58017
G1 X173.79 Y143.22 E71.69302
G1 X171.82 Y141.37 E71.80555
G1 X169.62 Y139.77 E71.91836
G1 X167.14 Y138.42 E72.03585
G1 X164.71 Y137.46 E72.14434
G1 X162.09 Y136.79 E72.25703
G1 X159.40 Y136.45 E72.36987
G1 X156.57 Y136.46 E72.48736
G1 X154.00 Y136.79 E72.59494
G1 X151.26 Y137.51 E72.71295
G1 X148.84 Y138.46 E72.82091
G1 X146.47 Y139.77 E72.93369
G1 X144.19 Y141.44 E73.05105
G1 X142.21 Y143.31 E73.16428
G1 F1200 E70.66428
G0 F5400 X140.02 Y141.26
;TYPE:WALL-INNER
G1 F1200 E73.16428
G1 F1800 X138.13 Y143.55 E73.28783
G1 X136.42 Y146.27 E73.42129
G1 X135.15 Y148.96 E73.54479
G1 X134.20 Y151.89 E73.67325
G1 X133.79 Y154.04 E73.76392
G1 X133.79 Y133.76 E74.60669
G1 X153.99 Y133.76 E75.44646
G1 X153.43 Y133.84 E75.47001
G1 X150.32 Y134.65 E75.60354
G1 X147.56 Y135.74 E75.72697
G1 X144.85 Y137.23 E75.85555
G1 X142.26 Y139.13 E75.98909
G1 X140.02 Y141.26 E76.11752
G0 F5400 X139.35 Y140.09
G1 F1800 X139.60 Y139.90 E76.13037
G1 X139.85 Y139.68 E76.14408
G1 X140.18 Y139.22 E76.16777
G1 X140.32 Y138.92 E76.18157
G1 X140.41 Y138.63 E76.19430
G1 X140.47 Y138.32 E76.20707
G1 X140.49 Y138.01 E76.22007
G1 X140.47 Y137.68 E76.23396
G1 X140.41 Y137.38 E76.24655
G1 X140.32 Y137.11 E76.25845
G1 X140.18 Y136.81 E76.27232
G1 X139.99 Y136.53 E76.28618
G1 X139.60 Y136.12 E76.30973
G1 X139.31 Y135.92 E76.32443
G1 X138.80 Y135.68 E76.34787
G1 X138.50 Y135.61 E76.36066
G1 X138.19 Y135.57 E76.37356
G1 X137.86 Y135.57 E76.38736
G1 X137.55 Y135.61 E76.40021
G1 X137.26 Y135.69 E76.41303
G1 X136.97 Y135.81 E76.42586
G1 X136.70 Y135.96 E76.43861
G1 X136.46 Y136.15 E76.45147
G1 X136.24 Y136.36 E76.46409
G1 X136.06 Y136.57 E76.47569
G1 X135.89 Y136.84 E76.48872
G1 X135.75 Y137.14 E76.50257
G1 X135.66 Y137.43 E76.51520
G1 X135.61 Y137.71 E76.52701
G1 X135.59 Y138.01 E76.53971
G1 X135.61 Y138.29 E76.55141
G1 X135.66 Y138.62 E76.56523
G1 X135.76 Y138.92 E76.57817
G1 X135.89 Y139.20 E76.59100
G1 X136.06 Y139.46 E76.60377
G1 X136.27 Y139.71 E76.61750
G1 X136.71 Y140.07 E76.64121
G1 X137.00 Y140.23 E76.65498
G1 X137.28 Y140.35 E76.66774
G1 X137.58 Y140.42 E76.68052
G1 X137.89 Y140.46 E76.69331
G1 X138.22 Y140.46 E76.70715
G1 X138.78 Y140.35 E76.73077
G1 X139.08 Y140.23 E76.74451
G1 X139.35 Y140.09 E76.75732
G1 F1200 E74.25732
G0 F5400 X133.79 Y162.00
G1 F1200 E76.75732
G1 F1800 X134.20 Y164.14 E76.84791
G1 X135.21 Y167.19 E76.98130
G1 X136.47 Y169.87 E77.10479
G1 X138.13 Y172.48 E77.23330
G1 X140.10 Y174.86 E77.36181
G1 X142.35 Y176.98 E77.49034
G1 X144.85 Y178.80 E77.61893
G1 X147.67 Y180.33 E77.75238
G1 X150.44 Y181.43 E77.87587
G1 X153.43 Y182.19 E78.00438
G1 X153.99 Y182.26 E78.02797
G1 X133.79 Y182.26 E78.86783
G1 X133.79 Y162.00 E79.71039
G0 F5400 X137.55 Y175.61
G1 F1800 X137.26 Y175.69 E79.72322
G1 X136.97 Y175.81 E79.73605
G1 X136.70 Y175.96 E79.74880
G1 X136.46 Y176.15 E79.76166
G1 X136.24 Y176.36 E79.77428
G1 X136.06 Y176.57 E79.78588
G1 X135.89 Y176.84 E79.79891
G1 X135.75 Y177.14 E79.81275
G1 X135.66 Y177.43 E79.82539
G1 X135.61 Y177.71 E79.83720
G1 X135.59 Y178.01 E79.84990
G1 X135.61 Y178.29 E79.86160
G1 X135.66 Y178.62 E79.87542
G1 X135.76 Y178.92 E79.88835
G1 X135.89 Y179.20 E79.90119
G1 X136.06 Y179.46 E79.91395
G1 X136.27 Y179.71 E79.92769
G1 X136.71 Y180.07 E79.95140
G1 X137.00 Y180.23 E79.96516
G1 X137.28 Y180.35 E79.97793
G1 X137.58 Y180.42 E79.99071
G1 X137.89 Y180.46 E80.00350
G1 X138.22 Y180.46 E80.01734
G1 X138.78 Y180.35 E80.04096
G1 X139.08 Y180.23 E80.05470
G1 X139.35 Y180.09 E80.06751
G1 X139.60 Y179.90 E80.08036
G1 X139.85 Y179.68 E80.09407
G1 X140.18 Y179.22 E80.11776
G1 X140.32 Y178.92 E80.13156
G1 X140.41 Y178.63 E80.14429
G1 X140.47 Y178.32 E80.15707
G1 X140.49 Y178.01 E80.17007
G1 X140.47 Y177.68 E80.18395
G1 X140.41 Y177.38 E80.19654
G1 X140.32 Y177.11 E80.20844
G1 X140.18 Y176.81 E80.22231
G1 X139.99 Y176.53 E80.23617
G1 X139.60 Y176.12 E80.25973
G1 X139.31 Y175.92 E80.27442
G1 X138.80 Y175.68 E80.29787
G1 X138.50 Y175.61 E80.31065
G1 X138.19 Y175.57 E80.32355
G1 X137.86 Y175.57 E80.33736
G1 X137.55 Y175.61 E80.35020
G1 F1200 E77.85020
G0 F5400 X162.09 Y182.26
G1 F1200 E80.35020
G1 F1800 X162.66 Y182.19 E80.37371
G1 X165.76 Y181.38 E80.50714
G1 X168.52 Y180.29 E80.63063
G1 X171.23 Y178.80 E80.75920
G1 X173.82 Y176.90 E80.89263
G1 X175.98 Y174.86 E81.01616
G1 X177.96 Y172.48 E81.14474
G1 X179.66 Y169.76 E81.27820
G1 X180.93 Y167.08 E81.40165
G1 X181.88 Y164.14 E81.53013
G1 X182.29 Y162.00 E81.62079
G1 X182.29 Y182.26 E82.46352
G1 X162.09 Y182.26 E83.30321
G0 F5400 X175.67 Y178.63
G1 F1800 X175.76 Y178.92 E83.31602
G1 X175.89 Y179.20 E83.32885
G1 X176.06 Y179.46 E83.34162
G1 X176.27 Y179.71 E83.35535
G1 X176.71 Y180.07 E83.37906
G1 X177.00 Y180.23 E83.39283
G1 X177.28 Y180.35 E83.40559
G1 X177.58 Y180.42 E83.41838
G1 X177.89 Y180.46 E83.43116
G1 X178.22 Y180.46 E83.44501
G1 X178.78 Y180.35 E83.46863
G1 X179.08 Y180.23 E83.48236
G1 X179.35 Y180.09 E83.49518
G1 X179.60 Y179.90 E83.50803
G1 X179.85 Y179.68 E83.52173
G1 X180.18 Y179.22 E83.54543
G1 X180.32 Y178.92 E83.55923
G1 X180.41 Y178.63 E83.57196
G1 X180.47 Y178.32 E83.58473
G1 X180.49 Y178.01 E83.59773
G1 X180.47 Y177.68 E83.61162
G1 X180.41 Y177.38 E83.62421
G1 X180.32 Y177.11 E83.63611
G1 X180.18 Y176.81 E83.64998
G1 X179.99 Y176.53 E83.66384
G1 X179.60 Y176.12 E83.68739
G1 X179.31 Y175.92 E83.70209
G1 X178.80 Y175.68 E83.72553
G1 X178.50 Y175.61 E83.73832
G1 X178.19 Y175.57 E83.75122
G1 X177.86 Y175.57 E83.76502
G1 X177.55 Y175.61 E83.77786
G1 X177.26 Y175.69 E83.79069
G1 X176.97 Y175.81 E83.80352
G1 X176.70 Y175.96 E83.81627
G1 X176.46 Y176.15 E83.82913
G1 X176.24 Y176.36 E83.84175
G1 X176.06 Y176.57 E83.85335
G1 X175.89 Y176.84 E83.86638
G1 X175.75 Y177.14 E83.88023
G1 X175.66 Y177.43 E83.89286
G1 X175.61 Y177.71 E83.90467
G1 X175.59 Y178.01 E83.91741
G1 X175.61 Y178.32 E83.93016
G1 X175.67 Y178.63 E83.94302
G1 F1200 E81.44302
G0 F5400 X177.89 Y140.46
G1 F1200 E83.94302
G1 F1800 X178.22 Y140.46 E83.95687
G1 X178.78 Y140.35 E83.98049
G1 X179.08 Y140.23 E83.99422
G1 X179.35 Y140.09 E84.00704
G1 X179.60 Y139.90 E84.01989
G1 X179.85 Y139.68 E84.03360
G1 X180.18 Y139.22 E84.05729
G1 X180.32 Y138.92 E84.07109
G1 X180.41 Y138.63 E84.08382
G1 X180.47 Y138.32 E84.09659
G1 X180.49 Y138.01 E84.10960
G1 X180.47 Y137.68 E84.12348
G1 X180.41 Y137.38 E84.13607
G1 X180.32 Y137.11 E84.14797
G1 X180.18 Y136.81 E84.16184
G1 X179.99 Y136.53 E84.17570
G1 X179.60 Y136.12 E84.19925
G1 X179.31 Y135.92 E84.21395
G1 X178.80 Y135.68 E84.23739
G1 X178.50 Y135.61 E84.25018
G1 X178.19 Y135.57 E84.26308
G1 X177.86 Y135.57 E84.27689
G1 X177.55 Y135.61 E84.28973
G1 X177.26 Y135.69 E84.30255
G1 X176.97 Y135.81 E84.31538
G1 X176.70 Y135.96 E84.32813
G1 X176.46 Y136.15 E84.34100
G1 X176.24 Y136.36 E84.35361
G1 X176.06 Y136.57 E84.36521
G1 X175.89 Y136.84 E84.37825
G1 X175.75 Y137.14 E84.39209
G1 X175.66 Y137.43 E84.40472
G1 X175.61 Y137.71 E84.41653
G1 X175.59 Y138.01 E84.42923
G1 X175.61 Y138.29 E84.44094
G1 X175.66 Y138.62 E84.45475
G1 X175.76 Y138.92 E84.46769
G1 X175.89 Y139.20 E84.48052
G1 X176.06 Y139.46 E84.49329
G1 X176.27 Y139.71 E84.50702
G1 X176.71 Y140.07 E84.53073
G1 X177.00 Y140.23 E84.54450
G1 X177.28 Y140.35 E84.55726
G1 X177.58 Y140.42 E84.57004
G1 X177.89 Y140.46 E84.58283
G0 F5400 X175.98 Y141.17
G1 F1800 X173.73 Y139.05 E84.71133
G1 X171.23 Y137.23 E84.83995
G1 X168.41 Y135.70 E84.97340
G1 X165.65 Y134.60 E85.09691
