; generated by Slic3r 1.2.9 on 2017-07-14 at 21:13:40

; external perimeters extrusion width = 0.40mm
; perimeters extrusion width = 0.48mm
; infill extrusion width = 0.48mm
; solid infill extrusion width = 0.48mm
; top infill extrusion width = 0.48mm

M107
M190 S70 ; set bed temperature
M104 S245 ; set temperature
G28 ; home all axes
G1 Z5 F5000 ; lift nozzle

M109 S245 ; wait for temperature to be reached
G21 ; set units to millimeters
G90 ; use absolute coordinates
M82 ; use absolute distances for extrusion
G92 E0
G1 Z0.400 F9000.000
G1 E-2.00000 F2400.00000
G92 E0
G1 X77.068 Y90.950 F9000.000
G1 E2.00000 F2400.00000
G1 X79.423 Y90.100 E2.29728 F1800.000
G1 X110.030 Y85.193 E5.97884
G1 X111.157 Y85.080 E6.11325
G1 X111.711 Y85.057 E6.17916
G1 X112.884 Y85.080 E6.31852
G1 X114.053 Y85.199 E6.45804 F1800.000
G1 X115.208 Y85.415 E6.59758
G1 X115.809 Y85.568 E6.67126
G1 X116.927 Y85.927 E6.81076
G1 X117.444 Y86.129 E6.87667
G1 X118.510 Y86.622 E7.01610
G1 X119.532 Y87.201 E7.15566
G1 X120.052 Y87.540 E7.22930
G1 X120.992 Y88.243 E7.36877
G1 X121.872 Y89.022 E7.50827
G1 X122.685 Y89.871 E7.64790
G1 X123.423 Y90.783 E7.78727
G1 X123.746 Y91.234 E7.85316
G1 X124.369 Y92.230 E7.99266
G1 X124.908 Y93.274 E8.13216
G1 X125.157 Y93.841 E8.20578
G1 X125.560 Y94.945 E8.34527
G1 X125.870 Y96.077 E8.48477
G1 X125.984 Y96.620 E8.55067
G1 X126.155 Y97.782 E8.69011
G1 X126.229 Y98.955 E8.82966
G1 X126.206 Y100.129 E8.96916
G1 X126.085 Y101.306 E9.10964
G1 X125.870 Y102.452 E9.24815
G1 X125.718 Y103.053 E9.32176
G1 X125.358 Y104.171 E9.46126
G1 X124.908 Y105.256 E9.60076
G1 X124.369 Y106.299 E9.74025
G1 X123.746 Y107.295 E9.87975
G1 X123.043 Y108.236 E10.01924
G1 X122.684 Y108.659 E10.08515
G1 X121.915 Y109.468 E10.21765
G1 X121.321 Y110.024 E10.31425
G1 X120.365 Y110.828 E10.46272
G1 X119.357 Y111.569 E10.61120
G1 X118.304 Y112.242 E10.75966
G1 X117.209 Y112.846 E10.90818
G1 X116.078 Y113.377 E11.05661
G1 X115.675 Y113.545 E11.10850
G1 X114.501 Y113.975 E11.25697
G1 X113.291 Y114.330 E11.40673
G1 X112.081 Y114.601 E11.55391
G1 X111.279 Y114.737 E11.65051
G1 X110.846 Y114.795 E11.70240
G1 X109.602 Y114.908 E11.85085
G1 X108.789 Y114.939 E11.94748
G1 X107.539 Y114.918 E12.09594
G1 X106.293 Y114.815 E12.24442
G1 X105.859 Y114.761 E12.29631
G1 X105.056 Y114.632 E12.39291
G1 X103.834 Y114.369 E12.54138
G1 X78.642 Y107.185 E15.65262
G1 X76.564 Y106.179 E15.92685
G1 X74.949 Y104.528 E16.20107
G1 X73.990 Y102.428 E16.47530
G1 X73.771 Y100.729 E16.67870
G1 X73.771 Y96.729 E17.15376
G1 X74.168 Y94.455 E17.42798
G1 X75.312 Y92.449 E17.70221
G1 X77.023 Y90.989 E17.96931
G1 E15.96931 F2400.00000
G92 E0
G1 X98.649 Y93.342 F9000.000
G1 E2.00000 F2400.00000
G1 X102.158 Y93.567 E2.41756 F1800.000
G1 X102.547 Y93.325 E2.47200
G1 X102.790 Y92.738 E2.54744
G1 X103.048 Y92.292 E2.60861
G1 X103.704 Y91.436 E2.73676
G1 X103.933 Y91.186 E2.77694
G1 X104.697 Y90.492 E2.89958
G1 X105.314 Y90.011 E2.99251
G1 X106.101 Y89.489 E3.10468
G1 X106.929 Y89.034 E3.21687
G1 X107.942 Y88.589 E3.34828
G1 X108.838 Y88.289 E3.46045
G1 X109.755 Y88.063 E3.57260
G1 X110.687 Y87.915 E3.68478
G1 X111.630 Y87.843 E3.79702
G1 X112.574 Y87.850 E3.90914
G1 X113.515 Y87.934 E4.02133
G1 X114.445 Y88.097 E4.13353
G1 X115.360 Y88.335 E4.24574
G1 X116.251 Y88.648 E4.35795
G1 X117.113 Y89.033 E4.47006
G1 X117.801 Y89.406 E4.56299
G1 X118.595 Y89.917 E4.67518
G1 X119.469 Y90.597 E4.80661
G1 X120.159 Y91.241 E4.91879
G1 X120.794 Y91.941 E5.03100
G1 X121.274 Y92.558 E5.12388
G1 X121.748 Y93.270 E5.22544
G1 X122.252 Y94.173 E5.34822
G1 X122.638 Y95.035 E5.46039
G1 X122.951 Y95.926 E5.57253
G1 X123.189 Y96.840 E5.68474
G1 X123.371 Y97.931 E5.81617
G1 X123.442 Y98.873 E5.92837
G1 X123.436 Y99.819 E6.04064
G1 X123.351 Y100.758 E6.15267
G1 X123.222 Y101.530 E6.24563
G1 X122.997 Y102.448 E6.35780
G1 X122.638 Y103.494 E6.48925
G1 X122.252 Y104.357 E6.60143
G1 X121.797 Y105.184 E6.71358
G1 X121.274 Y105.971 E6.82578
G1 X120.689 Y106.712 E6.93796
G1 X120.063 Y107.385 E7.04709
G1 X119.370 Y108.034 E7.15988
G1 X118.546 Y108.716 E7.28682
G1 X117.680 Y109.343 E7.41380
G1 X116.776 Y109.912 E7.54075
G1 X115.835 Y110.421 E7.66773
G1 X114.865 Y110.868 E7.79467
G1 X113.867 Y111.251 E7.92162
G1 X112.722 Y111.601 E8.06374
G1 X111.681 Y111.843 E8.19074
G1 X110.626 Y112.017 E8.31769
G1 X109.562 Y112.122 E8.44462
G1 X108.494 Y112.157 E8.57159
G1 X107.553 Y112.131 E8.68337
G1 X106.489 Y112.035 E8.81030
G1 X105.432 Y111.871 E8.93729
G1 X104.265 Y111.606 E9.07940
G1 X103.242 Y111.298 E9.20637
G1 X102.359 Y110.972 E9.31816
G1 X101.265 Y110.485 E9.46030
G1 X100.321 Y109.985 E9.58724
G1 X99.518 Y109.494 E9.69902
G1 X98.539 Y108.804 E9.84116
G1 X97.807 Y108.213 E9.95297
G1 X97.285 Y107.738 E10.03671
G1 X97.009 Y107.641 E10.07146
G1 X96.672 Y107.656 E10.11163
G1 X95.840 Y107.640 E10.21035
G1 X94.687 Y107.521 E10.34807
G1 X93.711 Y107.330 E10.46622
G1 X92.753 Y107.058 E10.58443
G1 X91.821 Y106.708 E10.70265
G1 X90.922 Y106.281 E10.82087
G1 X90.062 Y105.780 E10.93907
G1 X89.377 Y105.308 E11.03785
G1 X88.675 Y104.740 E11.14513
G1 X88.441 Y104.657 E11.17456
G1 X78.858 Y104.657 E12.31267
G1 X76.558 Y102.356 E12.69913
G1 X76.558 Y95.102 E13.56064
G1 X78.858 Y92.801 E13.94710
G1 X92.931 Y92.801 E15.61848
G1 X95.057 Y94.450 E15.93795
G1 X95.462 Y96.028 E16.13146
G1 X95.558 Y96.256 E16.16086
G1 X95.729 Y96.481 E16.19440
G1 X95.923 Y96.635 E16.22381
G1 X96.180 Y96.751 E16.25735
G1 X96.424 Y96.794 E16.28675
G1 X96.706 Y96.773 E16.32029
G1 X96.941 Y96.694 E16.34969
G1 X97.178 Y96.540 E16.38323
G1 X97.386 Y96.300 E16.42096
G1 X97.454 Y96.176 E16.43780
G1 X98.626 Y93.398 E16.79594
G1 X99.110 Y94.087 F9000.000
G1 X102.622 Y94.313 E17.21391 F1800.000
G1 X103.011 Y94.070 E17.26836
G1 X103.432 Y93.055 E17.39892
G1 X103.643 Y92.690 E17.44897
G1 X104.252 Y91.895 E17.56791
G1 X104.439 Y91.691 E17.60078
G1 X105.147 Y91.046 E17.71452
G1 X105.741 Y90.584 E17.80393
G1 X106.480 Y90.095 E17.90909
G1 X107.256 Y89.669 E18.01427
G1 X108.188 Y89.260 E18.13517
G1 X109.027 Y88.977 E18.24033
G1 X109.887 Y88.765 E18.34547
G1 X110.761 Y88.625 E18.45065
G1 X111.645 Y88.557 E18.55586
G1 X112.530 Y88.563 E18.66098
G1 X113.412 Y88.641 E18.76616
G1 X114.284 Y88.793 E18.87134
G1 X115.142 Y89.015 E18.97654
G1 X115.978 Y89.308 E19.08173
G1 X116.786 Y89.669 E19.18685
G1 X117.448 Y90.027 E19.27626
G1 X118.192 Y90.507 E19.38144
G1 X118.996 Y91.132 E19.50236
G1 X119.644 Y91.736 E19.60753
G1 X120.239 Y92.391 E19.71272
G1 X120.702 Y92.985 E19.80210
G1 X121.150 Y93.661 E19.89840
G1 X121.617 Y94.500 E20.01242
G1 X121.978 Y95.308 E20.11758
G1 X122.270 Y96.144 E20.22272
G1 X122.493 Y97.001 E20.32791
G1 X122.661 Y98.005 E20.44883
G1 X122.728 Y98.888 E20.55401
G1 X122.723 Y99.774 E20.65926
G1 X122.644 Y100.655 E20.76430
G1 X122.520 Y101.398 E20.85374
G1 X122.308 Y102.258 E20.95891
G1 X121.978 Y103.221 E21.07984
G1 X121.617 Y104.030 E21.18501
G1 X121.191 Y104.806 E21.29015
G1 X120.702 Y105.544 E21.39534
G1 X120.154 Y106.240 E21.50051
G1 X119.565 Y106.873 E21.60318
G1 X118.890 Y107.505 E21.71302
G1 X118.102 Y108.157 E21.83445
G1 X117.273 Y108.756 E21.95591
G1 X116.408 Y109.300 E22.07734
G1 X115.508 Y109.786 E22.19880
G1 X114.579 Y110.213 E22.32022
G1 X113.624 Y110.579 E22.44165
G1 X112.547 Y110.909 E22.57550
G1 X111.551 Y111.141 E22.69697
G1 X110.542 Y111.308 E22.81840
G1 X109.524 Y111.408 E22.93982
G1 X108.502 Y111.443 E23.06126
G1 X107.585 Y111.417 E23.17028
G1 X106.567 Y111.325 E23.29170
G1 X105.556 Y111.167 E23.41316
G1 X104.457 Y110.918 E23.54700
G1 X103.478 Y110.624 E23.66845
G1 X102.617 Y110.306 E23.77748
G1 X101.587 Y109.848 E23.91134
G1 X100.683 Y109.369 E24.03276
G1 X99.900 Y108.890 E24.14178
G1 X98.979 Y108.241 E24.27564
G1 X98.264 Y107.664 E24.38469
G1 X97.544 Y107.006 E24.50056
G1 X97.268 Y106.909 E24.53532
G1 X96.670 Y106.941 E24.60644
G1 X95.869 Y106.926 E24.70163
G1 X94.937 Y106.836 E24.81279
G1 X93.886 Y106.638 E24.93981
G1 X92.986 Y106.383 E25.05094
G1 X92.110 Y106.054 E25.16208
G1 X91.264 Y105.653 E25.27322
G1 X90.455 Y105.184 E25.38434
G1 X89.688 Y104.648 E25.49549
G1 X88.953 Y104.037 E25.60903
G1 X88.707 Y103.943 E25.64028
G1 X79.154 Y103.943 E26.77480
G1 X77.272 Y102.060 E27.09099
G1 X77.272 Y95.398 E27.88225
G1 X79.154 Y93.515 E28.19844
G1 X92.687 Y93.515 E29.80564
G1 X94.426 Y94.864 E30.06703
G1 X94.789 Y96.274 E30.23994
G1 X94.931 Y96.599 E30.28204
G1 X95.134 Y96.890 E30.32414
G1 X95.390 Y97.134 E30.36624
G1 X95.690 Y97.323 E30.40833
G1 X96.022 Y97.449 E30.45043
G1 X96.371 Y97.507 E30.49253
G1 X96.549 Y97.509 E30.51360
G1 X96.865 Y97.470 E30.55149
G1 X97.202 Y97.360 E30.59359
G1 X97.540 Y97.165 E30.63989
G1 X97.678 Y97.053 E30.66096
G1 X97.895 Y96.819 E30.69886
G1 X98.098 Y96.486 E30.74516
G1 X99.087 Y94.143 E31.04725
G1 E29.04725 F2400.00000
G92 E0
G1 X103.153 Y95.062 F9000.000
G1 E2.00000 F2400.00000
G1 X103.568 Y94.765 E2.06063 F1800.000
G1 X103.699 Y94.277 E2.12059
G1 X104.074 Y93.371 E2.23704
G1 X104.238 Y93.087 E2.27597
G1 X104.800 Y92.354 E2.38570
G1 X104.945 Y92.195 E2.41127
G1 X105.598 Y91.601 E2.51608
G1 X106.168 Y91.157 E2.60199
G1 X106.858 Y90.701 E2.70014
G1 X107.583 Y90.304 E2.79831
G1 X108.434 Y89.930 E2.90870
G1 X109.275 Y89.651 E3.01395
G1 X110.019 Y89.467 E3.10497
G1 X110.733 Y89.348 E3.19089
G1 X111.556 Y89.276 E3.28906
G1 X112.486 Y89.276 E3.39944
G1 X113.309 Y89.348 E3.49760
G1 X114.182 Y89.503 E3.60287
G1 X114.924 Y89.696 E3.69393
G1 X115.608 Y89.930 E3.77983
G1 X116.366 Y90.258 E3.87797
G1 X117.095 Y90.648 E3.97613
G1 X117.874 Y91.157 E4.08655
G1 X118.523 Y91.667 E4.18470
G1 X119.055 Y92.157 E4.27060
G1 X119.578 Y92.718 E4.36165
G1 X120.129 Y93.412 E4.46689
G1 X120.585 Y94.102 E4.56508
G1 X120.982 Y94.826 E4.66321
G1 X121.355 Y95.678 E4.77362
G1 X121.620 Y96.461 E4.87179
G1 X121.797 Y97.162 E4.95767
G1 X121.927 Y97.917 E5.04871
G1 X122.010 Y98.800 E5.15396
G1 X122.014 Y99.626 E5.25214
G1 X121.937 Y100.553 E5.36251
G1 X121.797 Y101.367 E5.46069
G1 X121.590 Y102.167 E5.55886
G1 X121.355 Y102.851 E5.64474
G1 X121.027 Y103.610 E5.74290
G1 X120.638 Y104.338 E5.84100
G1 X120.189 Y105.033 E5.93921
G1 X119.685 Y105.688 E6.03736
G1 X119.067 Y106.360 E6.14584
G1 X118.349 Y107.030 E6.26240
G1 X117.593 Y107.647 E6.37830
G1 X116.799 Y108.214 E6.49425
G1 X116.040 Y108.688 E6.60050
G1 X115.181 Y109.152 E6.71643
G1 X114.294 Y109.559 E6.83234
G1 X113.382 Y109.907 E6.94825
G1 X112.449 Y110.195 E7.06418
G1 X111.500 Y110.423 E7.18010
G1 X110.538 Y110.588 E7.29602
G1 X109.568 Y110.690 E7.41193
G1 X108.592 Y110.728 E7.52786
G1 X107.617 Y110.704 E7.64377
G1 X106.645 Y110.615 E7.75967
G1 X105.600 Y110.449 E7.88527
G1 X104.600 Y110.215 E8.00729
G1 X103.714 Y109.950 E8.11709
G1 X102.875 Y109.640 E8.22336
G1 X101.909 Y109.210 E8.34894
G1 X101.046 Y108.754 E8.46484
G1 X100.215 Y108.242 E8.58075
G1 X99.483 Y107.727 E8.68703
G1 X98.722 Y107.116 E8.80297
G1 X97.840 Y106.291 E8.94646
G1 X97.545 Y106.175 E8.98410
G1 X96.669 Y106.227 E9.08823
G1 X95.794 Y106.206 E9.19226
G1 X95.026 Y106.127 E9.28396
G1 X94.062 Y105.945 E9.40037
G1 X93.219 Y105.708 E9.50442
G1 X92.398 Y105.401 E9.60848
G1 X91.699 Y105.074 E9.70017
G1 X90.937 Y104.643 E9.80420
G1 X90.129 Y104.086 E9.92065
G1 X89.533 Y103.597 E10.01231
G1 X89.255 Y103.333 E10.05778
G1 X88.997 Y103.229 E10.09086
G1 X79.450 Y103.229 E11.22466
G1 X77.986 Y101.764 E11.47059
G1 X77.986 Y95.694 E12.19158
G1 X79.450 Y94.230 E12.43750
G1 X92.442 Y94.230 E13.98053
G1 X93.795 Y95.279 E14.18383
G1 X94.096 Y96.452 E14.32771
G1 X94.180 Y96.686 E14.35725
G1 X94.415 Y97.124 E14.41624
G1 X94.732 Y97.506 E14.47523
G1 X94.945 Y97.694 E14.50899
G1 X95.365 Y97.960 E14.56798
G1 X95.829 Y98.138 E14.62698
G1 X96.319 Y98.220 E14.68597
G1 X96.567 Y98.224 E14.71550
G1 X97.025 Y98.167 E14.77029
G1 X97.497 Y98.012 E14.82928
G1 X97.929 Y97.766 E14.88827
G1 X98.303 Y97.440 E14.94727
G1 X98.486 Y97.222 E14.98102
G1 X98.727 Y96.829 E15.03581
G1 X99.571 Y94.833 E15.29321
G1 X103.093 Y95.058 E15.71243
G1 E13.71243 F2400.00000
G92 E0
G1 X111.942 Y98.451 F9000.000
G1 E2.00000 F2400.00000
G1 X110.636 Y99.454 E2.19554 F1800.000
G1 X109.598 Y99.883 E2.32888
G1 X108.485 Y100.030 E2.46223
G1 X107.372 Y99.883 E2.59556
G1 X106.335 Y99.454 E2.72890
G1 X105.444 Y98.770 E2.86224
G1 X104.761 Y97.880 E2.99558
G1 X104.331 Y96.842 E3.12892
G1 X104.200 Y95.846 E3.24825
G1 X104.216 Y95.488 E3.29088
G1 X104.316 Y94.733 E3.38127
G1 X104.376 Y94.507 E3.40905
G1 X104.716 Y93.688 E3.51438
G1 X104.833 Y93.485 E3.54218
G1 X105.348 Y92.813 E3.64271
G1 X106.048 Y92.155 E3.75681
G1 X106.655 Y91.686 E3.84796
G1 X107.300 Y91.269 E3.93911
G1 X107.976 Y90.906 E4.03026
G1 X108.680 Y90.601 E4.12139
G1 X109.407 Y90.355 E4.21253
G1 X110.151 Y90.169 E4.30366
G1 X110.909 Y90.046 E4.39481
G1 X111.674 Y89.986 E4.48598
G1 X112.441 Y89.989 E4.57710
G1 X113.206 Y90.055 E4.66825
G1 X113.962 Y90.184 E4.75941
G1 X114.706 Y90.376 E4.85057
G1 X115.431 Y90.628 E4.94173
G1 X116.132 Y90.939 E5.03285
G1 X116.806 Y91.307 E5.12400
G1 X117.447 Y91.729 E5.21515
G1 X118.050 Y92.203 E5.30629
G1 X118.613 Y92.725 E5.39744
G1 X119.130 Y93.292 E5.48860
G1 X119.599 Y93.899 E5.57973
G1 X120.017 Y94.544 E5.67091
G1 X120.379 Y95.220 E5.76203
G1 X120.685 Y95.924 E5.85317
G1 X120.931 Y96.651 E5.94432
G1 X121.116 Y97.395 E6.03546
G1 X121.240 Y98.153 E6.12660
G1 X121.300 Y98.918 E6.21775
G1 X121.297 Y99.686 E6.30894
G1 X121.231 Y100.450 E6.40002
G1 X121.101 Y101.206 E6.49119
G1 X120.910 Y101.950 E6.58234
G1 X120.640 Y102.716 E6.67883
G1 X120.347 Y103.376 E6.76461
G1 X120.017 Y103.986 E6.84696
G1 X119.599 Y104.630 E6.93814
G1 X119.130 Y105.238 E7.02928
G1 X118.569 Y105.848 E7.12780
G1 X117.887 Y106.485 E7.23866
G1 X117.167 Y107.074 E7.34905
G1 X116.411 Y107.614 E7.45947
G1 X115.621 Y108.105 E7.56986
G1 X114.801 Y108.543 E7.68026
G1 X113.954 Y108.926 E7.79066
G1 X113.085 Y109.254 E7.90106
G1 X112.156 Y109.534 E8.01618
G1 X111.290 Y109.736 E8.12186
G1 X110.431 Y109.881 E8.22535
G1 X109.506 Y109.978 E8.33575
G1 X108.577 Y110.014 E8.44615
G1 X107.688 Y109.991 E8.55181
G1 X106.665 Y109.898 E8.67385
G1 X105.747 Y109.750 E8.78424
G1 X104.841 Y109.542 E8.89463
G1 X103.951 Y109.276 E9.00503
G1 X103.133 Y108.974 E9.10854
G1 X102.231 Y108.572 E9.22584
G1 X101.409 Y108.138 E9.33623
G1 X100.617 Y107.652 E9.44662
G1 X99.904 Y107.150 E9.55014
G1 X99.179 Y106.568 E9.66055
G1 X98.494 Y105.939 E9.77094
G1 X98.107 Y105.536 E9.83736
G1 X97.778 Y105.423 E9.87873
G1 X97.483 Y105.464 E9.91400
G1 X96.668 Y105.513 E10.01099
G1 X95.926 Y105.499 E10.09911
G1 X95.114 Y105.418 E10.19610
G1 X94.311 Y105.270 E10.29307
G1 X93.452 Y105.033 E10.39888
G1 X92.687 Y104.747 E10.49586
G1 X92.014 Y104.433 E10.58401
G1 X91.304 Y104.030 E10.68097
G1 X90.571 Y103.525 E10.78680
G1 X89.997 Y103.054 E10.87492
G1 X89.544 Y102.619 E10.94947
G1 X89.286 Y102.514 E10.98255
G1 X79.746 Y102.514 E12.11562
G1 X78.700 Y101.469 E12.29128
G1 X78.700 Y95.990 E12.94200
G1 X79.746 Y94.944 E13.11766
G1 X92.198 Y94.944 E14.59652
G1 X93.164 Y95.693 E14.74173
G1 X93.413 Y96.664 E14.86080
G1 X93.535 Y96.998 E14.90301
G1 X93.676 Y97.285 E14.94100
G1 X93.845 Y97.557 E14.97900
G1 X94.017 Y97.783 E15.01276
G1 X94.233 Y98.019 E15.05076
G1 X94.472 Y98.231 E15.08875
G1 X94.731 Y98.419 E15.12674
G1 X95.039 Y98.597 E15.16895
G1 X95.332 Y98.726 E15.20695
G1 X95.636 Y98.826 E15.24494
G1 X95.948 Y98.895 E15.28293
G1 X96.266 Y98.933 E15.32092
G1 X96.586 Y98.939 E15.35891
G1 X96.904 Y98.913 E15.39690
G1 X97.219 Y98.856 E15.43490
G1 X97.526 Y98.767 E15.47289
G1 X97.824 Y98.649 E15.51088
G1 X98.107 Y98.501 E15.54887
G1 X98.375 Y98.326 E15.58687
G1 X98.624 Y98.125 E15.62486
G1 X98.828 Y97.926 E15.65863
G1 X99.035 Y97.683 E15.69662
G1 X99.235 Y97.389 E15.73883
G1 X99.386 Y97.107 E15.77683
G1 X100.031 Y95.578 E15.97397
G1 X102.564 Y95.740 E16.27533
G1 X103.101 Y97.672 E16.51344
G1 X103.117 Y97.669 E16.51536
G1 X103.346 Y98.215 E16.58577
G1 X103.296 Y98.251 E16.59306
G1 X103.637 Y98.751 E16.66487
G1 X103.764 Y98.975 E16.69554
G1 X103.783 Y98.966 E16.69807
G1 X104.175 Y99.477 E16.77448
G1 X104.147 Y99.510 E16.77959
G1 X104.516 Y99.838 E16.83818
G1 X104.740 Y100.073 E16.87677
G1 X104.760 Y100.056 E16.87995
G1 X105.287 Y100.460 E16.95884
G1 X105.273 Y100.491 E16.96281
