; generated by Slic3r 1.2.9 on 2017-07-14 at 02:25:37

; external perimeters extrusion width = 0.40mm
; perimeters extrusion width = 0.48mm
; infill extrusion width = 0.48mm
; solid infill extrusion width = 0.48mm
; top infill extrusion width = 0.48mm

M107
M190 S70 ; set bed temperature
M104 S245 ; set temperature
G28 ; home all axes
G1 Z5 F5000 ; lift nozzle

M109 S245 ; wait for temperature to be reached
G21 ; set units to millimeters
G90 ; use absolute coordinates
M82 ; use absolute distances for extrusion
G92 E0
G1 Z0.400 F9000.000
G1 E-2.00000 F2400.00000
G92 E0
G1 X62.433 Y24.475 F9000.000
G1 E2.00000 F2400.00000
G1 X63.577 Y22.470 E2.27422 F1800.000
G1 X65.333 Y20.970 E2.54845
G1 X67.493 Y20.155 E2.82267
G1 X68.750 Y20.036 E2.97264
G1 X131.250 Y20.036 E10.39546
G1 X133.525 Y20.433 E10.66969
G1 X135.530 Y21.577 E10.94391 F1800.000
G1 X137.030 Y23.333 E11.21814
G1 X137.845 Y25.493 E11.49236
G1 X137.964 Y26.750 E11.64233
G1 X137.964 Y154.250 E26.78489
G1 X137.567 Y156.525 E27.05912
G1 X136.191 Y158.796 E27.37451
G1 X120.597 Y175.746 E30.10991
G1 X120.083 Y176.248 E30.19525
G1 X119.394 Y176.852 E30.30413
G1 X118.698 Y177.386 E30.40831
G1 X117.936 Y177.895 E30.51706
G1 X117.176 Y178.334 E30.62134
G1 X116.351 Y178.741 E30.73054
G1 X115.543 Y179.075 E30.83443
G1 X114.687 Y179.365 E30.94172
G1 X113.828 Y179.597 E31.04744
G1 X112.930 Y179.775 E31.15619
G1 X112.059 Y179.890 E31.26053
G1 X111.145 Y179.950 E31.36928
G1 X110.267 Y179.950 E31.47356
G1 X109.352 Y179.890 E31.58247
G1 X108.482 Y179.775 E31.68664
G1 X107.584 Y179.596 E31.79549
G1 X106.987 Y179.449 E31.86853
G1 X80.798 Y171.687 E35.11250
G1 X78.550 Y170.523 E35.41320
G1 X64.594 Y159.523 E37.52366
G1 X63.053 Y157.803 E37.79789
G1 X62.186 Y155.663 E38.07211
G1 X62.036 Y154.250 E38.24091
G1 X62.036 Y26.750 E53.38347
G1 X62.423 Y24.535 E53.65056
G1 E51.65056 F2400.00000
G92 E0
G1 X64.822 Y25.123 F9000.000
G1 E2.00000 F2400.00000
G1 X67.123 Y22.822 E2.38646 F1800.000
G1 X132.877 Y22.822 E10.19574
G1 X135.178 Y25.123 E10.58219
G1 X135.178 Y155.877 E26.11121 F1800.000
G1 X132.877 Y158.178 E26.49767
G1 X112.052 Y158.178 E28.97091
G1 X111.634 Y158.596 E29.04118
G1 X111.634 Y163.769 E29.65551
G1 X112.193 Y164.198 E29.73920
G1 X112.955 Y163.993 E29.83290
G1 X113.983 Y163.858 E29.95605
G1 X114.499 Y163.858 E30.01729
G1 X115.529 Y163.993 E30.14067
G1 X116.025 Y164.126 E30.20170
G1 X116.739 Y164.422 E30.29352
G1 X116.985 Y164.525 E30.32518
G1 X117.429 Y164.781 E30.38607
G1 X118.251 Y165.412 E30.50915
G1 X118.615 Y165.776 E30.57027
G1 X119.246 Y166.598 E30.69336
G1 X119.504 Y167.044 E30.75455
G1 X119.901 Y168.003 E30.87774
G1 X120.034 Y168.500 E30.93889
G1 X120.169 Y169.528 E31.06198
G1 X120.170 Y170.043 E31.12317
G1 X120.034 Y171.071 E31.24631
G1 X119.901 Y171.568 E31.30750
G1 X119.504 Y172.526 E31.43065
G1 X119.247 Y172.972 E31.49180
G1 X118.655 Y173.744 E31.60732
G1 X118.391 Y174.026 E31.65315
G1 X117.460 Y174.842 E31.80014
G1 X117.256 Y174.998 E31.83064
G1 X116.282 Y175.649 E31.96989
G1 X116.059 Y175.778 E32.00044
G1 X115.005 Y176.297 E32.13994
G1 X114.769 Y176.395 E32.17036
G1 X113.658 Y176.772 E32.30967
G1 X113.410 Y176.839 E32.34015
G1 X112.261 Y177.068 E32.47934
G1 X112.005 Y177.101 E32.50994
G1 X110.835 Y177.178 E32.64917
G1 X110.578 Y177.178 E32.67976
G1 X109.407 Y177.101 E32.81915
G1 X109.152 Y177.068 E32.84965
G1 X108.002 Y176.839 E32.98896
G1 X107.753 Y176.772 E33.01946
G1 X106.644 Y176.396 E33.15863
G1 X106.406 Y176.297 E33.18925
G1 X105.355 Y175.779 E33.32840
G1 X105.131 Y175.650 E33.35906
G1 X104.155 Y174.998 E33.49843
G1 X103.952 Y174.841 E33.52896
G1 X103.070 Y174.068 E33.66818
G1 X102.888 Y173.886 E33.69876
G1 X102.114 Y173.004 E33.83816
G1 X101.880 Y172.684 E33.88527
G1 X101.307 Y171.825 E34.00788
G1 X101.178 Y171.603 E34.03843
G1 X100.660 Y170.551 E34.17762
G1 X100.561 Y170.313 E34.20822
G1 X100.184 Y169.202 E34.34763
G1 X100.117 Y168.954 E34.37813
G1 X99.889 Y167.804 E34.51738
G1 X99.855 Y167.549 E34.54792
G1 X99.794 Y166.629 E34.65747
G1 X99.687 Y165.932 E34.74118
G1 X99.568 Y165.684 E34.77383
G1 X99.457 Y165.543 E34.79519
G1 X99.243 Y165.370 E34.82784
G1 X99.160 Y165.324 E34.83919
G1 X98.899 Y165.237 E34.87183
G1 X98.624 Y165.222 E34.90449
G1 X98.447 Y165.252 E34.92584
G1 X98.193 Y165.355 E34.95849
G1 X97.974 Y165.523 E34.99114
G1 X97.910 Y165.594 E35.00249
G1 X97.765 Y165.827 E35.03514
G1 X97.104 Y167.725 E35.27383
G1 X95.061 Y169.178 E35.57161
G1 X81.079 Y169.178 E37.23215
G1 X78.778 Y166.877 E37.61860
G1 X78.778 Y158.596 E38.60207
G1 X78.360 Y158.178 E38.67233
G1 X67.123 Y158.178 E40.00688
G1 X64.822 Y155.877 E40.39334
G1 X64.822 Y25.183 E55.91523
G1 X65.536 Y25.419 F9000.000
G1 X67.419 Y23.536 E56.23142 F1800.000
G1 X132.581 Y23.536 E63.97044
G1 X134.464 Y25.419 E64.28663 F1800.000
G1 X134.464 Y155.581 E79.74538
G1 X132.581 Y157.464 E80.06157
G1 X111.338 Y157.464 E82.58450
G1 X110.920 Y157.882 E82.65477
G1 X110.920 Y164.850 E83.48227
G1 X111.555 Y165.274 E83.57294
G1 X112.687 Y164.805 E83.71846
G1 X113.095 Y164.695 E83.76868
G1 X114.030 Y164.572 E83.88071
G1 X114.452 Y164.572 E83.93082
G1 X115.389 Y164.695 E84.04304
G1 X115.795 Y164.804 E84.09297
G1 X116.668 Y165.166 E84.20527
G1 X117.032 Y165.376 E84.25510
G1 X117.780 Y165.950 E84.36707
G1 X118.077 Y166.248 E84.41707
G1 X118.651 Y166.996 E84.52906
G1 X118.862 Y167.361 E84.57913
G1 X119.223 Y168.233 E84.69119
G1 X119.332 Y168.640 E84.74122
G1 X119.455 Y169.574 E84.85321
G1 X119.455 Y169.996 E84.90327
G1 X119.332 Y170.931 E85.01530
G1 X119.223 Y171.338 E85.06536
G1 X118.862 Y172.210 E85.17739
G1 X118.652 Y172.575 E85.22743
G1 X118.109 Y173.281 E85.33321
G1 X117.894 Y173.512 E85.37071
G1 X116.840 Y174.417 E85.53566
G1 X115.722 Y175.148 E85.69432
G1 X114.517 Y175.727 E85.85307
G1 X113.451 Y176.089 E85.98682
G1 X112.144 Y176.363 E86.14536
G1 X110.812 Y176.464 E86.30405
G1 X110.601 Y176.464 E86.32907
G1 X109.268 Y176.363 E86.48780
G1 X107.961 Y176.088 E86.64647
G1 X106.700 Y175.646 E86.80511
G1 X105.508 Y175.043 E86.96377
G1 X104.572 Y174.417 E87.09758
G1 X103.559 Y173.547 E87.25619
G1 X103.410 Y173.398 E87.28121
G1 X102.667 Y172.551 E87.41503
G1 X102.474 Y172.287 E87.45377
G1 X101.808 Y171.266 E87.59862
G1 X101.310 Y170.256 E87.73228
G1 X101.230 Y170.062 E87.75732
G1 X100.813 Y168.792 E87.91606
G1 X100.594 Y167.687 E88.04976
G1 X100.505 Y166.558 E88.18437
G1 X100.382 Y165.741 E88.28238
G1 X100.237 Y165.399 E88.32655
G1 X99.958 Y165.025 E88.38199
G1 X99.590 Y164.738 E88.43742
G1 X99.506 Y164.692 E88.44878
G1 X99.066 Y164.536 E88.50422
G1 X98.601 Y164.502 E88.55966
G1 X98.143 Y164.592 E88.61510
G1 X97.725 Y164.799 E88.67053
G1 X97.376 Y165.110 E88.72597
G1 X97.122 Y165.502 E88.78141
G1 X96.505 Y167.275 E89.00444
G1 X94.833 Y168.464 E89.24808
G1 X81.375 Y168.464 E90.84641
G1 X79.492 Y166.581 E91.16260
G1 X79.492 Y157.882 E92.19575
G1 X79.074 Y157.464 E92.26602
G1 X67.419 Y157.464 E93.65025
G1 X65.536 Y155.581 E93.96645
G1 X65.536 Y25.479 E109.41807
G1 E107.41807 F2400.00000
G92 E0
G1 X65.750 Y23.750 F9000.000
G1 X66.922 Y25.507 F9000.000
G1 X66.750 Y154.480 F9000.000
G1 X67.750 Y154.480 F9000.000
G1 X110.206 Y166.228 F9000.000
G1 E2.00000 F2400.00000
G1 X111.002 Y166.621 E2.10549 F1800.000
G1 X111.850 Y165.971 E2.23236
G1 X112.134 Y165.807 E2.27130
G1 X112.917 Y165.482 E2.37201
G1 X113.235 Y165.397 E2.41107
G1 X114.077 Y165.286 E2.51199
G1 X114.405 Y165.286 E2.55096
G1 X115.249 Y165.397 E2.65202
G1 X115.565 Y165.482 E2.69086
G1 X116.192 Y165.742 E2.77154
G1 X116.351 Y165.808 E2.79198
G1 X116.634 Y165.971 E2.83073
G1 X117.308 Y166.488 E2.93160
G1 X117.539 Y166.720 E2.97050
G1 X118.056 Y167.394 E3.07138
G1 X118.220 Y167.678 E3.11031
G1 X118.545 Y168.463 E3.21126
G1 X118.630 Y168.779 E3.25017
G1 X118.741 Y169.621 E3.35105
G1 X118.741 Y169.949 E3.38999
G1 X118.630 Y170.792 E3.49090
G1 X118.545 Y171.108 E3.52983
G1 X118.220 Y171.893 E3.63075
G1 X118.056 Y172.177 E3.66967
G1 X117.564 Y172.819 E3.76573
G1 X117.396 Y172.998 E3.79489
G1 X116.554 Y173.737 E3.92797
G1 X115.527 Y174.436 E4.07551
G1 X114.416 Y174.996 E4.22323
G1 X113.086 Y175.447 E4.39009
G1 X111.865 Y175.679 E4.53765
G1 X110.788 Y175.750 E4.66580
G1 X109.547 Y175.679 E4.81347
G1 X108.326 Y175.447 E4.96104
G1 X106.995 Y174.995 E5.12797
G1 X105.886 Y174.436 E5.27553
G1 X104.858 Y173.737 E5.42316
G1 X103.931 Y172.909 E5.57072
G1 X103.120 Y171.968 E5.71826
G1 X102.520 Y171.071 E5.84650
G1 X101.961 Y169.961 E5.99403
G1 X101.551 Y168.787 E6.14172
G1 X101.299 Y167.571 E6.28925
G1 X101.216 Y166.487 E6.41843
G1 X101.102 Y165.643 E6.51948
G1 X100.857 Y165.032 E6.59772
G1 X100.459 Y164.507 E6.67596
G1 X99.936 Y164.106 E6.75420
G1 X99.326 Y163.857 E6.83244
G1 X99.233 Y163.835 E6.84379
G1 X98.577 Y163.781 E6.92203
G1 X97.929 Y163.903 E7.00027
G1 X97.418 Y164.140 E7.06724
G1 X96.906 Y164.555 E7.14549
G1 X96.842 Y164.626 E7.15684
G1 X96.479 Y165.176 E7.23508
G1 X95.905 Y166.825 E7.44244
G1 X94.605 Y167.750 E7.63194
G1 X81.671 Y167.750 E9.16806
G1 X80.207 Y166.285 E9.41399
G1 X80.207 Y157.168 E10.49683
G1 X79.788 Y156.750 E10.56709
G1 X67.715 Y156.750 E12.00101
G1 X66.250 Y155.285 E12.24694
G1 X66.250 Y25.715 E27.63542
G1 X67.715 Y24.250 E27.88135
G1 X132.285 Y24.250 E35.55010
G1 X133.750 Y25.715 E35.79603
G1 X133.750 Y155.285 E51.18452
G1 X132.285 Y156.750 E51.43044
G1 X110.624 Y156.750 E54.00306
G1 X110.206 Y157.168 E54.07332
G1 X110.206 Y166.168 E55.14226
G1 X109.696 Y166.887 F9000.000
G1 X109.896 Y167.127 E55.17928 F1800.000
G1 X110.150 Y167.307 E55.21630
G1 X110.352 Y167.390 E55.24226
G1 X110.659 Y167.443 E55.27928
G1 X110.970 Y167.414 E55.31630
G1 X111.343 Y167.260 E55.36431
G1 X112.247 Y166.566 E55.49968
G1 X112.450 Y166.449 E55.52749
G1 X113.148 Y166.160 E55.61715
G1 X113.374 Y166.099 E55.64505
G1 X114.124 Y166.000 E55.73485
G1 X114.359 Y166.000 E55.76268
G1 X115.109 Y166.099 E55.85259
G1 X115.335 Y166.159 E55.88033
G1 X115.919 Y166.402 E55.95544
G1 X116.236 Y166.566 E55.99788
G1 X116.836 Y167.026 E56.08764
G1 X117.001 Y167.192 E56.11542
G1 X117.461 Y167.791 E56.20520
G1 X117.578 Y167.994 E56.23301
G1 X117.868 Y168.693 E56.32283
G1 X117.928 Y168.919 E56.35062
G1 X118.027 Y169.668 E56.44039
G1 X118.027 Y169.902 E56.46821
G1 X117.928 Y170.652 E56.55801
G1 X117.868 Y170.878 E56.58582
G1 X117.578 Y171.577 E56.67562
G1 X117.461 Y171.780 E56.70341
G1 X117.019 Y172.356 E56.78974
G1 X116.899 Y172.484 E56.81057
G1 X116.101 Y173.184 E56.93670
G1 X115.150 Y173.829 E57.07315
G1 X114.121 Y174.345 E57.20974
G1 X112.923 Y174.751 E57.36000
G1 X111.795 Y174.968 E57.49647
G1 X110.765 Y175.035 E57.61907
G1 X109.617 Y174.968 E57.75562
G1 X108.489 Y174.751 E57.89210
G1 X107.290 Y174.344 E58.04240
G1 X106.263 Y173.829 E58.17887
G1 X105.312 Y173.184 E58.31539
G1 X104.453 Y172.421 E58.45186
G1 X103.701 Y171.552 E58.58832
G1 X103.127 Y170.693 E58.71099
G1 X102.612 Y169.666 E58.84744
G1 X102.235 Y168.580 E58.98400
G1 X102.004 Y167.455 E59.12045
G1 X101.927 Y166.415 E59.24420
G1 X101.797 Y165.453 E59.35954
G1 X101.477 Y164.665 E59.46059
G1 X100.960 Y163.989 E59.56163
G1 X100.283 Y163.474 E59.66267
G1 X99.494 Y163.156 E59.76372
G1 X99.401 Y163.134 E59.77507
G1 X98.649 Y163.058 E59.86486
G1 X97.808 Y163.187 E59.96590
G1 X97.716 Y163.215 E59.97725
G1 X96.950 Y163.584 E60.07829
G1 X96.372 Y164.072 E60.16808
G1 X95.880 Y164.766 E60.26912
G1 X95.306 Y166.375 E60.47207
G1 X94.377 Y167.035 E60.60743
G1 X81.967 Y167.035 E62.08135
G1 X80.921 Y165.990 E62.25701
G1 X80.921 Y156.454 E63.38953
G1 X80.502 Y156.035 E63.45980
G1 X68.010 Y156.035 E64.94340
G1 X66.965 Y154.990 E65.11906
G1 X66.965 Y26.010 E80.43728
G1 X68.010 Y24.965 E80.61295
G1 X131.990 Y24.965 E88.21143
G1 X133.035 Y26.010 E88.38709
G1 X133.035 Y154.990 E103.70532
G1 X131.990 Y156.035 E103.88098
G1 X109.910 Y156.035 E106.50328
G1 X109.492 Y156.454 E106.57354
G1 X109.492 Y166.110 E107.72031
G1 X109.542 Y166.514 E107.76867
G1 X109.666 Y166.835 E107.80962
G1 X109.130 Y167.322 F9000.000
G1 X109.386 Y167.636 E107.85780 F1800.000
G1 X109.790 Y167.930 E107.91714
G1 X110.256 Y168.110 E107.97648
G1 X110.753 Y168.163 E108.03582
G1 X111.156 Y168.110 E108.08412
G1 X111.622 Y167.930 E108.14346
G1 X112.645 Y167.161 E108.29547
G1 X112.767 Y167.091 E108.31216
G1 X113.378 Y166.837 E108.39076
G1 X113.514 Y166.801 E108.40750
G1 X114.171 Y166.714 E108.48618
G1 X114.312 Y166.714 E108.50288
G1 X114.892 Y166.791 E108.57243
G1 X115.104 Y166.837 E108.59822
G1 X115.717 Y167.091 E108.67699
G1 X115.838 Y167.161 E108.69360
G1 X116.364 Y167.564 E108.77226
G1 X116.463 Y167.664 E108.78893
G1 X116.866 Y168.189 E108.86760
G1 X116.937 Y168.311 E108.88429
G1 X117.190 Y168.923 E108.96298
G1 X117.226 Y169.058 E108.97966
G1 X117.313 Y169.715 E109.05832
G1 X117.313 Y169.856 E109.07501
G1 X117.226 Y170.513 E109.15370
G1 X117.190 Y170.648 E109.17038
G1 X116.937 Y171.260 E109.24906
G1 X116.866 Y171.382 E109.26574
G1 X116.402 Y171.970 E109.35479
G1 X115.647 Y172.632 E109.47397
G1 X114.772 Y173.222 E109.59934
G1 X113.762 Y173.720 E109.73306
G1 X112.829 Y174.037 E109.85014
G1 X111.795 Y174.248 E109.97549
G1 X110.671 Y174.321 E110.10920
G1 X109.618 Y174.248 E110.23461
G1 X108.651 Y174.055 E110.35169
G1 X107.650 Y173.720 E110.47704
G1 X106.701 Y173.258 E110.60241
G1 X105.820 Y172.675 E110.72785
G1 X104.974 Y171.932 E110.86154
G1 X104.282 Y171.136 E110.98691
G1 X103.699 Y170.255 E111.11233
G1 X103.236 Y169.306 E111.23771
G1 X102.919 Y168.373 E111.35481
G1 X102.709 Y167.338 E111.48018
G1 X102.638 Y166.344 E111.59851
G1 X102.492 Y165.263 E111.72815
G1 X102.097 Y164.298 E111.85200
G1 X102.049 Y164.215 E111.86335
G1 X101.461 Y163.471 E111.97594
G1 X100.629 Y162.842 E112.09978
G1 X100.546 Y162.796 E112.11114
G1 X99.568 Y162.433 E112.23499
G1 X98.625 Y162.338 E112.34758
G1 X97.595 Y162.498 E112.47142
G1 X97.503 Y162.526 E112.48278
G1 X96.562 Y162.976 E112.60663
G1 X95.774 Y163.659 E112.73048
G1 X95.194 Y164.525 E112.85433
G1 X94.706 Y165.925 E113.03035
G1 X94.149 Y166.321 E113.11157
G1 X82.262 Y166.321 E114.52329
G1 X81.635 Y165.694 E114.62868
G1 X81.635 Y155.740 E115.81089
G1 X81.217 Y155.321 E115.88115
G1 X68.306 Y155.321 E117.41444
G1 X67.679 Y154.694 E117.51984
G1 X67.679 Y26.306 E132.76780
G1 X68.306 Y25.679 E132.87319
G1 X131.694 Y25.679 E140.40141
G1 X132.321 Y26.306 E140.50681
G1 X132.321 Y154.694 E155.75477 F1800.000
G1 X131.694 Y155.321 E155.86017
G1 X109.196 Y155.321 E158.53215
G1 X108.777 Y155.740 E158.60241
G1 X108.777 Y166.156 E159.83956
G1 X108.870 Y166.790 E159.91567
G1 X109.026 Y167.166 E159.96397
G1 X109.093 Y167.274 E159.97910
G1 E157.97910 F2400.00000
G92 E0
G1 X93.921 Y165.607 F9000.000
G1 E2.00000 F2400.00000
G1 X82.558 Y165.607 E3.34952 F1800.000
G1 X82.349 Y165.398 E3.38465
G1 X82.349 Y155.025 E4.61654
G1 X81.931 Y154.607 E4.68680
G1 X68.602 Y154.607 E6.26978
G1 X68.393 Y154.398 E6.30491
G1 X68.393 Y26.602 E21.48260
G1 X68.602 Y26.393 E21.51773
G1 X131.398 Y26.393 E28.97569
G1 X131.607 Y26.602 E29.01082
G1 X131.607 Y154.398 E44.18851
G1 X131.398 Y154.607 E44.22365
G1 X108.482 Y154.607 E46.94531
G1 X108.063 Y155.025 E47.01558
G1 X108.063 Y166.203 E48.34310
G1 X108.150 Y166.886 E48.42491
G1 X108.402 Y167.526 E48.50657
G1 X108.811 Y168.079 E48.58824
G1 X109.349 Y168.507 E48.66991
G1 X109.979 Y168.782 E48.75158
G1 X110.753 Y168.884 E48.84425
G1 X111.343 Y168.806 E48.91488
G1 X111.982 Y168.554 E48.99655
G1 X113.043 Y167.756 E49.15418
G1 X113.609 Y167.515 E49.22724
G1 X114.218 Y167.428 E49.30034
G1 X114.829 Y167.503 E49.37345
G1 X115.400 Y167.733 E49.44655
G1 X115.892 Y168.102 E49.51961
G1 X116.295 Y168.627 E49.59819
G1 X116.524 Y169.198 E49.67128
G1 X116.599 Y169.809 E49.74435
G1 X116.512 Y170.418 E49.81744
G1 X116.271 Y170.984 E49.89052
G1 X115.904 Y171.457 E49.96154
G1 X115.194 Y172.080 E50.07376
G1 X114.395 Y172.616 E50.18805
G1 X113.532 Y173.043 E50.30236
G1 X112.621 Y173.353 E50.41665
G1 X111.678 Y173.543 E50.53093
G1 X110.718 Y173.607 E50.64522
G1 X109.757 Y173.546 E50.75953
G1 X108.813 Y173.359 E50.87382
G1 X107.902 Y173.052 E50.98810
G1 X107.038 Y172.627 E51.10239
G1 X106.237 Y172.094 E51.21670
G1 X105.512 Y171.461 E51.33099
G1 X104.849 Y170.700 E51.45087
G1 X104.329 Y169.918 E51.56233
G1 X103.905 Y169.055 E51.67662
