; generated by Slic3r 1.2.9 on 2017-07-13 at 23:17:43

; external perimeters extrusion width = 0.40mm
; perimeters extrusion width = 0.48mm
; infill extrusion width = 0.48mm
; solid infill extrusion width = 0.48mm
; top infill extrusion width = 0.48mm

M107
M190 S70 ; set bed temperature
M104 S245 ; set temperature
G28 ; home all axes
G1 Z5 F5000 ; lift nozzle

M109 S245 ; wait for temperature to be reached
G21 ; set units to millimeters
G90 ; use absolute coordinates
M82 ; use absolute distances for extrusion
G92 E0
G1 Z0.400 F7800.000
G1 E-2.00000 F2400.00000
G92 E0
G1 X62.683 Y24.475 F7800.000
G1 E2.00000 F2400.00000
G1 X63.827 Y22.470 E2.27422 F1800.000
G1 X65.583 Y20.970 E2.54845
G1 X67.743 Y20.155 E2.82267
G1 X69.000 Y20.036 E2.97264
G1 X131.000 Y20.036 E10.33608
G1 X133.275 Y20.433 E10.61031
G1 X135.280 Y21.577 E10.88453 F1800.000
G1 X136.780 Y23.333 E11.15876
G1 X137.595 Y25.493 E11.43298
G1 X137.714 Y26.750 E11.58295
G1 X137.714 Y154.250 E26.72551
G1 X137.317 Y156.525 E26.99973
G1 X135.940 Y158.797 E27.31527
G1 X120.341 Y175.747 E30.05111
G1 X119.827 Y176.248 E30.13631
G1 X119.138 Y176.852 E30.24520
G1 X118.432 Y177.393 E30.35076
G1 X117.681 Y177.895 E30.45811
G1 X116.920 Y178.334 E30.56241
G1 X116.099 Y178.739 E30.67115
G1 X115.287 Y179.075 E30.77549
G1 X114.420 Y179.369 E30.88423
G1 X113.572 Y179.597 E30.98850
G1 X112.674 Y179.775 E31.09725
G1 X111.803 Y179.890 E31.20159
G1 X110.890 Y179.950 E31.31033
G1 X110.012 Y179.950 E31.41461
G1 X109.096 Y179.890 E31.52353
G1 X108.227 Y179.775 E31.62770
G1 X107.341 Y179.599 E31.73499
G1 X106.481 Y179.369 E31.84071
G1 X105.456 Y179.019 E31.96932
G1 X85.135 Y171.552 E34.54056
G1 X84.012 Y171.017 E34.68824
G1 X65.562 Y160.017 E37.23941
G1 X63.811 Y158.511 E37.51363
G1 X62.675 Y156.501 E37.78786
G1 X62.286 Y154.250 E38.05921
G1 X62.286 Y26.750 E53.20177
G1 X62.673 Y24.535 E53.46887
G1 E51.46887 F2400.00000
G92 E0
G1 X65.072 Y25.123 F7800.000
G1 E2.00000 F2400.00000
G1 X67.373 Y22.822 E2.38646 F1800.000
G1 X132.627 Y22.822 E10.13635
G1 X134.928 Y25.123 E10.52281
G1 X134.928 Y155.877 E26.05183 F1800.000
G1 X132.627 Y158.178 E26.43829
G1 X111.797 Y158.178 E28.91218
G1 X111.378 Y158.596 E28.98245
G1 X111.378 Y163.769 E29.59676
G1 X111.937 Y164.198 E29.68042
G1 X112.701 Y163.993 E29.77427
G1 X113.728 Y163.858 E29.89731
G1 X114.245 Y163.858 E29.95870
G1 X115.272 Y163.993 E30.08173
G1 X115.769 Y164.126 E30.14289
G1 X116.484 Y164.422 E30.23476
G1 X116.730 Y164.525 E30.26642
G1 X117.174 Y164.781 E30.32736
G1 X117.996 Y165.412 E30.45035
G1 X118.360 Y165.776 E30.51150
G1 X118.991 Y166.598 E30.63464
G1 X119.249 Y167.045 E30.69581
G1 X119.645 Y168.003 E30.81897
G1 X119.779 Y168.500 E30.88016
G1 X119.914 Y169.528 E31.00329
G1 X119.914 Y170.043 E31.06445
G1 X119.779 Y171.071 E31.18759
G1 X119.645 Y171.568 E31.24875
G1 X119.249 Y172.526 E31.37190
G1 X118.991 Y172.973 E31.43310
G1 X118.399 Y173.744 E31.54856
G1 X118.135 Y174.026 E31.59440
G1 X117.205 Y174.842 E31.74138
G1 X117.001 Y174.998 E31.77187
G1 X116.025 Y175.650 E31.91122
G1 X115.802 Y175.779 E31.94189
G1 X114.751 Y176.297 E32.08102
G1 X114.513 Y176.396 E32.11163
G1 X113.403 Y176.772 E32.25083
G1 X113.155 Y176.839 E32.28137
G1 X112.005 Y177.068 E32.42059
G1 X111.750 Y177.101 E32.45119
G1 X110.580 Y177.178 E32.59042
G1 X110.322 Y177.178 E32.62101
G1 X109.151 Y177.101 E32.76040
G1 X108.896 Y177.068 E32.79090
G1 X107.746 Y176.839 E32.93020
G1 X107.498 Y176.772 E32.96071
G1 X106.388 Y176.396 E33.09988
G1 X106.150 Y176.297 E33.13050
G1 X105.099 Y175.779 E33.26965
G1 X104.876 Y175.650 E33.30031
G1 X103.900 Y174.998 E33.43965
G1 X103.591 Y174.749 E33.48684
G1 X102.814 Y174.068 E33.60947
G1 X102.633 Y173.886 E33.64001
G1 X101.859 Y173.004 E33.77943
G1 X101.702 Y172.800 E33.80989
G1 X101.052 Y171.826 E33.94899
G1 X100.923 Y171.603 E33.97963
G1 X100.404 Y170.551 E34.11888
G1 X100.305 Y170.313 E34.14948
G1 X99.928 Y169.202 E34.28889
G1 X99.862 Y168.954 E34.31939
G1 X99.633 Y167.804 E34.45863
G1 X99.599 Y167.549 E34.48917
G1 X99.538 Y166.629 E34.59872
G1 X99.432 Y165.932 E34.68243
G1 X99.362 Y165.766 E34.70379
G1 X99.201 Y165.543 E34.73644
G1 X98.988 Y165.370 E34.76909
G1 X98.904 Y165.324 E34.78044
G1 X98.643 Y165.237 E34.81308
G1 X98.369 Y165.222 E34.84573
G1 X98.100 Y165.280 E34.87838
G1 X97.937 Y165.355 E34.89974
G1 X97.719 Y165.523 E34.93238
G1 X97.655 Y165.594 E34.94374
G1 X97.510 Y165.827 E34.97638
G1 X96.849 Y167.725 E35.21508
G1 X94.805 Y169.178 E35.51286
G1 X85.824 Y169.178 E36.57957
G1 X83.523 Y166.877 E36.96603
G1 X83.523 Y158.596 E37.94949
G1 X83.104 Y158.178 E38.01976
G1 X67.373 Y158.178 E39.88809
G1 X65.072 Y155.877 E40.27455
G1 X65.072 Y25.183 E55.79644
G1 X65.786 Y25.419 F7800.000
G1 X67.669 Y23.536 E56.11263 F1800.000
G1 X132.331 Y23.536 E63.79227
G1 X134.214 Y25.419 E64.10846 F1800.000
G1 X134.214 Y155.581 E79.56721
G1 X132.331 Y157.464 E79.88340
G1 X111.083 Y157.464 E82.40699
G1 X110.664 Y157.882 E82.47725
G1 X110.664 Y164.850 E83.30480
G1 X111.300 Y165.274 E83.39553
G1 X112.433 Y164.804 E83.54127
G1 X112.840 Y164.695 E83.59131
G1 X113.775 Y164.572 E83.70325
G1 X114.198 Y164.572 E83.75348
G1 X115.132 Y164.695 E83.86541
G1 X115.539 Y164.804 E83.91545
G1 X116.413 Y165.166 E84.02780
G1 X116.776 Y165.376 E84.07766
G1 X117.524 Y165.950 E84.18956
G1 X117.822 Y166.248 E84.23959
G1 X118.396 Y166.996 E84.35162
G1 X118.607 Y167.361 E84.40167
G1 X118.968 Y168.233 E84.51371
G1 X119.077 Y168.640 E84.56377
G1 X119.200 Y169.575 E84.67579
G1 X119.200 Y169.996 E84.72582
G1 X119.077 Y170.931 E84.83786
G1 X118.968 Y171.338 E84.88789
G1 X118.607 Y172.210 E84.99992
G1 X118.396 Y172.575 E85.05000
G1 X117.854 Y173.281 E85.15574
G1 X117.638 Y173.512 E85.19324
G1 X116.585 Y174.417 E85.35817
G1 X115.465 Y175.149 E85.51700
G1 X114.261 Y175.727 E85.67561
G1 X112.993 Y176.143 E85.83422
G1 X111.889 Y176.363 E85.96790
G1 X110.556 Y176.464 E86.12658
G1 X110.346 Y176.464 E86.15160
G1 X109.013 Y176.363 E86.31033
G1 X107.705 Y176.088 E86.46900
G1 X106.445 Y175.646 E86.62764
G1 X105.253 Y175.043 E86.78630
G1 X104.316 Y174.417 E86.92008
G1 X104.061 Y174.212 E86.95896
G1 X103.154 Y173.398 E87.10374
G1 X102.411 Y172.550 E87.23758
G1 X101.658 Y171.449 E87.39604
G1 X101.553 Y171.266 E87.42111
G1 X100.974 Y170.062 E87.57980
G1 X100.558 Y168.792 E87.73855
G1 X100.338 Y167.687 E87.87225
G1 X100.249 Y166.558 E88.00685
G1 X100.152 Y165.834 E88.09360
G1 X99.982 Y165.399 E88.14904
G1 X99.933 Y165.317 E88.16039
G1 X99.634 Y164.958 E88.21583
G1 X99.334 Y164.738 E88.26000
G1 X98.904 Y164.558 E88.31544
G1 X98.441 Y164.498 E88.37088
G1 X97.978 Y164.563 E88.42632
G1 X97.550 Y164.748 E88.48176
G1 X97.185 Y165.039 E88.53719
G1 X97.121 Y165.110 E88.54855
G1 X96.867 Y165.502 E88.60399
G1 X96.249 Y167.275 E88.82702
G1 X94.577 Y168.464 E89.07066
G1 X86.119 Y168.464 E90.07516
G1 X84.237 Y166.581 E90.39135
G1 X84.237 Y157.882 E91.42450
G1 X83.819 Y157.464 E91.49477
G1 X67.669 Y157.464 E93.41279
G1 X65.786 Y155.581 E93.72898
G1 X65.786 Y25.479 E109.18061
G1 E107.18061 F2400.00000
G92 E0
G1 X66.000 Y23.750 F7800.000
G1 X67.172 Y25.507 F7800.000
G1 X67.000 Y154.514 F7800.000
G1 X68.000 Y154.514 F7800.000
G1 X109.950 Y166.228 F7800.000
G1 E2.00000 F2400.00000
G1 X110.747 Y166.621 E2.10549 F1800.000
G1 X111.594 Y165.971 E2.23227
G1 X111.876 Y165.808 E2.27106
G1 X112.663 Y165.482 E2.37223
G1 X112.980 Y165.397 E2.41115
G1 X113.822 Y165.286 E2.51199
G1 X114.151 Y165.286 E2.55106
G1 X114.992 Y165.397 E2.65190
G1 X115.309 Y165.482 E2.69081
G1 X115.937 Y165.742 E2.77153
G1 X116.096 Y165.808 E2.79198
G1 X116.378 Y165.971 E2.83076
G1 X117.052 Y166.488 E2.93157
G1 X117.284 Y166.720 E2.97049
G1 X117.801 Y167.394 E3.07140
G1 X117.965 Y167.678 E3.11032
G1 X118.290 Y168.463 E3.21125
G1 X118.375 Y168.779 E3.25018
G1 X118.486 Y169.622 E3.35109
G1 X118.486 Y169.949 E3.39000
G1 X118.375 Y170.792 E3.49092
G1 X118.290 Y171.108 E3.52983
G1 X117.965 Y171.893 E3.63075
G1 X117.801 Y172.177 E3.66970
G1 X117.309 Y172.819 E3.76572
G1 X117.141 Y172.998 E3.79489
G1 X116.298 Y173.737 E3.92797
G1 X115.271 Y174.436 E4.07556
G1 X114.161 Y174.995 E4.22312
G1 X112.830 Y175.447 E4.39007
G1 X111.610 Y175.679 E4.53765
G1 X110.369 Y175.750 E4.68523
G1 X109.129 Y175.658 E4.83285
G1 X108.071 Y175.447 E4.96104
G1 X106.891 Y175.058 E5.10853
G1 X105.630 Y174.436 E5.27553
G1 X104.603 Y173.737 E5.42312
G1 X103.676 Y172.909 E5.57073
G1 X102.963 Y172.097 E5.69900
G1 X102.265 Y171.071 E5.84641
G1 X101.643 Y169.810 E6.01345
G1 X101.253 Y168.629 E6.16108
G1 X101.043 Y167.571 E6.28924
G1 X100.960 Y166.487 E6.41842
G1 X100.822 Y165.551 E6.53073
G1 X100.602 Y165.032 E6.59770
G1 X100.204 Y164.507 E6.67594
G1 X99.681 Y164.106 E6.75418
G1 X99.597 Y164.060 E6.76554
G1 X98.978 Y163.835 E6.84377
G1 X98.321 Y163.781 E6.92201
G1 X97.674 Y163.903 E7.00026
G1 X97.082 Y164.192 E7.07850
G1 X96.587 Y164.626 E7.15673
G1 X96.267 Y165.091 E7.22371
G1 X95.650 Y166.825 E7.44233
G1 X94.349 Y167.750 E7.63183
G1 X86.415 Y167.750 E8.57413
G1 X84.951 Y166.285 E8.82005
G1 X84.951 Y157.168 E9.90289
G1 X84.533 Y156.750 E9.97315
G1 X67.965 Y156.750 E11.94086
G1 X66.500 Y155.285 E12.18679
G1 X66.500 Y25.715 E27.57528
G1 X67.965 Y24.250 E27.82120
G1 X132.035 Y24.250 E35.43057
G1 X133.500 Y25.715 E35.67650
G1 X133.500 Y155.285 E51.06498
G1 X132.035 Y156.750 E51.31091
G1 X110.368 Y156.750 E53.88418
G1 X109.950 Y157.168 E53.95444
G1 X109.950 Y166.168 E55.02339
G1 X109.441 Y166.887 F7800.000
G1 X109.640 Y167.127 E55.06040 F1800.000
G1 X109.895 Y167.307 E55.09742
G1 X110.187 Y167.414 E55.13444
G1 X110.404 Y167.443 E55.16040
G1 X110.714 Y167.414 E55.19742
G1 X111.088 Y167.260 E55.24544
G1 X111.992 Y166.566 E55.38075
G1 X112.193 Y166.449 E55.40845
G1 X112.893 Y166.159 E55.49843
G1 X113.119 Y166.099 E55.52623
G1 X113.869 Y166.000 E55.61598
G1 X114.104 Y166.000 E55.64388
G1 X114.853 Y166.099 E55.73363
G1 X115.079 Y166.159 E55.76142
G1 X115.779 Y166.449 E55.85140
G1 X115.981 Y166.566 E55.87910
G1 X116.580 Y167.026 E55.96883
G1 X116.746 Y167.192 E55.99662
G1 X117.206 Y167.791 E56.08642
G1 X117.323 Y167.994 E56.11422
G1 X117.612 Y168.693 E56.20403
G1 X117.673 Y168.919 E56.23184
G1 X117.772 Y169.669 E56.32163
G1 X117.772 Y169.903 E56.34943
G1 X117.673 Y170.652 E56.43923
G1 X117.612 Y170.878 E56.46702
G1 X117.323 Y171.577 E56.55682
G1 X117.206 Y171.780 E56.58464
G1 X116.763 Y172.356 E56.67095
G1 X116.643 Y172.484 E56.69178
G1 X115.845 Y173.184 E56.81791
G1 X114.894 Y173.829 E56.95440
G1 X113.867 Y174.344 E57.09087
G1 X112.781 Y174.721 E57.22735
G1 X111.539 Y174.968 E57.37767
G1 X110.392 Y175.035 E57.51415
G1 X109.246 Y174.953 E57.65067
G1 X108.120 Y174.721 E57.78714
G1 X107.035 Y174.344 E57.92361
G1 X106.109 Y173.888 E58.04617
G1 X105.207 Y173.295 E58.17435
G1 X105.056 Y173.184 E58.19659
G1 X104.280 Y172.504 E58.31924
G1 X103.516 Y171.644 E58.45579
G1 X102.813 Y170.592 E58.60605
G1 X102.312 Y169.558 E58.74254
G1 X101.980 Y168.580 E58.86523
G1 X101.748 Y167.455 E59.00167
G1 X101.671 Y166.415 E59.12542
G1 X101.542 Y165.453 E59.24076
G1 X101.222 Y164.665 E59.34181
G1 X100.705 Y163.989 E59.44285
G1 X100.636 Y163.923 E59.45420
G1 X100.027 Y163.474 E59.54399
G1 X99.238 Y163.156 E59.64503
G1 X99.145 Y163.134 E59.65638
G1 X98.298 Y163.061 E59.75743
G1 X97.461 Y163.215 E59.85847
G1 X96.694 Y163.584 E59.95952
G1 X96.117 Y164.072 E60.04930
G1 X95.624 Y164.766 E60.15034
G1 X95.050 Y166.375 E60.35329
G1 X94.121 Y167.035 E60.48865
G1 X86.711 Y167.035 E61.36875
G1 X85.665 Y165.990 E61.54441
G1 X85.665 Y156.454 E62.67693
G1 X85.247 Y156.035 E62.74719
G1 X68.260 Y156.035 E64.76458
G1 X67.215 Y154.990 E64.94025
G1 X67.215 Y26.010 E80.25847
G1 X68.260 Y24.965 E80.43413
G1 X131.740 Y24.965 E87.97323
G1 X132.785 Y26.010 E88.14890
G1 X132.785 Y154.990 E103.46712
G1 X131.740 Y156.035 E103.64278
G1 X109.654 Y156.035 E106.26573
G1 X109.236 Y156.454 E106.33600
G1 X109.236 Y166.110 E107.48277
G1 X109.286 Y166.514 E107.53112
G1 X109.411 Y166.835 E107.57208
G1 X108.874 Y167.322 F7800.000
G1 X109.131 Y167.636 E107.62026 F1800.000
G1 X109.534 Y167.930 E107.67960
G1 X110.001 Y168.110 E107.73893
G1 X110.497 Y168.163 E107.79828
G1 X110.901 Y168.110 E107.84657
G1 X111.367 Y167.930 E107.90591
G1 X112.389 Y167.161 E108.05789
G1 X112.582 Y167.061 E108.08364
G1 X113.123 Y166.837 E108.15326
G1 X113.259 Y166.801 E108.16994
G1 X113.916 Y166.714 E108.24859
G1 X114.057 Y166.714 E108.26533
G1 X114.713 Y166.801 E108.34398
G1 X114.849 Y166.837 E108.36066
G1 X115.462 Y167.091 E108.43945
G1 X115.583 Y167.161 E108.45607
G1 X116.108 Y167.564 E108.53471
G1 X116.207 Y167.663 E108.55139
G1 X116.611 Y168.189 E108.63007
G1 X116.681 Y168.311 E108.64675
G1 X116.935 Y168.923 E108.72544
G1 X116.971 Y169.059 E108.74212
G1 X117.057 Y169.715 E108.82080
G1 X117.057 Y169.856 E108.83748
G1 X116.971 Y170.513 E108.91616
G1 X116.935 Y170.648 E108.93284
G1 X116.681 Y171.260 E109.01152
G1 X116.611 Y171.382 E109.02821
G1 X116.146 Y171.970 E109.11725
G1 X115.336 Y172.675 E109.24472
G1 X114.516 Y173.222 E109.36182
G1 X113.572 Y173.693 E109.48720
G1 X112.506 Y174.055 E109.62089
G1 X111.469 Y174.257 E109.74628
G1 X110.416 Y174.321 E109.87166
G1 X109.362 Y174.248 E109.99707
G1 X108.395 Y174.055 E110.11415
G1 X107.394 Y173.720 E110.23950
G1 X106.385 Y173.222 E110.37321
G1 X105.509 Y172.632 E110.49860
G1 X104.719 Y171.932 E110.62401
G1 X104.026 Y171.136 E110.74941
G1 X103.443 Y170.255 E110.87477
G1 X103.007 Y169.371 E110.99184
G1 X102.663 Y168.373 E111.11728
G1 X102.453 Y167.338 E111.24264
G1 X102.382 Y166.344 E111.36097
G1 X102.237 Y165.263 E111.49061
G1 X101.842 Y164.298 E111.61446
G1 X101.793 Y164.215 E111.62581
G1 X101.137 Y163.405 E111.74966
G1 X100.374 Y162.842 E111.86225
G1 X99.406 Y162.455 E111.98609
G1 X99.313 Y162.433 E111.99745
G1 X98.274 Y162.341 E112.12130
G1 X97.248 Y162.526 E112.24515
G1 X96.307 Y162.976 E112.36900
G1 X95.518 Y163.659 E112.49284
G1 X94.938 Y164.525 E112.61669
G1 X94.451 Y165.925 E112.79272
G1 X93.894 Y166.321 E112.87393
G1 X87.007 Y166.321 E113.69183
G1 X86.379 Y165.694 E113.79722
G1 X86.379 Y155.740 E114.97943
G1 X85.961 Y155.321 E115.04969
G1 X68.556 Y155.321 E117.11677
G1 X67.929 Y154.694 E117.22217
G1 X67.929 Y26.306 E132.47013
G1 X68.556 Y25.679 E132.57552
G1 X131.444 Y25.679 E140.04436
G1 X132.071 Y26.306 E140.14976
G1 X132.071 Y154.694 E155.39772 F1800.000
G1 X131.444 Y155.321 E155.50311
G1 X108.940 Y155.321 E158.17575
G1 X108.522 Y155.740 E158.24601
G1 X108.522 Y166.156 E159.48316
G1 X108.615 Y166.790 E159.55927
G1 X108.770 Y167.166 E159.60757
G1 X108.838 Y167.274 E159.62270
G1 E157.62270 F2400.00000
G92 E0
G1 X93.666 Y165.607 F7800.000
G1 E2.00000 F2400.00000
G1 X87.303 Y165.607 E2.75569 F1800.000
G1 X87.094 Y165.398 E2.79082
G1 X87.094 Y155.025 E4.02271
G1 X86.675 Y154.607 E4.09298
G1 X68.852 Y154.607 E6.20974
G1 X68.643 Y154.398 E6.24487
G1 X68.643 Y26.602 E21.42256
G1 X68.852 Y26.393 E21.45770
G1 X131.148 Y26.393 E28.85627
G1 X131.357 Y26.602 E28.89140
G1 X131.357 Y154.398 E44.06909
G1 X131.148 Y154.607 E44.10423
G1 X108.226 Y154.607 E46.82655
G1 X107.808 Y155.025 E46.89681
G1 X107.808 Y166.203 E48.22434
G1 X107.895 Y166.886 E48.30614
G1 X108.146 Y167.526 E48.38781
G1 X108.555 Y168.079 E48.46948
G1 X109.093 Y168.507 E48.55114
G1 X109.724 Y168.782 E48.63281
G1 X110.497 Y168.884 E48.72549
G1 X111.087 Y168.806 E48.79612
G1 X111.727 Y168.554 E48.87779
G1 X112.787 Y167.756 E49.03541
G1 X113.353 Y167.515 E49.10851
G1 X113.963 Y167.428 E49.18158
G1 X114.574 Y167.503 E49.25467
G1 X115.145 Y167.733 E49.32779
G1 X115.669 Y168.135 E49.40634
G1 X116.039 Y168.627 E49.47943
G1 X116.269 Y169.198 E49.55251
G1 X116.343 Y169.809 E49.62559
G1 X116.257 Y170.418 E49.69867
G1 X116.016 Y170.984 E49.77176
G1 X115.649 Y171.457 E49.84277
G1 X114.939 Y172.080 E49.95500
G1 X114.139 Y172.616 E50.06929
G1 X113.277 Y173.043 E50.18358
G1 X112.366 Y173.353 E50.29788
G1 X111.423 Y173.543 E50.41216
G1 X110.462 Y173.607 E50.52646
G1 X109.502 Y173.546 E50.64076
G1 X108.558 Y173.359 E50.75506
G1 X107.646 Y173.052 E50.86934
G1 X106.782 Y172.627 E50.98362
G1 X105.981 Y172.094 E51.09793
G1 X105.257 Y171.461 E51.21223
G1 X104.621 Y170.738 E51.32653
G1 X104.085 Y169.939 E51.44080
G1 X103.649 Y169.055 E51.55788
